Film luts /LUTs/Frontier luts/ClassicPrint 16mm DWG LUT v3 250D.cube
TITLE "John Razalo - ClassicPrint 16mm v3"
# © Copyright 2025 - John Razalo Visuals
LUT_3D_SIZE 33
0.0199741 0.0205386 0.0232548
0.0367285 0.019501 0.0223697
0.058381 0.0191958 0.0197757
0.0843214 0.0192416 0.01738
0.111025 0.0185855 0.0153048
0.14107 0.0170291 0.0130465
0.175097 0.0154421 0.0103609
0.211307 0.0133059 0.00726329
0.25008 0.00996414 0.00401312
0.294484 0.00537118 0.000259403
0.339864 0.000564584 0
0.380255 0 0
0.419455 0 0
0.462943 0 0
0.503822 0 0
0.539834 0 0
0.569375 0 0
0.58883 0 0
0.604395 0 0.00112917
0.616938 0 0.005066
0.627131 0 0.00984207
0.635676 0 0.0145876
0.6421 0 0.018265
0.646754 0.000396735 0.0209049
0.650645 0.00199893 0.0230716
0.653178 0.00323491 0.0244755
0.654994 0.00418097 0.0256504
0.656275 0.00485237 0.0266117
0.657237 0.00531014 0.0273442
0.65771 0.00552377 0.0276951
0.65771 0.00552377 0.0276951
0.65771 0.00552377 0.0276951
0.65771 0.00552377 0.0276951
0.010071 0.0231022 0.0170443
0.0288853 0.026276 0.0174563
0.0471962 0.0248264 0.0156863
0.0683146 0.0238041 0.0132753
0.0923171 0.0226596 0.0112917
0.117113 0.0215915 0.00946059
0.148257 0.0203403 0.0081178
0.186786 0.0184329 0.00611887
0.230182 0.0152438 0.00328069
0.275837 0.0106355 0.000396735
0.324651 0.00569162 0
0.369741 0.000686656 0
0.409491 0 0
0.452735 0 0
0.495811 0 0
0.53344 0 0
0.563287 0 0
0.584802 0 0
0.601724 0 0
0.616205 0.000122072 0.00137331
0.627634 0 0.00538643
0.637125 0.00202945 0.0100557
0.644419 0.00509651 0.0140078
0.649943 0.00732433 0.0170443
0.654475 0.00907912 0.0196078
0.657526 0.0116884 0.0211795
0.659998 0.0142061 0.0223697
0.661921 0.0162051 0.023331
0.663188 0.0179294 0.0243381
0.663828 0.0188296 0.0248569
0.663828 0.0188296 0.0248569
0.663828 0.0188296 0.0248569
0.663828 0.0188296 0.0248569
0.00354009 0.0305333 0.0138857
0.017792 0.0331273 0.0162051
0.0392157 0.0344244 0.0138247
0.0658274 0.0332189 0.0115663
0.0897688 0.0317845 0.00973526
0.112657 0.029572 0.00791943
0.139742 0.027863 0.00665293
0.174838 0.0255283 0.0049897
0.21828 0.0219577 0.002533
0.263798 0.0175174 3.0518e-05
0.313649 0.0120089 0
0.362585 0.00607309 0
0.404334 0.00135805 0
0.447135 0 0
0.492821 0 0
0.53254 0 0
0.559426 0 0
0.5823 0 0
0.601511 0.00108339 0
0.616464 0.00117494 6.10361e-05
0.629175 0.00511177 0.00242618
0.639536 0.00959792 0.00683604
0.64744 0.0139315 0.0106813
0.653956 0.0189059 0.0138705
0.659327 0.0230564 0.016495
0.662791 0.0266575 0.0182345
0.665568 0.029633 0.0196078
0.667842 0.0321965 0.020737
0.669383 0.0343175 0.0216983
0.670085 0.0353857 0.0222171
0.670085 0.0353857 0.0222171
0.670085 0.0353857 0.0222171
0.670085 0.0353857 0.0222171
0 0.0415808 0.0128634
0.00802625 0.0407721 0.0148775
0.0252995 0.0426337 0.0135348
0.0548104 0.0463111 0.0124056
0.0844282 0.0444495 0.010132
0.115068 0.0427253 0.00775158
0.14609 0.0407874 0.00494392
0.175372 0.035996 0.00354009
0.215885 0.0320287 0.00105287
0.259174 0.0268254 0
0.306798 0.0207065 0
0.357885 0.0138552 0
0.402518 0.00743114 0
0.446235 0.00337224 0
0.493248 0 0
0.530892 0 0
0.557168 0 0
0.581872 0.00299077 0
0.602472 0.00421149 0
0.618418 0.00946059 0
0.631586 0.0142824 0.00146487
0.643229 0.0212711 0.00387579
0.652079 0.0275578 0.00703441
0.659159 0.0332341 0.0103914
0.665034 0.0386206 0.0132906
0.668818 0.0430457 0.0152285
0.671733 0.0464637 0.0167086
0.674022 0.049073 0.0178836
0.675593 0.051133 0.0187839
0.67628 0.0521706 0.0193179
0.67628 0.0521706 0.0193179
0.67628 0.0521706 0.0193179
0.67628 0.0521706 0.0193179
0 0.0547646 0.0128328
0 0.0514992 0.0133974
0.0111696 0.0533761 0.0157168
0.0364843 0.0604868 0.0135958
0.0723278 0.0612039 0.0119478
0.106233 0.0586404 0.00851453
0.141207 0.0560311 0.00489815
0.182345 0.0525216 0.00224308
0.227619 0.0487984 0
0.266377 0.0413519 0
0.308431 0.0335088 0
0.359594 0.0262303 0
0.406332 0.0182345 0
0.448966 0.0116274 0
0.494484 0.00547799 0
0.530343 0.0028687 0
0.557244 0.00608835 0
0.582864 0.00917067 0
0.604822 0.0139773 0
0.621775 0.0203098 0
0.636393 0.028397 0.000289921
0.648585 0.0362707 0.00225834
0.657954 0.044007 0.00419623
0.665293 0.0504005 0.00732433
0.67126 0.0559396 0.0102541
0.675532 0.0615091 0.0120394
0.678828 0.0658732 0.0133974
0.681453 0.0692454 0.0144808
0.683299 0.0719005 0.0152438
0.684108 0.0732433 0.0157321
0.684108 0.0732433 0.0157321
0.684108 0.0732433 0.0157321
0.684108 0.0732433 0.0157321
0 0.0705882 0.013489
0 0.0676432 0.0138094
0 0.067689 0.0154879
0.0140536 0.0724041 0.0170596
0.0495918 0.079942 0.0149386
0.0911116 0.080415 0.0114443
0.131151 0.0779431 0.0065919
0.175799 0.0727245 0.00103761
0.228534 0.0675975 0
0.27631 0.0599985 0
0.319066 0.0531472 0
0.368505 0.04477 0
0.414267 0.0349737 0
0.453788 0.0261387 0
0.495689 0.0184787 0
0.530983 0.0151369 0
0.558938 0.0163882 0
0.585595 0.0199435 0
0.6094 0.0272984 0
0.627939 0.0362402 0
0.642771 0.0459754 0
0.6551 0.054902 0.000579843
0.665064 0.0635843 0.00161746
0.673152 0.0716411 0.00364691
0.679652 0.0784619 0.00608835
0.683909 0.0838941 0.00787366
0.687037 0.0874952 0.00917067
0.689555 0.0902876 0.010193
0.691295 0.0924239 0.0109712
0.692119 0.0934768 0.0113832
0.692119 0.0934768 0.0113832
0.692119 0.0934768 0.0113832
0.692119 0.0934768 0.0113832
0 0.0898451 0.0150454
0 0.0864271 0.0150454
0 0.084596 0.0155795
0 0.086305 0.0178531
0.0170291 0.0954147 0.0192264
0.0611429 0.103471 0.0171206
0.113893 0.105928 0.0123445
0.166094 0.101884 0.00241093
0.224521 0.0952316 0
0.282094 0.0863813 0
0.327398 0.0767071 0
0.372244 0.0668803 0
0.419013 0.056733 0
0.45774 0.0462196 0
0.497063 0.0366064 0
0.53431 0.0310979 0
0.564187 0.0328527 0
0.592493 0.0382544 0
0.616922 0.0470588 0
0.635386 0.0568399 0
0.650889 0.0677653 0
0.664088 0.0783398 0
0.674128 0.0871138 0
0.681865 0.0939498 0.000885023
0.688106 0.0996262 0.00251774
0.692226 0.104189 0.00411994
0.695354 0.107759 0.0053254
0.6981 0.110979 0.00535592
0.700023 0.113451 0.00569162
0.700954 0.114656 0.00585946
0.700954 0.114656 0.00585946
0.700954 0.114656 0.00585946
0.700954 0.114656 0.00585946
0 0.115846 0.0174716
0 0.11162 0.0172427
0 0.108934 0.0173648
0 0.108934 0.0182956
0 0.113832 0.0210422
0.0158083 0.128573 0.0224308
0.0777142 0.134783 0.0206302
0.145846 0.137881 0.0111849
0.215961 0.132967 0
0.284169 0.124987 0
0.337682 0.11339 0
0.386725 0.102068 0
0.432807 0.0911421 0
0.47039 0.0809186 0
0.508171 0.0713054 0
0.545525 0.0641031 0
0.574884 0.0622568 0
0.602472 0.0662089 0
0.6271 0.0746624 0
0.64651 0.0851301 0
0.661662 0.0950027 0
0.674159 0.1037 0
0.684153 0.11191 0
0.692317 0.119493 0
0.698878 0.125826 0
0.703304 0.130846 0.00015259
0.706554 0.134615 0.000274662
0.709117 0.137163 0.000289921
0.710887 0.13904 0.000289921
0.711742 0.139971 0.000381476
0.711742 0.139971 0.000381476
0.711742 0.139971 0.000381476
0.711742 0.139971 0.000381476
0 0.149432 0.0214694
0 0.144732 0.0208438
0 0.141863 0.0204776
0 0.14052 0.0204623
0 0.143267 0.0215152
0 0.152224 0.0243076
0.00962844 0.171206 0.028275
0.0981765 0.180041 0.0260777
0.193988 0.183749 0.00788891
0.279438 0.174899 0
0.346365 0.165087 0
0.401984 0.153201 0
0.454612 0.14139 0
0.494331 0.130251 0
0.530755 0.121386 0
0.566583 0.11368 0
0.594064 0.10959 0
0.618738 0.108659 0
0.642054 0.112062 0
0.660471 0.11931 0
0.675349 0.127993 0
0.687907 0.136599 0
0.697566 0.143618 0
0.705043 0.149355 0
0.711101 0.154086 0
0.715389 0.158129 0
0.718639 0.161349 0
0.721309 0.163989 0
0.723217 0.165988 0
0.724132 0.166964 0
0.724132 0.166964 0
0.724132 0.166964 0
0.724132 0.166964 0
0 0.183322 0.0229496
0 0.179583 0.0233463
0 0.176989 0.0237278
0 0.175708 0.0242924
0 0.177035 0.0249485
0 0.18352 0.0258946
0 0.201984 0.0286412
0.00607309 0.223056 0.0308995
0.135225 0.238773 0.0275273
0.259525 0.245243 0.000442512
0.349355 0.230365 0
0.414847 0.217456 0
0.476081 0.205447 0
0.522316 0.193301 0
0.560739 0.182834 0
0.596033 0.174075 0
0.620691 0.167178 0
0.641962 0.163073 0
0.662837 0.161669 0
0.679133 0.163119 0
0.692164 0.166781 0
0.703487 0.172656 0
0.712673 0.178408 0
0.719676 0.183307 0
0.725719 0.188037 0
0.730205 0.191836 0
0.733425 0.194644 0
0.735897 0.19678 0
0.737743 0.198444 0
0.738643 0.199268 0
0.738643 0.199268 0
0.738643 0.199268 0
0.738643 0.199268 0
0 0.214466 0.0225986
0 0.210895 0.0231174
0 0.208652 0.0234226
0 0.207599 0.0238346
0 0.208148 0.0245823
0 0.213596 0.0265507
0 0.226459 0.0289616
0 0.257755 0.0300908
0.0385748 0.278614 0.0277104
0.194369 0.301366 0.0189059
0.339467 0.314733 0
0.423865 0.296437 0
0.494301 0.2851 0
0.549798 0.273106 0
0.59057 0.25948 0
0.627665 0.246021 0
0.651438 0.234974 0
0.66981 0.22681 0
0.687984 0.221195 0
0.702312 0.218616 0
0.713375 0.217563 0
0.722469 0.218677 0
0.730465 0.221546 0
0.736797 0.22501 0
0.742245 0.228641 0
0.746441 0.231754 0
0.749416 0.234165 0
0.75172 0.236057 0
0.75346 0.237476 0
0.754314 0.238209 0
0.754314 0.238209 0
0.754314 0.238209 0
0.754314 0.238209 0
0 0.247669 0.0202945
0 0.244236 0.0207675
0 0.242176 0.02121
0 0.241047 0.0216678
0 0.241321 0.0222019
0 0.246052 0.0232853
0 0.256657 0.0252689
0 0.285939 0.0278019
0 0.314778 0.0239261
0.105318 0.341466 0.0168154
0.272969 0.37052 0.00164797
0.418631 0.383886 0
0.501427 0.363928 0
0.569375 0.354208 0
0.616007 0.344198 0
0.658869 0.33286 0
0.685145 0.320089 0
0.7028 0.308293 0
0.718715 0.299184 0
0.730907 0.292378 0
0.740124 0.287526 0
0.74757 0.285176 0
0.753948 0.28394 0
0.758541 0.283436 0
0.762585 0.283864 0
0.766033 0.285039 0
0.768353 0.285817 0
0.770245 0.286824 0
0.771679 0.287541 0
0.772381 0.287922 0
0.772381 0.287922 0
0.772381 0.287922 0
0.772381 0.287922 0
0 0.278584 0.0190433
0 0.276356 0.0190585
0 0.275257 0.0189212
0 0.274983 0.0188144
0 0.275807 0.0188144
0 0.281041 0.0187381
0 0.291356 0.0188144
0 0.315618 0.0198672
0 0.3523 0.0175326
0 0.381643 0.00767529
0.186069 0.413596 0
0.357763 0.445563 0
0.496742 0.45626 0
0.580743 0.434119 0
0.631785 0.421317 0
0.680247 0.412467 0
0.712291 0.401053 0
0.731365 0.389258 0
0.747372 0.378439 0
0.759319 0.369985 0
0.76733 0.363302 0
0.773663 0.358511 0
0.778744 0.354971 0
0.782254 0.352224 0
0.785351 0.350683 0
0.787945 0.34966 0
0.789487 0.348531 0
0.790692 0.347723 0
0.791684 0.347295 0
0.792172 0.347082 0
0.792172 0.347082 0
0.792172 0.347082 0
0.792172 0.347082 0
0 0.30399 0.0158083
0 0.303059 0.0163424
0 0.302968 0.0167849
0 0.303761 0.0171817
0 0.305776 0.0175631
0 0.312001 0.0179141
0 0.322591 0.016907
0 0.344778 0.0150301
0 0.385306 0.0107118
0 0.413626 0.00103761
0.0662699 0.446265 0
0.277043 0.483131 0
0.439017 0.514641 0
0.57615 0.525734 0
0.648219 0.506416 0
0.695644 0.49044 0
0.733211 0.480644 0
0.755261 0.468772 0
0.772503 0.456992 0
0.785183 0.446845 0
0.793133 0.438224 0
0.799237 0.4318 0
0.803632 0.426596 0
0.806577 0.422293 0
0.809018 0.419211 0
0.810956 0.416709 0
0.812222 0.414694 0
0.813001 0.413031 0
0.813687 0.411994 0
0.814023 0.411475 0
0.814023 0.411475 0
0.814023 0.411475 0
0.814023 0.411475 0
0 0.326558 0.0118105
0 0.326329 0.0122225
0 0.32697 0.0124819
0 0.328603 0.012665
0 0.332586 0.0127871
0 0.339376 0.0129397
0 0.350301 0.0131838
0 0.371176 0.0111086
0 0.411505 0.00291447
0 0.438911 0
0 0.470878 0
0.194553 0.507378 0
0.366949 0.544564 0
0.524041 0.573648 0
0.644144 0.581399 0
0.710292 0.567712 0
0.749172 0.550927 0
0.7738 0.541253 0
0.79295 0.532189 0
0.807309 0.523186 0
0.816754 0.514977 0
0.823423 0.507866 0
0.82797 0.501823 0
0.831128 0.496818 0
0.833326 0.492668 0
0.834897 0.489143 0
0.836027 0.486244 0
0.836591 0.483757 0
0.837049 0.481971 0
0.837263 0.481071 0
0.837263 0.481071 0
0.837263 0.481071 0
0.837263 0.481071 0
0 0.347463 0.00631724
0 0.348272 0.00637827
0 0.349889 0.00631724
0 0.352651 0.00607309
0 0.358618 0.00549325
0 0.365789 0.00477607
0 0.377783 0.00369268
0 0.398932 0.00257877
0 0.43624 0
0 0.462806 0
0 0.492973 0
0.0856184 0.528588 0
0.29543 0.566064 0
0.458778 0.602808 0
0.603159 0.626993 0
0.699641 0.63035 0
0.766018 0.621424 0
0.790005 0.602991 0
0.807752 0.59205 0
0.823407 0.584115 0
0.834333 0.57792 0
0.841932 0.572305 0
0.84715 0.567346 0
0.851148 0.56318 0
0.853758 0.559487 0
0.855665 0.556451 0
0.857099 0.553857 0
0.857984 0.55169 0
0.858518 0.550042 0
0.858763 0.549187 0
0.858763 0.549187 0
0.858763 0.549187 0
0.858763 0.549187 0
0 0.363699 0.00183108
0 0.365621 0.0016022
0 0.368185 0.00132753
0 0.373449 0.00105287
0 0.37966 0.000686656
0 0.388388 0.000213626
0 0.40087 0
0 0.422629 0
0 0.456672 0
0 0.480903 0
0 0.508675 0
0.00331121 0.542123 0
0.22652 0.579705 0
0.390646 0.616602 0
0.548638 0.651942 0
0.666209 0.669627 0
0.75285 0.672419 0
0.804547 0.667201 0
0.825788 0.653727 0
0.838987 0.640497 0
0.849485 0.6318 0
0.857008 0.625406 0
0.861982 0.620096 0
0.86627 0.61622 0
0.868879 0.612711 0
0.870954 0.609934 0
0.872557 0.607721 0
0.873747 0.605951 0
0.874601 0.604669 0
0.875059 0.604059 0
0.875059 0.604059 0
0.875059 0.604059 0
0.875059 0.604059 0
0 0.376349 0.000396735
0 0.379278 9.15541e-05
0 0.384039 0
0 0.389822 0
0 0.396719 0
0 0.406424 0
0 0.419608 0
0 0.444282 0
0 0.473472 0
0 0.49456 0
0 0.51986 0
0 0.550317 0
0.152605 0.586587 0
0.331731 0.62211 0
0.494118 0.66067 0
0.626886 0.688075 0
0.721767 0.69929 0
0.792584 0.701091 0
0.829007 0.697063 0
0.853071 0.692058 0
0.866865 0.68481 0
0.873793 0.678096 0
0.878279 0.672053 0
0.881941 0.667689 0
0.884352 0.663767 0
0.885985 0.660288 0
0.887205 0.657404 0
0.888228 0.655268 0
0.88896 0.653635 0
0.889311 0.652842 0
0.889311 0.652842 0
0.889311 0.652842 0
0.889311 0.652842 0
0 0.386999 0.000427253
0 0.391455 6.10361e-05
0 0.397299 0
0 0.403494 0
0 0.4121 0
0 0.422782 0
0 0.438727 0
0 0.463783 0
0 0.488212 0
0 0.506523 0
0 0.529229 0
0 0.55697 0
0.0683452 0.591211 0
0.283742 0.625864 0
0.438651 0.662531 0
0.584649 0.696071 0
0.688914 0.714412 0
0.772076 0.721508 0
0.819562 0.721538 0
0.848737 0.718166 0
0.868879 0.715068 0
0.881636 0.712108 0
0.889006 0.709041 0
0.893172 0.705623 0
0.897017 0.703441 0
0.899931 0.701946 0
0.901076 0.699733 0
0.901549 0.697581 0
0.90193 0.695933 0
0.902113 0.695109 0
0.902113 0.695109 0
0.902113 0.695109 0
0.902113 0.695109 0
0 0.395834 0
0 0.402594 0
0 0.408942 0
0 0.416632 0
0 0.42594 0
0 0.437232 0
0 0.45594 0
0 0.480598 0
0 0.499306 0
0 0.516793 0
0 0.537484 0
0 0.562783 0
0.0134127 0.594415 0
0.24155 0.628397 0
0.389975 0.662226 0
0.541466 0.698497 0
0.657984 0.723125 0
0.746426 0.735241 0
0.805585 0.738796 0
0.840467 0.738445 0
0.863859 0.735714 0
0.879347 0.73315 0
0.889265 0.730739 0
0.89514 0.728344 0
0.899397 0.726467 0
0.902098 0.724941 0
0.904082 0.723552 0
0.905501 0.722362 0
0.906584 0.721431 0
0.907103 0.720958 0
0.907103 0.720958 0
0.907103 0.720958 0
0.907103 0.720958 0
0 0.404242 0
0 0.411292 0
0 0.418326 0
0 0.427039 0
0 0.437217 0
0 0.451621 0
0 0.471611 0
0 0.492531 0
0 0.508156 0
0 0.525154 0
0 0.54435 0
0 0.567651 0
0 0.596979 0
0.201419 0.629602 0
0.352743 0.661601 0
0.503014 0.697963 0
0.628183 0.726482 0
0.718715 0.742367 0
0.789776 0.749706 0
0.829526 0.750912 0
0.856962 0.750515 0
0.875425 0.749233 0
0.886839 0.747616 0
0.894026 0.745815 0
0.899107 0.744564 0
0.902556 0.743358 0
0.904738 0.742077 0
0.906371 0.741009 0
0.907561 0.740185 0
0.908141 0.739757 0
0.908141 0.739757 0
0.908141 0.739757 0
0.908141 0.739757 0
0 0.411002 0
0 0.418372 0
0 0.426825 0
0 0.436225 0
0 0.44712 0
0 0.463752 0
0 0.484215 0
0 0.502266 0
0 0.515114 0
0 0.531472 0
0 0.549737 0
0 0.571496 0
0 0.598566 0
0.162051 0.629679 0
0.323674 0.660182 0
0.470603 0.695567 0
0.60061 0.726055 0
0.69543 0.744945 0
0.772519 0.755398 0
0.818235 0.758785 0
0.849104 0.75967 0
0.86949 0.759625 0
0.883284 0.759106 0
0.891966 0.758526 0
0.897505 0.75729 0
0.901518 0.756161 0
0.904143 0.755261 0
0.906065 0.754604 0
0.907439 0.753994 0
0.908064 0.753719 0
0.908064 0.753719 0
0.908064 0.753719 0
0.908064 0.753719 0
0 0.416739 0
0 0.424994 0
0 0.433951 0
0 0.443976 0
0 0.457496 0
0 0.474784 0
0 0.494087 0
0 0.5093 0
0 0.521294 0
0 0.53669 0
0 0.55436 0
0 0.574792 0
0 0.600183 0
0.131167 0.629862 0
0.301198 0.659236 0
0.442573 0.692821 0
0.575372 0.724544 0
0.675776 0.746029 0
0.755856 0.758587 0
0.807691 0.763851 0
0.840574 0.765576 0
0.863066 0.766064 0
0.878889 0.76614 0
0.889036 0.765774 0
0.895384 0.765438 0
0.899931 0.765026 0
0.903014 0.764431 0
0.904982 0.763897 0
0.906477 0.763455 0
0.90721 0.763241 0
0.90721 0.763241 0
0.90721 0.763241 0
0.90721 0.763241 0
0 0.421317 0
0 0.430716 0
0 0.440391 0
0 0.450645 0
0 0.466163 0
0 0.484062 0
0 0.501091 0
0 0.514061 0
0 0.526589 0
0 0.541238 0
0 0.558236 0
0 0.577798 0
0 0.601877 0
0.105867 0.630274 0
0.28365 0.658564 0
0.420401 0.690501 0
0.55465 0.72285 0
0.659815 0.746212 0
0.740734 0.760204 0
0.797803 0.766964 0
0.832654 0.769467 0
0.857572 0.770306 0
0.874372 0.770947 0
0.885405 0.770962 0
0.89279 0.770733 0
0.89778 0.770535 0
0.90132 0.770275 0
0.903685 0.770016 0
0.905287 0.769802 0
0.906035 0.769635 0
0.906035 0.769635 0
0.906035 0.769635 0
0.906035 0.769635 0
0 0.424994 0
0 0.435279 0
0 0.445457 0
0 0.457618 0
0 0.473365 0
0 0.491615 0
0 0.506813 0
0 0.517952 0
0 0.530953 0
0 0.54519 0
0 0.561502 0
0 0.580606 0
0 0.603693 0
0.0871748 0.630991 0
0.272007 0.658579 0
0.404013 0.688975 0
0.53756 0.721172 0
0.645579 0.745693 0
0.726528 0.7608 0
0.78941 0.769131 0
0.825711 0.772122 0
0.852598 0.773571 0
0.870329 0.774197 0
0.882124 0.774624 0
0.890303 0.774563 0
0.895735 0.774334 0
0.899519 0.774166 0
0.90222 0.774029 0
0.903899 0.773892 0
0.904707 0.773816 0
0.904707 0.773816 0
0.904707 0.773816 0
0.904707 0.773816 0
0 0.428199 0
0 0.438788 0
0 0.449287 0
0 0.463081 0
0 0.479347 0
0 0.497444 0
0 0.511101 0
0 0.520897 0
0 0.534188 0
0 0.548089 0
0 0.564019 0
0 0.582727 0
0 0.605127 0
0.0733959 0.631479 0
0.263066 0.658442 0
0.391379 0.687678 0
0.524361 0.719768 0
0.634302 0.745052 0
0.715007 0.760998 0
0.781186 0.770397 0
0.820005 0.774136 0
0.848066 0.776043 0
0.86656 0.776623 0
0.879301 0.777295 0
0.887953 0.777401 0
0.893721 0.777295 0
0.897887 0.777127 0
0.90071 0.776989 0
0.902739 0.776867 0
0.903548 0.776806 0
0.903548 0.776806 0
0.903548 0.776806 0
0.903548 0.776806 0
0 0.431037 0
0 0.441947 0
0 0.452384 0
0 0.467445 0
0 0.484169 0
0 0.501045 0
0 0.514427 0
0 0.523293 0
0 0.536553 0
0 0.550378 0
0 0.566171 0
0 0.584405 0
0 0.606226 0
0.0646372 0.631922 0
0.256275 0.658351 0
0.381689 0.686595 0
0.514015 0.718563 0
0.625391 0.744396 0
0.706813 0.760906 0
0.774639 0.771115 0
0.81532 0.775357 0
0.843854 0.777447 0
0.863416 0.778286 0
0.876829 0.779019 0
0.885847 0.779431 0
0.892042 0.779446 0
0.896361 0.77937 0
0.899367 0.779217 0
0.901564 0.77908 0
0.902541 0.779019 0
0.902541 0.779019 0
0.902541 0.779019 0
0.902541 0.779019 0
0 0.433265 0
0 0.44445 0
0 0.455467 0
0 0.470939 0
0 0.488014 0
0 0.503929 0
0 0.51635 0
0 0.525444 0
0 0.538445 0
