Film luts /LUTs/Frontier luts/ClassicPrint 16mm DWG LUT v3 250D.cube
TITLE "John Razalo - ClassicPrint 16mm v3"
# © Copyright 2025 - John Razalo Visuals
LUT_3D_SIZE 5
0.0199741 0.0205386 0.0232548
0.25008 0.00996414 0.00401312
0.569375 0 0
0.650645 0.00199893 0.0230716
0.65771 0.00552377 0.0276951
0 0.149432 0.0214694
0.193988 0.183749 0.00788891
0.594064 0.10959 0
0.711101 0.154086 0
0.724132 0.166964 0
0 0.363699 0.00183108
0 0.456672 0
0.75285 0.672419 0
0.868879 0.612711 0
0.875059 0.604059 0
0 0.424994 0
0 0.530953 0
0.53756 0.721172 0
0.890303 0.774563 0
0.904707 0.773816 0
0 0.435798 0
0 0.540597 0
0.497353 0.716579 0
0.882246 0.782071 0
0.900374 0.782315 0
0.00619516 0.00784314 0.166094
0.263447 0.0531624 0.216159
0.589929 0 0.100191
0.658061 0 0.126329
0.666529 0.00140383 0.136797
0 0.132265 0.121752
0.175799 0.18027 0.180743
0.624933 0.091783 0.0741894
0.720943 0.149126 0.119081
0.731106 0.162173 0.13051
0 0.368734 0.040177
0 0.450004 0.0468452
0.748806 0.685389 0
0.891814 0.638651 0
0.895033 0.62562 0
0 0.438849 0.0703899
0 0.544442 0.0806592
0.516335 0.733974 0
0.893553 0.796918 0
0.908507 0.796765 0
0 0.450645 0.0827649
0 0.556237 0.0941787
0.469734 0.729778 0.0181735
0.884199 0.804715 0
0.903471 0.805844 0
0.000808728 0 0.402655
0.16701 0 0.49221
0.64036 0.0388952 0.570199
0.721035 0.0333257 0.535668
0.72433 0.038056 0.525612
0 0.0737469 0.398032
0.135668 0.0806744 0.529961
0.670481 0.163287 0.597284
0.762524 0.191302 0.56051
0.767727 0.199084 0.549294
0 0.454032 0.456596
0 0.506081 0.513726
0.72639 0.734737 0.705409
0.881407 0.666835 0.626841
0.885618 0.645533 0.60528
0 0.510643 0.390936
0 0.604913 0.463996
0.424079 0.791394 0.561929
0.879011 0.863798 0.592554
0.896284 0.861646 0.574411
0 0.511727 0.374258
0 0.609476 0.443091
0.36202 0.781506 0.522103
0.869169 0.866667 0.561746
0.890532 0.868208 0.559258
0.0530861 0 0.524071
0.223163 0 0.582086
0.663081 0.0544137 0.682185
0.737133 0.0294347 0.680003
0.743023 0.027451 0.677668
0 0.149889 0.563012
0.206332 0.166918 0.655055
0.698894 0.230579 0.727825
0.775769 0.209918 0.719402
0.78085 0.204837 0.715358
0 0.42948 0.591592
0 0.518853 0.723262
0.772824 0.614542 0.833204
0.866331 0.595087 0.81854
0.871458 0.579614 0.811612
0 0.544625 0.576516
0 0.625528 0.667811
0.307286 0.812726 0.819776
0.873014 0.882445 0.868818
0.888685 0.881117 0.865934
0 0.554406 0.58114
0 0.644602 0.680537
0.151202 0.810391 0.8094
0.86334 0.891432 0.865705
0.884153 0.892836 0.865019
0.0813153 0.000137331 0.542412
0.275471 0 0.608698
0.681529 0.0623331 0.692561
0.740169 0.0376287 0.690471
0.74435 0.0352331 0.689632
0 0.169848 0.597177
0.274708 0.191699 0.683314
0.719448 0.245319 0.7402
0.780529 0.223453 0.732479
0.784497 0.220539 0.730892
0 0.448585 0.632853
0 0.529503 0.74992
0.788891 0.60238 0.836927
0.863951 0.580133 0.825025
0.868544 0.573037 0.822522
0 0.547402 0.588663
0 0.64358 0.6981
0.447379 0.827588 0.844022
0.877195 0.879362 0.881437
0.887846 0.879255 0.880934
0 0.552758 0.588159
0 0.639109 0.685313
0.055436 0.805478 0.820371
0.861708 0.890715 0.880796
0.883299 0.892348 0.880919
