Film luts /LUTs/Frontier luts/ClassicPrint 16mm DWG LUT v3 250D.cube
TITLE "John Razalo - ClassicPrint 16mm v3"
# © Copyright 2025 - John Razalo Visuals
LUT_3D_SIZE 9
0.0199741 0.0205386 0.0232548
0.111025 0.0185855 0.0153048
0.25008 0.00996414 0.00401312
0.419455 0 0
0.569375 0 0
0.627131 0 0.00984207
0.650645 0.00199893 0.0230716
0.657237 0.00531014 0.0273442
0.65771 0.00552377 0.0276951
0 0.0547646 0.0128328
0.0723278 0.0612039 0.0119478
0.227619 0.0487984 0
0.406332 0.0182345 0
0.557244 0.00608835 0
0.636393 0.028397 0.000289921
0.67126 0.0559396 0.0102541
0.683299 0.0719005 0.0152438
0.684108 0.0732433 0.0157321
0 0.149432 0.0214694
0 0.143267 0.0215152
0.193988 0.183749 0.00788891
0.454612 0.14139 0
0.594064 0.10959 0
0.675349 0.127993 0
0.711101 0.154086 0
0.723217 0.165988 0
0.724132 0.166964 0
0 0.278584 0.0190433
0 0.275807 0.0188144
0 0.3523 0.0175326
0.496742 0.45626 0
0.712291 0.401053 0
0.76733 0.363302 0
0.785351 0.350683 0
0.791684 0.347295 0
0.792172 0.347082 0
0 0.363699 0.00183108
0 0.37966 0.000686656
0 0.456672 0
0.22652 0.579705 0
0.75285 0.672419 0
0.849485 0.6318 0
0.868879 0.612711 0
0.874601 0.604669 0
0.875059 0.604059 0
0 0.404242 0
0 0.437217 0
0 0.508156 0
0 0.596979 0
0.628183 0.726482 0
0.856962 0.750515 0
0.899107 0.744564 0
0.907561 0.740185 0
0.908141 0.739757 0
0 0.424994 0
0 0.473365 0
0 0.530953 0
0 0.603693 0
0.53756 0.721172 0
0.825711 0.772122 0
0.890303 0.774563 0
0.903899 0.773892 0
0.904707 0.773816 0
0 0.434958 0
0 0.490944 0
0 0.539895 0
0 0.608148 0
0.500374 0.71696 0
0.808652 0.776852 0
0.882918 0.781628 0
0.899672 0.781826 0
0.900771 0.781781 0
0 0.435798 0
0 0.492393 0
0 0.540597 0
0 0.608545 0
0.497353 0.716579 0
0.807187 0.777127 0
0.882246 0.782071 0
0.89926 0.78233 0
0.900374 0.782315 0
0.0124056 0.013138 0.0869764
0.100114 0.0236515 0.0933089
0.264317 0.0131533 0.055314
0.426108 0 0.0188449
0.573358 0 0.0132601
0.632792 0 0.042359
0.652628 0 0.0611276
0.660212 0.00323491 0.0700236
0.660868 0.00354009 0.0708324
0 0.0466163 0.0468147
0.049836 0.0521859 0.0612192
0.221347 0.0414435 0.0345006
0.404837 0.0123751 0.00392157
0.564767 0.000793469 0.000732433
0.648753 0.0208286 0.0309911
0.675959 0.0523232 0.0526741
0.68632 0.0684367 0.0630961
0.687144 0.0697795 0.0639353
0 0.135775 0.0292363
0 0.131395 0.0300755
0.19173 0.177096 0.0268559
0.456245 0.13846 0
0.602975 0.102266 0
0.688945 0.12372 0.0110781
0.716518 0.151843 0.0319982
0.726268 0.163775 0.0431983
0.727047 0.164767 0.0441138
0 0.268605 0.024094
0 0.271046 0.0244144
0 0.347524 0.0263371
0.49221 0.456733 0
0.725994 0.407095 0
0.788327 0.36939 0
0.802365 0.353185 0
0.805417 0.348501 0
0.805615 0.348165 0
0 0.364324 0.0122988
0 0.380179 0.0105287
0 0.455161 0.00047303
0.210101 0.579629 0
0.752758 0.675639 0
0.868055 0.649241 0
0.886488 0.628382 0
0.890074 0.617975 0
0.890211 0.616999 0
0 0.407095 0.00891127
0 0.439246 0.00463874
0 0.510933 0
0 0.598825 0
0.62324 0.729976 0
0.858595 0.756878 0
0.901976 0.752514 0
0.910887 0.74847 0
0.911513 0.748074 0
0 0.43003 0.0232395
0 0.476829 0.0182956
0 0.535607 0.00604257
0 0.607645 0
0.528054 0.725505 0
0.825467 0.779782 0
0.892302 0.783307 0
0.906157 0.782834 0
0.906981 0.782773 0
0 0.440528 0.0303349
0 0.495323 0.0275883
0 0.545617 0.0127871
0 0.612894 0
0.488258 0.72166 0
0.807279 0.78471 0
0.884428 0.791196 0
0.901701 0.791791 0
0.902846 0.79176 0
0 0.441444 0.0310216
0 0.496849 0.0284276
0 0.54641 0.0138247
0 0.613352 0
0.484932 0.721309 0
0.805676 0.78497 0
0.883711 0.791684 0
0.901259 0.79237 0
0.902419 0.79237 0
0.00619516 0.00784314 0.166094
0.069337 0.0105287 0.207111
0.263447 0.0531624 0.216159
0.466941 0.000686656 0.1458
0.589929 0 0.100191
0.638071 0 0.108171
0.658061 0 0.126329
0.665888 0.0011902 0.135973
0.666529 0.00140383 0.136797
0 0.0250095 0.152743
0.0413825 0.0281071 0.182269
0.225284 0.0579232 0.185061
0.453361 0.0202182 0.120012
0.590417 6.10361e-05 0.0833295
0.654749 0.0155947 0.101579
0.681376 0.0473182 0.124712
0.690898 0.0626993 0.1346
0.691707 0.0641184 0.135409
0 0.132265 0.121752
0 0.130648 0.122683
0.175799 0.18027 0.180743
0.481834 0.137255 0.117494
0.624933 0.091783 0.0741894
0.692927 0.118334 0.0945144
0.720943 0.149126 0.119081
0.730358 0.161166 0.129641
0.731106 0.162173 0.13051
0 0.271305 0.0688182
0 0.277852 0.0686656
0 0.34844 0.0936904
0.488533 0.461738 0.0393225
0.745708 0.41825 0
0.795483 0.37026 0.00352483
0.80531 0.349172 0.051545
0.808026 0.344167 0.0770428
0.808255 0.343923 0.0788586
0 0.368734 0.040177
0 0.381933 0.0408942
0 0.450004 0.0468452
0.155032 0.580591 0.00663767
0.748806 0.685389 0
0.872984 0.660945 0
0.891814 0.638651 0
0.894942 0.626703 0
0.895033 0.62562 0
0 0.414008 0.0513313
0 0.444846 0.0533608
0 0.517784 0.0569467
0 0.604196 0.0263371
0.614588 0.737789 0
0.859861 0.769711 0
0.904707 0.76643 0
0.914 0.762341 0
0.914656 0.761944 0
0 0.438849 0.0703899
0 0.484276 0.0772717
0 0.544442 0.0806592
0 0.615732 0.0583352
0.516335 0.733974 0
0.82443 0.791394 0
0.893553 0.796918 0
0.907668 0.79678 0
0.908507 0.796765 0
0 0.449683 0.0817273
0 0.503182 0.0906691
0 0.555413 0.0932174
0 0.621607 0.0753338
0.473426 0.730144 0.0162966
0.804913 0.796124 0
0.884978 0.804257 0
0.902785 0.80528 0
0.903944 0.805295 0
0 0.450645 0.0827649
0 0.504753 0.0918898
0 0.556237 0.0941787
0 0.622156 0.0765087
0.469734 0.729778 0.0181735
0.803021 0.796338 0
0.884199 0.804715 0
0.902281 0.805798 0
0.903471 0.805844 0
0.000381476 0 0.281559
0.0428321 0 0.314748
0.210697 0.00378424 0.402075
0.472435 0.0615091 0.403342
0.625437 0 0.358495
0.66331 0 0.302983
0.675975 0 0.281422
0.680858 9.15541e-05 0.276112
0.681239 0.000213626 0.275853
0 0.012604 0.272465
0.014847 0.00517281 0.302922
0.173037 0.0205997 0.371893
0.454307 0.0766003 0.383612
0.630182 0.0235599 0.350988
0.678614 0.0223545 0.301991
0.695933 0.0454719 0.282155
0.702342 0.0576944 0.277287
0.702953 0.0589303 0.277226
0 0.0809644 0.297704
0 0.0786145 0.312566
0.181537 0.104601 0.410407
0.487831 0.148333 0.405982
0.659724 0.118074 0.35964
0.711711 0.127398 0.306401
0.731044 0.149172 0.284977
0.738201 0.15967 0.280476
0.738781 0.160525 0.280308
0 0.30106 0.283787
0 0.31162 0.29427
0 0.372183 0.366217
0.474372 0.476356 0.452598
0.743832 0.422965 0.384894
0.79678 0.363333 0.316976
0.803677 0.333898 0.283482
0.806592 0.330816 0.278706
0.806897 0.330907 0.278401
0 0.405005 0.211048
0 0.413504 0.213275
0 0.463569 0.24184
0 0.604501 0.304219
0.738262 0.718425 0.318181
0.874891 0.688579 0.254856
0.893568 0.657252 0.238743
0.896284 0.642054 0.237324
0.89633 0.640681 0.237018
0 0.434897 0.155352
0 0.458488 0.16286
0 0.529412 0.189975
0 0.61529 0.209598
0.583276 0.756863 0.241016
0.854627 0.798367 0.209201
0.903487 0.794278 0.199207
0.913497 0.788495 0.201343
0.914183 0.787915 0.201282
0 0.456535 0.16379
0 0.494041 0.177111
0 0.55996 0.201221
0 0.629313 0.214389
0.478859 0.751339 0.238468
0.815915 0.816052 0.232197
0.89041 0.823804 0.215396
0.90544 0.823285 0.207904
0.90631 0.823224 0.207919
0 0.467231 0.1738
0 0.514565 0.192142
0 0.572351 0.212238
0 0.637263 0.22446
0.434256 0.747707 0.245609
0.795438 0.819501 0.247715
0.88127 0.830106 0.230121
0.899916 0.831571 0.226062
0.901122 0.83151 0.224613
0 0.468086 0.17464
0 0.516228 0.193454
0 0.573404 0.213214
0 0.637949 0.225345
0.430655 0.747387 0.246296
0.79353 0.819638 0.248753
0.880446 0.830472 0.230884
0.899397 0.832029 0.227024
0.900618 0.832074 0.226596
0.000808728 0 0.402655
0.0485084 0 0.428397
0.16701 0 0.49221
0.458076 0.0186007 0.568063
0.64036 0.0388952 0.570199
0.7075 0.0248875 0.552575
0.721035 0.0333257 0.535668
0.724117 0.037644 0.526421
0.72433 0.038056 0.525612
0 0.0198215 0.382879
0.00965896 0.000747692 0.438193
0.139498 0.000106813 0.488838
0.446128 0.052491 0.568063
0.647257 0.0788128 0.576806
0.719875 0.0839094 0.560937
0.736446 0.102647 0.544564
0.740856 0.111604 0.53547
0.741192 0.112306 0.534646
0 0.0737469 0.398032
0 0.0696574 0.44097
0.135668 0.0806744 0.529961
0.463142 0.140505 0.594171
0.670481 0.163287 0.597284
0.7449 0.174655 0.578775
0.762524 0.191302 0.56051
0.767437 0.198642 0.550347
0.767727 0.199084 0.549294
0 0.254246 0.456779
0 0.264515 0.483207
0 0.313451 0.587411
0.508919 0.375128 0.679286
0.739788 0.391852 0.661433
0.800916 0.354849 0.618753
0.814237 0.35314 0.59144
0.817472 0.353079 0.576928
0.817639 0.352911 0.575525
0 0.454032 0.456596
0 0.463874 0.467384
0 0.506081 0.513726
0 0.643961 0.639216
0.72639 0.734737 0.705409
0.859541 0.702815 0.664302
0.881407 0.666835 0.626841
0.885374 0.647379 0.607141
0.885618 0.645533 0.60528
0 0.510903 0.431296
0 0.530236 0.447547
0 0.589593 0.501289
0 0.670481 0.557549
0.564202 0.802853 0.635035
0.843793 0.841077 0.647196
0.892287 0.832044 0.617044
0.903197 0.823011 0.596109
0.903944 0.822065 0.593912
0 0.510643 0.390936
0 0.540932 0.414069
0 0.604913 0.463996
0 0.669535 0.500099
0.424079 0.791394 0.561929
0.799649 0.85539 0.594842
0.879011 0.863798 0.592554
0.895186 0.861952 0.576257
0.896284 0.861646 0.574411
0 0.511604 0.375418
0 0.545968 0.399939
0 0.609125 0.444633
0 0.670069 0.474815
0.366293 0.782254 0.525109
0.775143 0.853925 0.560983
0.869978 0.866636 0.564416
0.889708 0.86804 0.562127
0.890959 0.867918 0.560372
0 0.511727 0.374258
0 0.546487 0.39884
0 0.609476 0.443091
0 0.670146 0.472801
0.36202 0.781506 0.522103
0.772808 0.85362 0.557992
0.869169 0.866667 0.561746
0.889281 0.868162 0.559503
0.890532 0.868208 0.559258
0.0223545 0 0.490349
0.0833295 0 0.504997
0.18349 0 0.545419
0.431525 0 0.621714
0.65037 0.0448768 0.652201
0.714382 0.0234531 0.651118
0.734813 0.0229496 0.646342
0.740658 0.0297856 0.643656
0.741009 0.0304265 0.643351
0 0.0379644 0.467735
0.0360571 0.0119326 0.519631
0.164385 0.00848402 0.564446
0.430381 0.0453803 0.638666
0.661692 0.109026 0.666133
0.727077 0.0919051 0.663951
0.748714 0.0976577 0.659327
0.755535 0.109041 0.657099
0.755993 0.109957 0.65684
0 0.113939 0.482673
0 0.116945 0.553613
0.153292 0.126848 0.61033
0.445426 0.161471 0.674098
0.683238 0.201572 0.691188
0.749615 0.187518 0.686168
0.77258 0.194842 0.681376
0.779873 0.20383 0.678782
0.780316 0.204517 0.678447
0 0.240757 0.524636
0 0.263996 0.599039
0 0.28864 0.65684
0.472328 0.332525 0.731792
0.726238 0.36524 0.739086
0.795727 0.349584 0.730465
0.817563 0.3514 0.722545
0.824109 0.357214 0.718227
0.82443 0.357443 0.717693
0 0.434516 0.538491
0 0.453635 0.56672
0 0.5205 0.661479
0.0272984 0.620508 0.764736
0.756924 0.680156 0.819364
0.855039 0.672297 0.807736
0.87657 0.637201 0.787381
0.879911 0.618692 0.776211
0.879942 0.616876 0.775067
0 0.522225 0.544106
0 0.536797 0.560601
0 0.586328 0.615839
0 0.678019 0.705089
0.534035 0.812924 0.803174
0.837995 0.847364 0.827832
0.884978 0.839796 0.816632
0.895048 0.831556 0.806912
0.895689 0.830716 0.80592
0 0.549889 0.550164
0 0.577707 0.579446
0 0.635447 0.64065
0 0.700023 0.694041
0.378302 0.815946 0.772564
0.79823 0.874144 0.812833
0.875425 0.881819 0.813687
0.89015 0.880293 0.805081
0.891157 0.880064 0.804166
0 0.559808 0.552666
0 0.594842 0.589319
0 0.645777 0.639643
0 0.707134 0.687861
0.309087 0.811948 0.756252
0.76936 0.876081 0.798459
0.867155 0.888319 0.804318
0.885969 0.889281 0.801801
0.887098 0.889204 0.800824
0 0.560708 0.552941
0 0.596216 0.590005
0 0.646464 0.639353
0 0.70753 0.687099
0.303517 0.811505 0.754726
0.766339 0.875959 0.796948
0.866316 0.888701 0.803189
0.885481 0.889723 0.800702
0.886671 0.889738 0.800381
0.0530861 0 0.524071
0.119554 0 0.543023
0.223163 0 0.582086
0.455772 0.00164797 0.649165
0.663081 0.0544137 0.682185
0.721874 0.0363928 0.681682
0.737133 0.0294347 0.680003
0.742641 0.027451 0.677867
0.743023 0.027451 0.677668
0 0.0547189 0.537957
0.0842451 0.0408484 0.568078
0.212512 0.0460822 0.610101
0.462989 0.0854047 0.673945
0.676844 0.135836 0.700267
0.736904 0.122377 0.697948
0.752316 0.116289 0.695644
0.757702 0.113725 0.693004
0.758068 0.113527 0.69276
0 0.149889 0.563012
0 0.154101 0.60383
0.206332 0.166918 0.655055
0.476997 0.197009 0.709957
0.698894 0.230579 0.727825
0.760769 0.218387 0.72314
0.775769 0.209918 0.719402
0.780545 0.205234 0.715709
0.78085 0.204837 0.715358
0 0.278065 0.5879
0 0.300267 0.650187
0 0.323568 0.69926
0.50013 0.361471 0.763973
0.734951 0.383444 0.772503
0.800488 0.367239 0.765103
0.816266 0.356863 0.76051
0.821653 0.352956 0.756558
0.822095 0.352926 0.756268
0 0.42948 0.591592
0 0.480201 0.673869
0 0.518853 0.723262
0.361425 0.587442 0.803586
0.772824 0.614542 0.833204
0.848539 0.609094 0.824369
0.866331 0.595087 0.81854
0.871122 0.580636 0.812161
0.871458 0.579614 0.811612
0 0.520195 0.572702
0 0.546242 0.604105
0 0.616602 0.687404
0 0.695659 0.760449
0.611994 0.810025 0.849867
0.850782 0.834058 0.868208
0.883268 0.831464 0.866102
0.893858 0.822324 0.861204
0.89456 0.821347 0.8607
0 0.544625 0.576516
0 0.565957 0.60061
0 0.625528 0.667811
0 0.692409 0.731289
0.307286 0.812726 0.819776
0.792462 0.874189 0.864927
0.873014 0.882445 0.868818
0.887709 0.881376 0.866423
0.888685 0.881117 0.865934
0 0.553704 0.580835
0 0.581827 0.61239
0 0.643305 0.679744
0 0.701869 0.73196
0.165988 0.810712 0.8103
0.760266 0.878355 0.857969
0.864378 0.890929 0.866087
0.883421 0.89218 0.865507
0.88455 0.892164 0.865156
0 0.554406 0.58114
0 0.583154 0.613382
0 0.644602 0.680537
0 0.702541 0.731899
0.151202 0.810391 0.8094
0.757 0.878492 0.857221
0.86334 0.891432 0.865705
0.882948 0.892775 0.865141
0.884153 0.892836 0.865019
0.0783856 0 0.540871
0.14934 0 0.563394
0.269368 0 0.606134
0.502159 0.0168765 0.668376
0.679301 0.0616007 0.691798
0.727199 0.0444343 0.691035
0.739879 0.0369726 0.689754
0.743877 0.0347906 0.688975
0.744259 0.0345006 0.688838
0.002121 0.066865 0.558984
0.126528 0.0593729 0.5944
0.267079 0.0720989 0.637522
0.512062 0.113024 0.693339
0.694347 0.147921 0.711192
0.743511 0.134813 0.708812
0.756146 0.127779 0.706798
0.760143 0.125887 0.705806
0.76051 0.125536 0.705623
0 0.168276 0.594888
0.0170748 0.173571 0.630335
0.266514 0.189456 0.680659
0.526864 0.218845 0.728038
0.717113 0.244327 0.739406
0.767926 0.231525 0.734905
0.780118 0.222507 0.731579
0.783917 0.219867 0.730114
0.784207 0.219287 0.729824
0 0.308446 0.635935
0 0.324147 0.675364
0.105699 0.349004 0.723445
0.549752 0.382589 0.780255
0.752956 0.399466 0.784436
0.80705 0.380987 0.777127
0.818921 0.365576 0.771893
0.822538 0.360952 0.769787
0.822766 0.360037 0.769406
0 0.446021 0.628031
0 0.488823 0.696941
0 0.528313 0.747585
0.445441 0.582925 0.817365
0.786664 0.603143 0.836713
0.849012 0.595239 0.829465
0.864027 0.581155 0.824567
0.868421 0.574594 0.822232
0.868635 0.572671 0.821653
0 0.525505 0.591638
0 0.566888 0.641993
0 0.628977 0.714076
0 0.7178 0.7935
0.678965 0.80528 0.865721
0.860059 0.821317 0.876448
0.885435 0.817273 0.874479
0.892622 0.813489 0.872633
0.893294 0.812329 0.872251
0 0.547036 0.587457
0 0.577203 0.621668
0 0.642283 0.696025
0 0.708812 0.756039
0.430259 0.82565 0.841596
0.813657 0.873808 0.878126
0.876722 0.879713 0.880659
0.886931 0.879683 0.880232
0.887892 0.879454 0.880079
0 0.552163 0.587259
0 0.577493 0.615885
0 0.638224 0.684138
0 0.697459 0.739574
0.0773785 0.806149 0.820432
0.753475 0.877058 0.87158
0.862928 0.890257 0.88011
0.882643 0.891707 0.880186
0.883696 0.891722 0.88011
0 0.552834 0.58761
0 0.578683 0.616785
0 0.639506 0.685039
0 0.6981 0.73962
0.0621653 0.805859 0.819699
0.749554 0.87715 0.870954
0.86186 0.890806 0.879911
0.882216 0.892348 0.880095
0.883345 0.892409 0.880064
0.0813153 0.000137331 0.542412
0.153017 0 0.565347
0.275471 0 0.608698
0.508812 0.0204776 0.670481
0.681529 0.0623331 0.692561
0.727855 0.0451057 0.691646
0.740169 0.0376287 0.690471
0.744045 0.0354314 0.689723
0.74435 0.0352331 0.689632
0.00289921 0.0676432 0.560983
0.131807 0.0609598 0.59707
0.27454 0.0746624 0.64033
0.518853 0.11603 0.695277
0.696605 0.148699 0.711971
0.744259 0.135714 0.709529
0.756527 0.128695 0.707637
0.760403 0.126741 0.706661
0.760708 0.126574 0.706554
0 0.169848 0.597177
0.024506 0.175433 0.632959
0.274708 0.191699 0.683314
0.533944 0.221256 0.729824
0.719448 0.245319 0.7402
0.768688 0.232425 0.735668
0.780529 0.223453 0.732479
0.784222 0.220798 0.731029
0.784497 0.220539 0.730892
0 0.310597 0.639109
0 0.326223 0.67776
0.123705 0.351308 0.725872
0.557015 0.384466 0.781765
0.755306 0.400458 0.785168
0.807797 0.381903 0.77789
0.819287 0.366613 0.772808
0.82269 0.361517 0.770626
0.822965 0.361196 0.770443
0 0.448585 0.632853
0 0.489891 0.699184
0 0.529503 0.74992
0.455833 0.582864 0.81883
0.788891 0.60238 0.836927
0.849332 0.594064 0.829725
0.863951 0.580133 0.825025
0.868238 0.573678 0.822751
0.868544 0.573037 0.822522
0 0.526619 0.59411
0 0.570825 0.647883
0 0.630976 0.717403
0 0.720989 0.797284
0.686946 0.804669 0.867079
0.861341 0.819867 0.876905
0.885695 0.815442 0.874876
0.892638 0.811719 0.873045
0.893156 0.811383 0.872877
0 0.547402 0.588663
0 0.578851 0.624308
0 0.64358 0.6981
0 0.711147 0.758846
0.447379 0.827588 0.844022
0.816205 0.873747 0.879057
0.877195 0.879362 0.881437
0.887114 0.879316 0.88101
0.887846 0.879255 0.880934
0 0.552438 0.588251
0 0.578653 0.617853
0 0.639994 0.686854
0 0.699077 0.741802
0.112367 0.808209 0.822721
0.758022 0.877516 0.872938
0.863783 0.890211 0.880995
0.882841 0.891646 0.88101
0.883635 0.891661 0.880964
0 0.552758 0.588159
0 0.578439 0.617151
0 0.639109 0.685313
0 0.697826 0.740215
0.055436 0.805478 0.820371
0.748821 0.877012 0.87187
0.861708 0.890715 0.880796
0.882155 0.892302 0.880949
0.883299 0.892348 0.880919
