film-luts/Frontier luts/ClassicPrint 16mm DWG LUT v3 500T.cube
TITLE "John Razalo - ClassicPrint 16mm v3"
# © Copyright 2025 - John Razalo Visuals
LUT_3D_SIZE 33
0.0244144 0.018967 0.032929
0.0323339 0.0187228 0.0327611
0.0453803 0.0186923 0.0322728
0.0616007 0.0187533 0.0315404
0.0860914 0.019089 0.0308995
0.123705 0.019501 0.0298161
0.166339 0.0193027 0.0284733
0.215427 0.0179294 0.0264286
0.271122 0.0145724 0.0260929
0.32372 0.0151369 0.0261692
0.383627 0.0162051 0.0262455
0.441489 0.0172732 0.026688
0.490166 0.0187533 0.0274815
0.534218 0.0205539 0.0285496
0.563897 0.0227207 0.029984
0.585245 0.025391 0.0315862
0.602777 0.0284428 0.0333867
0.615595 0.0316167 0.0352789
0.626474 0.0347143 0.0371862
0.635248 0.0375982 0.0390021
0.642832 0.0401617 0.0407263
0.648981 0.042298 0.042298
0.654154 0.0440986 0.0436255
0.658686 0.0455634 0.0447242
0.662318 0.0467384 0.0456245
0.665003 0.0476539 0.0463264
0.667063 0.0483711 0.0468605
0.66862 0.0489052 0.0472725
0.669764 0.0492866 0.0475624
0.669917 0.0493477 0.0476081
0.669917 0.0493477 0.0476081
0.669917 0.0493477 0.0476081
0.669917 0.0493477 0.0476081
0.0232853 0.0266728 0.0331731
0.0298924 0.0260624 0.0328527
0.0399634 0.0257267 0.0324559
0.0533761 0.0254063 0.0318303
0.0715648 0.0254215 0.0310521
0.101213 0.0255283 0.0301213
0.142779 0.0256199 0.0289311
0.191287 0.0247654 0.0273136
0.252018 0.0215457 0.0259709
0.311635 0.0193484 0.0258946
0.371862 0.0201724 0.0261082
0.435248 0.0213016 0.0264134
0.485313 0.0227207 0.0271916
0.532509 0.0245212 0.0282292
0.564446 0.0267033 0.0296788
0.58677 0.0292973 0.0313115
0.604959 0.0322423 0.0331731
0.618326 0.0354314 0.0350195
0.629953 0.0384833 0.0370031
0.639414 0.041413 0.03888
0.647242 0.0439918 0.0407263
0.654032 0.0461433 0.0423133
0.659693 0.0479744 0.0436713
0.664332 0.0495003 0.0448157
0.668132 0.0506905 0.0457465
0.671092 0.0516365 0.046479
0.673335 0.0523537 0.0470283
0.675059 0.0529183 0.0474403
0.67631 0.0533303 0.0477607
0.676493 0.0533913 0.0478065
0.676493 0.0533913 0.0478065
0.676493 0.0533913 0.0478065
0.676493 0.0533913 0.0478065
0.0218204 0.0356909 0.0333257
0.0283055 0.0348974 0.0332036
0.0370489 0.0343481 0.0331273
0.0495003 0.0339361 0.0325017
0.0657359 0.0335241 0.0315709
0.0919661 0.0334325 0.0304723
0.128862 0.03299 0.0293736
0.174746 0.0322271 0.0278172
0.234226 0.0305486 0.0258488
0.30132 0.0233921 0.025864
0.363622 0.0239109 0.0259861
0.430793 0.0248417 0.0262608
0.482033 0.0261845 0.026978
0.531136 0.0279088 0.0280613
0.565164 0.030045 0.029572
0.58819 0.0326085 0.0312352
0.60676 0.0355535 0.0330816
0.621149 0.0386816 0.0350652
0.633265 0.0417487 0.0370794
0.643214 0.0446174 0.0389868
0.651698 0.0472114 0.0408026
0.658595 0.0493935 0.0424201
0.664561 0.0512551 0.0437934
0.669566 0.052781 0.0449378
0.673625 0.0540017 0.0458991
0.676677 0.0549783 0.0466621
0.678996 0.0557259 0.0472267
0.680751 0.0563058 0.0476692
0.682033 0.0567178 0.0479744
0.682216 0.0567788 0.0480201
0.682216 0.0567788 0.0480201
0.682216 0.0567788 0.0480201
0.682216 0.0567788 0.0480201
0.0204471 0.0465248 0.0336614
0.0264897 0.0459449 0.0337835
0.0342565 0.0452735 0.0341344
0.0456703 0.0451209 0.0344549
0.0615702 0.0442664 0.0333867
0.0849012 0.0435798 0.0318151
0.124773 0.0429694 0.0301213
0.169284 0.0413519 0.0284123
0.224308 0.03888 0.0259709
0.291325 0.0312963 0.0259861
0.354696 0.0281834 0.0261082
0.425361 0.0287022 0.0264286
0.47892 0.0297246 0.0270237
0.529885 0.0313573 0.0281682
0.566018 0.0333867 0.0296635
0.589548 0.0359045 0.0313878
0.609323 0.0387427 0.0332341
0.624277 0.0417945 0.0351873
0.636912 0.0448463 0.0371862
0.647562 0.0476997 0.0391241
0.656092 0.0502632 0.04094
0.663462 0.0524605 0.0425269
0.669673 0.0543374 0.0439307
0.674784 0.0558785 0.0451209
0.67895 0.0571145 0.0460822
0.682155 0.0581064 0.0468299
0.684611 0.0588693 0.0474098
0.686473 0.0594492 0.047837
0.687831 0.0598611 0.0481575
0.688029 0.0599222 0.0482032
0.688029 0.0599222 0.0482032
0.688029 0.0599222 0.0482032
0.688029 0.0599222 0.0482032
0.0186923 0.0606088 0.0343633
0.0244297 0.0602579 0.0345312
0.0315404 0.0597238 0.0350195
0.0412146 0.0596017 0.0357824
0.0554208 0.0595407 0.0361791
0.0782025 0.0581674 0.0343938
0.116548 0.0570687 0.0319066
0.16672 0.0548714 0.0293278
0.223011 0.0511177 0.0266117
0.2869 0.0439002 0.0265049
0.34847 0.0334478 0.0265202
0.419486 0.0335088 0.0267338
0.475227 0.0340734 0.0272679
0.527993 0.0352331 0.0282902
0.567025 0.0370336 0.0297551
0.592081 0.0393683 0.0314794
0.612329 0.0420844 0.0333562
0.628077 0.0450446 0.0353094
0.641215 0.0480049 0.0373083
0.652125 0.0508125 0.0392615
0.661158 0.0534066 0.0410773
0.66865 0.0556191 0.0427253
0.675029 0.0574807 0.0441291
0.680476 0.0590677 0.045304
0.684825 0.0603342 0.0462501
0.688136 0.0613107 0.047013
0.690639 0.0620584 0.0475929
0.692546 0.0626383 0.0480354
0.693935 0.0630655 0.0483406
0.694148 0.0631266 0.0483864
0.694148 0.0631266 0.0483864
0.694148 0.0631266 0.0483864
0.694148 0.0631266 0.0483864
0.0167391 0.0800488 0.0349584
0.0217746 0.080415 0.0352789
0.0283055 0.0796979 0.0357977
0.036286 0.079057 0.0365911
0.0484321 0.0796826 0.0381933
0.0673228 0.0796674 0.0386053
0.104509 0.0778515 0.0352483
0.158343 0.075288 0.0310674
0.219303 0.0704051 0.0277409
0.289052 0.0615091 0.0272984
0.348867 0.0497292 0.0272831
0.415732 0.0393988 0.0274052
0.473487 0.0394598 0.0277104
0.526192 0.040116 0.0285344
0.568765 0.0412909 0.0299077
0.595254 0.0432593 0.031693
0.61648 0.0458228 0.0336004
0.632715 0.0485847 0.0355688
0.646357 0.0514839 0.0375677
0.657679 0.0542153 0.0395056
0.666712 0.0567636 0.0413214
0.674464 0.0589151 0.0429694
0.681102 0.0608072 0.044358
0.686625 0.0623636 0.0455177
0.691127 0.0636454 0.0464942
0.694606 0.0646525 0.0472419
0.69723 0.0654459 0.0478065
0.699229 0.066041 0.0482338
0.700679 0.0664683 0.0485542
0.700893 0.0665293 0.0486
0.700893 0.0665293 0.0486
0.700893 0.0665293 0.0486
0.700893 0.0665293 0.0486
0.0123445 0.10779 0.0355077
0.0173037 0.108248 0.0356756
0.0232395 0.107301 0.0360876
0.0300755 0.106569 0.0368963
0.0400702 0.107134 0.03888
0.0556191 0.108095 0.0410773
0.0856641 0.107973 0.0410163
0.143359 0.105058 0.035172
0.210819 0.0991073 0.0291142
0.286137 0.0897383 0.0283513
0.352209 0.0762646 0.0283513
0.419211 0.0568399 0.0284428
0.476463 0.046128 0.0286259
0.52723 0.0462806 0.02916
0.571801 0.0469215 0.0302586
0.600046 0.0481727 0.0319219
0.621744 0.0501717 0.033875
0.638605 0.0526741 0.0358129
0.652583 0.0554818 0.0378271
0.664103 0.0580453 0.0397345
0.673472 0.060502 0.0415503
0.6813 0.062623 0.0431678
0.688151 0.0644999 0.0445716
0.693919 0.0660716 0.0457465
0.698619 0.0710918 0.0467079
0.702144 0.0784619 0.0474708
0.70489 0.0843214 0.0480507
0.707012 0.0889601 0.0484932
0.708553 0.0923476 0.0488136
0.708782 0.0929122 0.0488594
0.708782 0.0929122 0.0488594
0.708782 0.0929122 0.0488594
0.708782 0.0929122 0.0488594
0.0117037 0.140993 0.0354772
0.01561 0.141344 0.0357214
0.0205692 0.139712 0.0359197
0.0254215 0.138979 0.0365759
0.0310674 0.138949 0.0381323
0.0423285 0.14081 0.0410163
0.0647746 0.142687 0.0437629
0.116411 0.143801 0.042359
0.194171 0.140032 0.03299
0.278294 0.130846 0.0300145
0.353841 0.117006 0.0296025
0.423239 0.0980545 0.0297398
0.484886 0.0751659 0.0300298
0.534478 0.0565805 0.030396
0.578607 0.0542153 0.0311131
0.607874 0.054902 0.0324559
0.62948 0.0560006 0.034226
0.646448 0.057847 0.0361028
0.660502 0.0601816 0.0381476
0.672282 0.0625772 0.0400397
0.681712 0.0652171 0.0418708
0.689799 0.0681773 0.043473
0.696834 0.0832837 0.0448615
0.7028 0.0963149 0.0460212
0.707774 0.107134 0.0469825
0.711482 0.115846 0.0477455
0.714305 0.12253 0.0483253
0.716533 0.127398 0.0487831
0.718166 0.130831 0.0491035
0.71841 0.131319 0.0491493
0.71841 0.131319 0.0491493
0.71841 0.131319 0.0491493
0.71841 0.131319 0.0491493
0.0105287 0.182712 0.0341039
0.0147707 0.181201 0.0342107
0.0192416 0.179217 0.0343786
0.0235294 0.177874 0.0347448
0.028748 0.176745 0.0359808
0.0347601 0.178195 0.0383917
0.0430762 0.180591 0.0420844
0.0806744 0.184405 0.045655
0.159167 0.189212 0.0411536
0.258732 0.185794 0.0337682
0.355169 0.174014 0.0316167
0.427771 0.156191 0.0313268
0.495583 0.135698 0.0315862
0.547448 0.114733 0.0320287
0.592309 0.0936904 0.0326238
0.621042 0.0775158 0.0335088
0.641855 0.0699626 0.0349432
0.658595 0.0716869 0.0366217
0.671748 0.0740826 0.0385443
0.683284 0.0838788 0.0404059
0.692653 0.0999619 0.0422065
0.700893 0.115496 0.0437934
0.708019 0.129213 0.0451972
0.714153 0.14023 0.0463874
0.719188 0.149538 0.0473487
0.723095 0.157351 0.0481117
0.726024 0.163165 0.0487068
0.728298 0.167712 0.0491493
0.729961 0.171069 0.049485
0.730205 0.171557 0.0495308
0.730205 0.171557 0.0495308
0.730205 0.171557 0.0495308
0.730205 0.171557 0.0495308
0.00935378 0.228885 0.0307622
0.0135348 0.226154 0.0309148
0.0180056 0.223239 0.0309911
0.0223392 0.221118 0.0314031
0.0269627 0.219562 0.0322423
0.0323949 0.219867 0.0336614
0.0392157 0.222614 0.036759
0.049012 0.227512 0.0413519
0.110018 0.237659 0.0441138
0.215869 0.247272 0.0402228
0.337682 0.242649 0.035935
0.431479 0.227161 0.0336461
0.509819 0.208988 0.0333867
0.56437 0.190234 0.0337987
0.611765 0.172946 0.0345159
0.641901 0.159594 0.0352483
0.661219 0.151186 0.0362249
0.677195 0.147127 0.037583
0.689738 0.147982 0.0392615
0.70016 0.151461 0.0410163
0.708476 0.158602 0.04271
0.715923 0.168261 0.0442817
0.722683 0.178241 0.0456703
0.72845 0.186786 0.0468452
0.733089 0.193652 0.0477913
0.736706 0.199435 0.0485542
0.739544 0.204211 0.0491493
0.741711 0.207858 0.0496071
0.743313 0.21059 0.0499428
0.743557 0.210986 0.0499886
0.743557 0.210986 0.0499886
0.743557 0.210986 0.0499886
0.743557 0.210986 0.0499886
0.00846876 0.279042 0.0304875
0.0126497 0.275532 0.0304417
0.0169833 0.27216 0.0304112
0.0213626 0.268833 0.0305333
0.0255894 0.267002 0.0308995
0.0306249 0.265614 0.031632
0.0366217 0.267521 0.0332952
0.0448005 0.271962 0.0362097
0.0563516 0.281727 0.040528
0.158816 0.300206 0.0442359
0.283818 0.313405 0.0432593
0.418814 0.310979 0.0385901
0.519753 0.295109 0.0360266
0.583902 0.275654 0.0357824
0.634379 0.257084 0.0363622
0.668376 0.241703 0.0372015
0.687221 0.23122 0.0380713
0.70222 0.224857 0.0391089
0.713481 0.221988 0.0404669
0.722866 0.221958 0.0419776
0.730358 0.224582 0.0435645
0.736217 0.228092 0.0450294
0.741512 0.232609 0.0463569
0.746242 0.23772 0.0474556
0.750439 0.243015 0.0484016
0.753643 0.247227 0.0491493
0.756329 0.251331 0.0497444
0.758434 0.254627 0.0501869
0.75996 0.256992 0.0505226
0.760174 0.257343 0.0505684
0.760174 0.257343 0.0505684
0.760174 0.257343 0.0505684
0.760174 0.257343 0.0505684
0.00814832 0.326589 0.0317693
0.01149 0.323934 0.0317693
0.0159457 0.320455 0.0316625
0.0205539 0.317006 0.031632
0.0247959 0.314733 0.0318914
0.0293584 0.313375 0.0323644
0.0348363 0.314733 0.033463
0.0417945 0.318944 0.0357061
0.0516518 0.327504 0.0394293
0.0731365 0.347433 0.044419
0.219074 0.374136 0.048127
0.367636 0.393271 0.0466773
0.501152 0.388998 0.0416724
0.599588 0.371954 0.0388495
0.657206 0.353796 0.0385443
0.698085 0.337041 0.0391089
0.718135 0.323018 0.0399939
0.732952 0.312993 0.0410468
0.743923 0.307668 0.0422522
0.75227 0.304479 0.0435187
0.759121 0.303624 0.0449073
0.764294 0.304509 0.0462348
0.768505 0.306203 0.0474403
0.772061 0.308034 0.0484779
0.77499 0.309865 0.0493324
0.777417 0.311788 0.0500343
0.779324 0.313695 0.0505684
0.781003 0.31574 0.0509957
0.782223 0.317205 0.0513008
0.782391 0.317418 0.0513466
0.782391 0.317418 0.0513466
0.782391 0.317418 0.0513466
0.782391 0.317418 0.0513466
0.0074464 0.3738 0.0333562
0.0103151 0.372183 0.0333715
0.0153964 0.36817 0.0330816
0.0200504 0.36524 0.0330205
0.0242161 0.363348 0.0331273
0.028748 0.361501 0.0334478
0.0337835 0.362341 0.0341802
0.0399939 0.366064 0.0359045
0.0483101 0.373648 0.0388952
0.0596017 0.390249 0.0433356
0.142061 0.420752 0.0486458
0.291585 0.45333 0.0522164
0.450736 0.474937 0.0505074
0.588785 0.473762 0.0452888
0.671427 0.456962 0.0419471
0.723812 0.43946 0.0414282
0.748714 0.422309 0.0420386
0.764248 0.409613 0.0429847
0.775265 0.400443 0.0441901
0.78349 0.394751 0.0454261
0.790188 0.391714 0.0467231
0.794736 0.38999 0.0479286
0.798077 0.389151 0.0490272
0.80087 0.388846 0.0499428
0.803128 0.388846 0.0507057
0.805081 0.389502 0.0513619
0.806394 0.389899 0.0518502
0.807462 0.390356 0.0522316
0.80824 0.390738 0.0525063
0.808347 0.390784 0.0525368
0.808347 0.390784 0.0525368
0.808347 0.390784 0.0525368
0.808347 0.390784 0.0525368
0.0074464 0.40914 0.0350958
0.00978103 0.407965 0.035111
0.0145876 0.405341 0.0348058
0.019852 0.403006 0.0346075
0.024155 0.401892 0.0346838
0.0285649 0.401465 0.0348669
0.0334325 0.40325 0.0354314
0.0390784 0.407172 0.0366674
0.0464027 0.414588 0.0390631
0.0560311 0.428687 0.042771
0.0683909 0.457801 0.0477913
0.224048 0.495628 0.0532082
0.380804 0.533745 0.0564889
0.530983 0.554696 0.0543832
0.660639 0.55494 0.049073
0.735119 0.537118 0.0453346
0.773404 0.520424 0.0446479
0.791699 0.50695 0.0451667
0.804562 0.49752 0.0461738
0.813703 0.490883 0.047364
0.820569 0.485954 0.0486458
0.825391 0.48275 0.049836
0.828656 0.480674 0.0508736
0.831067 0.47921 0.0517433
0.832944 0.478065 0.0524605
0.834516 0.477485 0.0530556
0.835584 0.476875 0.0534981
0.836408 0.476555 0.0538491
0.837034 0.476463 0.0540932
0.837125 0.476448 0.0541238
0.837125 0.476448 0.0541238
0.837125 0.476448 0.0541238
0.837125 0.476448 0.0541238
0.0074464 0.438254 0.0370642
0.00947585 0.438254 0.037232
0.0146639 0.436057 0.03682
0.0199588 0.434333 0.0365454
0.0246586 0.433371 0.0364996
0.0290074 0.433539 0.0366674
0.0336767 0.43534 0.0370642
0.0389105 0.439216 0.0379492
0.0454108 0.446052 0.0398413
0.0537881 0.458091 0.0428931
0.0647135 0.482872 0.0472419
0.146654 0.51986 0.0526131
0.312901 0.560967 0.0578622
0.466026 0.59823 0.0605936
0.611948 0.616266 0.057969
0.715953 0.615579 0.0528725
0.784649 0.606348 0.049134
0.809964 0.594858 0.0482795
0.826261 0.585077 0.0486152
0.836774 0.577554 0.049485
0.844083 0.571527 0.0505684
0.84947 0.566812 0.0517128
0.852995 0.5635 0.0527657
0.855406 0.561044 0.0536507
0.857114 0.558968 0.0543832
0.858488 0.557549 0.0549477
0.859403 0.556298 0.055375
0.86009 0.555428 0.0557107
0.860594 0.554894 0.0559548
0.86067 0.554818 0.0559854
0.86067 0.554818 0.0559854
0.86067 0.554818 0.0559854
0.86067 0.554818 0.0559854
0.0074464 0.458351 0.0394903
0.00970474 0.458198 0.0395056
0.0156558 0.456596 0.0389868
0.021149 0.455695 0.0386816
0.0256962 0.455665 0.038529
0.0300298 0.456626 0.0386358
0.0344396 0.459602 0.0389258
0.0394751 0.46389 0.0395819
0.0452277 0.470451 0.0411078
0.0526131 0.481071 0.0435645
0.0621805 0.502297 0.0472877
0.0766308 0.536202 0.0521553
0.257801 0.576654 0.057557
0.411658 0.62118 0.0624552
0.54551 0.650904 0.0643015
0.675959 0.664378 0.0612802
0.761608 0.66273 0.0567483
0.811536 0.654307 0.0533913
0.833326 0.646342 0.0523384
0.847868 0.640482 0.0524453
0.857496 0.636255 0.0530861
0.8645 0.632959 0.0539712
0.869429 0.630564 0.0548257
0.872618 0.628672 0.0556039
0.874769 0.627039 0.0563058
0.876478 0.625879 0.0568704
0.877607 0.624918 0.0573281
0.87837 0.624186 0.0576638
0.87892 0.623682 0.0578927
0.878996 0.623606 0.0579385
0.878996 0.623606 0.0579385
0.878996 0.623606 0.0579385
0.878996 0.623606 0.0579385
0.00770581 0.473564 0.0420691
0.0113527 0.473136 0.0419623
0.0175784 0.471717 0.041413
0.0230411 0.47097 0.041001
0.027451 0.471168 0.0408331
0.0316167 0.472709 0.0408331
0.0359197 0.475715 0.041062
0.0405737 0.47982 0.0415503
0.0458534 0.486061 0.0427558
0.0523384 0.495811 0.04477
0.0606851 0.514244 0.0478828
0.0713054 0.544854 0.0521706
0.204578 0.583505 0.0572976
0.362264 0.6271 0.0625772
0.494179 0.663813 0.0667887
0.625147 0.689174 0.0674449
0.724376 0.696574 0.0642252
0.795758 0.697002 0.0605478
0.829709 0.691615 0.0577249
0.849271 0.686915 0.0567178
0.861662 0.682597 0.0565957
0.870161 0.678782 0.0569314
0.876081 0.676051 0.0574655
0.880323 0.673991 0.0580606
0.882902 0.672206 0.0585946
0.884947 0.670771 0.0590372
0.886275 0.669688 0.0594186
0.887175 0.668971 0.0597238
0.887816 0.668452 0.0599374
0.887907 0.668391 0.059968
0.887907 0.668391 0.059968
0.887907 0.668391 0.059968
0.887907 0.668391 0.059968
0.00755322 0.486259 0.0451209
0.0140383 0.48481 0.0444953
0.020737 0.483619 0.0438392
0.025391 0.483406 0.0434577
0.0295872 0.483909 0.0432898
0.0337072 0.486442 0.0432593
0.0377813 0.489601 0.0434424
0.0421607 0.493782 0.0438087
0.0469978 0.499519 0.0447089
0.0527352 0.508476 0.0463874
0.0601358 0.524483 0.0489509
0.0696269 0.551934 0.0526894
0.155612 0.587839 0.0574044
0.319661 0.629129 0.0625315
0.457496 0.669963 0.0674907
0.576303 0.699519 0.0706645
0.686458 0.716396 0.0700847
0.76582 0.720241 0.0669718
0.817212 0.71957 0.0641031
0.841093 0.716136 0.0620279
0.857801 0.713344 0.0609903
0.868849 0.711284 0.0607614
0.876493 0.70927 0.0608377
0.882048 0.707622 0.0610666
0.88603 0.706355 0.0613718
0.888655 0.705303 0.0617075
0.8907 0.70454 0.0619669
0.891875 0.70396 0.0621805
0.892653 0.703563 0.0623636
0.892775 0.703517 0.0623789
0.892775 0.703517 0.0623789
0.892775 0.703517 0.0623789
0.892775 0.703517 0.0623789
0.00984207 0.495369 0.0478523
0.0178988 0.493614 0.0469062
0.0235752 0.492912 0.0463111
0.0280461 0.493004 0.0459754
0.0320134 0.494713 0.0457923
0.0359045 0.497337 0.0457313
0.0398566 0.50074 0.0458534
0.0439307 0.504799 0.0462043
0.0485237 0.51043 0.0469215
0.053727 0.519112 0.0483253
0.0603037 0.533837 0.0504768
0.0687877 0.55874 0.0537118
0.113802 0.591714 0.0579385
0.284993 0.630747 0.0628061
0.427909 0.672801 0.0677806
0.539681 0.704005 0.0720226
0.651408 0.727245 0.0737011
0.734218 0.735668 0.0721904
0.797406 0.737789 0.0695201
0.830121 0.7355 0.0672923
0.848569 0.732769 0.0657664
0.862119 0.730617 0.0649882
0.871717 0.729213 0.064622
0.878248 0.728069 0.0645609
0.883101 0.727367 0.064622
0.886824 0.726757 0.0647288
0.889647 0.726329 0.0648356
0.891615 0.725978 0.0649424
0.892805 0.725734 0.0650339
0.892943 0.725704 0.0650492
0.892943 0.725704 0.0650492
0.892943 0.725704 0.0650492
0.892943 0.725704 0.0650492
0.0129244 0.502327 0.0502632
0.0213931 0.500664 0.0492103
0.0265965 0.50045 0.0486915
0.0306706 0.501396 0.0483711
0.0344854 0.503822 0.048188
0.0381476 0.506645 0.0481422
0.0418708 0.51014 0.0482338
0.0458839 0.514366 0.0484932
0.050248 0.519677 0.0491035
0.0550393 0.528481 0.0503243
0.0610056 0.542657 0.0521553
0.0685588 0.564981 0.0549477
0.0871443 0.595529 0.0587625
0.257633 0.631922 0.0633097
0.403189 0.673854 0.0681315
0.512978 0.705791 0.0727245
0.621698 0.732341 0.0757153
0.706523 0.745693 0.0758984
0.773465 0.750469 0.074052
0.818006 0.750637 0.0718547
0.839414 0.74818 0.0700847
0.854109 0.746441 0.0690318
0.864775 0.744839 0.0683452
0.872374 0.743648 0.0680095
0.87808 0.742885 0.0678874
0.882231 0.74229 0.0678416
0.885328 0.741756 0.0678264
0.887678 0.74136 0.0678264
0.889128 0.741146 0.0678721
0.889326 0.741115 0.0678721
0.889326 0.741115 0.0678721
0.889326 0.741115 0.0678721
0.889326 0.741115 0.0678721
0.0166323 0.507942 0.0522621
0.024567 0.506523 0.0513008
0.0291295 0.506493 0.0508278
0.0331426 0.508812 0.0505837
0.0367132 0.511238 0.0504158
0.0402838 0.514336 0.0503548
0.0438697 0.517784 0.0504463
0.0477302 0.522057 0.0506447
0.0518807 0.527779 0.0511635
0.0564431 0.536507 0.0522774
0.0619059 0.5505 0.0538643
0.0688792 0.571054 0.0563363
0.0782635 0.599268 0.0597696
0.237995 0.633417 0.0639963
0.381369 0.673808 0.0686503
0.492851 0.706828 0.0732128
0.598611 0.734722 0.0768597
0.685328 0.751644 0.0782635
0.751781 0.75874 0.0773632
0.803479 0.761318 0.0755169
0.830213 0.760174 0.0738842
0.846693 0.758099 0.0724498
0.85832 0.756954 0.0717784
0.866529 0.75584 0.0711223
0.872541 0.755001 0.0708171
0.877089 0.754406 0.0706645
0.880476 0.753964 0.0705882
0.883024 0.753658 0.0705577
0.884749 0.75346 0.0705577
0.884993 0.753429 0.0705577
0.884993 0.753429 0.0705577
0.884993 0.753429 0.0705577
0.884993 0.753429 0.0705577
0.0200046 0.512764 0.0540017
0.0269017 0.511894 0.0531319
0.0314336 0.513054 0.0526894
0.0352331 0.515373 0.0524758
0.0387427 0.518044 0.0523232
0.0421759 0.521126 0.0522621
0.045655 0.524636 0.0523232
0.049424 0.528878 0.0525063
0.0535134 0.535241 0.0529793
0.0578317 0.54406 0.0540017
0.062974 0.557733 0.0554665
0.0694591 0.577035 0.0576791
0.0776226 0.603586 0.0608377
0.224063 0.635599 0.0647288
0.364553 0.673945 0.0691844
0.477699 0.707485 0.0736706
0.579202 0.735149 0.0775464
0.669627 0.755169 0.0797742
0.733242 0.763943 0.0797742
0.787732 0.768215 0.0784009
0.821195 0.768704 0.0768444
0.838956 0.767285 0.0756085
0.852079 0.765682 0.074464
0.860853 0.764858 0.07393
0.86743 0.764309 0.0735485
0.872419 0.763745 0.0731823
0.87599 0.763226 0.0729381
0.878614 0.762951 0.0728771
0.880461 0.762768 0.0728313
0.88072 0.762737 0.0728161
0.88072 0.762737 0.0728161
0.88072 0.762737 0.0728161
0.88072 0.762737 0.0728161
0.0227054 0.51664 0.0579385
0.0290684 0.516152 0.0546426
0.0334173 0.518441 0.0542763
0.0370642 0.52079 0.0540627
0.0405127 0.523705 0.0539254
0.0438697 0.526818 0.0538949
0.0472725 0.530404 0.0539559
0.0509346 0.534707 0.0541238
0.0549477 0.541527 0.0545663
0.0591897 0.550759 0.0555276
0.0641184 0.564263 0.0569162
0.0702068 0.582818 0.0589456
0.0778668 0.607782 0.0618601
0.213931 0.638102 0.065507
0.352773 0.674632 0.069749
0.4663 0.708034 0.0741283
0.564721 0.735485 0.0781109
0.655009 0.756664 0.0808118
0.719615 0.767285 0.0814679
0.774273 0.773007 0.0806439
0.813687 0.775097 0.0793774
0.83212 0.773831 0.0780652
0.846006 0.772732 0.0770581
0.855665 0.771634 0.0762036
0.862699 0.770871 0.0756542
0.867933 0.770535 0.0753948
0.871763 0.770275 0.0752117
0.874556 0.76997 0.0750134
0.87657 0.769757 0.074876
0.87686 0.769726 0.0748608
0.87686 0.769726 0.0748608
0.87686 0.769726 0.0748608
0.87686 0.769726 0.0748608
0.0249027 0.519768 0.0611887
0.0307317 0.520455 0.0559548
0.0349279 0.522789 0.0556191
0.0385443 0.525368 0.0554055
0.0419471 0.528313 0.0552834
0.0452735 0.531518 0.0552529
0.0486458 0.535119 0.0552987
0.0522011 0.539925 0.0554665
0.0561532 0.546624 0.0559091
0.0603342 0.556435 0.0567941
0.0651255 0.569711 0.0581369
0.0709697 0.58793 0.0600595
0.078233 0.611597 0.0627756
0.20737 0.640467 0.0662394
0.344732 0.675608 0.0703136
0.458228 0.708705 0.0745708
0.554101 0.735775 0.0785687
0.644297 0.757641 0.081529
0.709285 0.769497 0.0826581
0.763455 0.776104 0.0822766
0.804227 0.778973 0.0811475
0.826658 0.778683 0.079942
0.840711 0.777752 0.0790265
0.851011 0.776944 0.078233
0.858457 0.776089 0.0775921
0.864164 0.775372 0.0770581
0.868177 0.775051 0.0768292
0.871077 0.774838 0.0766766
0.873167 0.774685 0.0765698
0.873472 0.77467 0.0765545
0.873472 0.77467 0.0765545
0.873472 0.77467 0.0765545
0.873472 0.77467 0.0765545
0.0264286 0.522423 0.0666972
0.032105 0.523888 0.0602121
0.0361791 0.526223 0.0571298
0.0397955 0.529015 0.0564584
0.0430915 0.531929 0.0563516
0.0464332 0.535241 0.0563211
0.0497292 0.538827 0.0563668
0.053315 0.544152 0.0565499
0.0571756 0.550866 0.0569772
0.0612955 0.561334 0.0578622
0.0660258 0.574701 0.0591745
0.0716869 0.592325 0.0610056
0.0786145 0.614893 0.0635691
0.205615 0.64268 0.0668956
0.339239 0.676585 0.0707866
0.452186 0.709331 0.0749676
0.546349 0.73608 0.0789197
0.63624 0.758236 0.0820325
0.701396 0.771038 0.0835126
0.755093 0.778332 0.0834516
0.796551 0.781872 0.082536
0.822019 0.782528 0.0815442
0.83653 0.781491 0.0804303
0.846983 0.78085 0.0797894
0.854932 0.780179 0.0791638
0.860838 0.779522 0.0786603
0.865125 0.778988 0.0782635
0.868284 0.778607 0.0779736
0.870405 0.778424 0.0778363
0.87071 0.778408 0.077821
0.87071 0.778408 0.077821
0.87071 0.778408 0.077821
0.87071 0.778408 0.077821
0.0276341 0.524529 0.0719005
0.0331731 0.526619 0.0635691
0.037171 0.529015 0.0582437
0.0407721 0.531884 0.0572824
0.0440223 0.534798 0.0572061
0.047364 0.538201 0.0571603
0.0505837 0.541756 0.0572213
0.0542 0.547524 0.0574197
0.0579995 0.554665 0.0578622
0.062089 0.56527 0.0587167
0.0667582 0.578683 0.0599985
0.0723125 0.596002 0.061799
0.0790417 0.617884 0.0642557
0.206271 0.644831 0.0674449
0.336568 0.677821 0.0712139
0.448356 0.710079 0.075288
0.540963 0.73637 0.0792248
0.630167 0.758709 0.0824292
0.695445 0.772168 0.0841535
0.748669 0.77995 0.0843519
0.790448 0.784039 0.0836194
