film-luts/Frontier luts/ClassicPrint 16mm DWG LUT v3 Technicolor.cube
TITLE "John Razalo - ClassicPrint 16mm v3"
# © Copyright 2025 - John Razalo Visuals
LUT_3D_SIZE 5
0.0260014 0.0294194 0.032578
0.31162 0.0495918 0.0196994
0.645167 0.0590219 0.00192264
0.743008 0.153735 0.03505
0.759594 0.174563 0.0467231
0 0.193057 0.141405
0.171023 0.185046 0.10518
0.679881 0.1841 0.065568
0.802289 0.276173 0.119677
0.822675 0.306828 0.139757
0 0.568063 0.456199
0 0.603037 0.468635
0.737377 0.750423 0.479698
0.917357 0.750698 0.449363
0.927581 0.761151 0.463676
0 0.713558 0.639735
0 0.751354 0.664988
0.540383 0.854963 0.716442
0.893233 0.892866 0.674189
0.910353 0.893309 0.670176
0 0.730373 0.66566
0 0.767315 0.6907
0.517861 0.85948 0.739727
0.884276 0.903502 0.705089
0.905272 0.903212 0.696406
0.0198672 0.0456397 0.134676
0.353307 0.0377356 0.0489662
0.652934 0.0286412 0.00247196
0.743404 0.137362 0.0396887
0.758282 0.161074 0.0539101
0 0.200305 0.287175
0.174395 0.179675 0.189654
0.702495 0.171084 0.0811627
0.811215 0.271351 0.134432
0.828656 0.302449 0.153872
0 0.576761 0.519097
0 0.615915 0.537575
0.73933 0.762448 0.543832
0.919768 0.76228 0.519677
0.929793 0.772183 0.531014
0 0.717144 0.679545
0 0.75375 0.70396
0.551751 0.861128 0.749462
0.896712 0.898543 0.71339
0.912902 0.899138 0.710521
0 0.733577 0.703685
0 0.768917 0.727138
0.529915 0.865095 0.76878
0.887465 0.908766 0.74287
0.907622 0.90837 0.734234
0 0.160281 0.418326
0.183749 0.125322 0.350851
0.683635 0.0384527 0.159777
0.743984 0.108812 0.134463
0.754925 0.129412 0.140459
0 0.212299 0.452186
0.132631 0.224659 0.445396
0.724804 0.163195 0.272038
0.810773 0.249149 0.250095
0.824323 0.277958 0.262531
0 0.578637 0.666148
0 0.62005 0.694636
0.761303 0.767773 0.727749
0.926467 0.76849 0.672343
0.934951 0.781979 0.675196
0 0.697856 0.748547
0 0.741665 0.778058
0.488518 0.860838 0.822919
0.9019 0.909941 0.807813
0.9196 0.910475 0.803494
0 0.714672 0.760174
0 0.755871 0.78764
0.472236 0.864073 0.829099
0.891508 0.918502 0.822828
0.912703 0.91812 0.816052
0.0216983 0.285481 0.544945
0.286671 0.249256 0.517769
0.742992 0.184604 0.394308
0.763363 0.140276 0.271855
0.767651 0.146227 0.26482
0 0.4038 0.616266
0.219898 0.434745 0.636149
0.787503 0.343725 0.523964
0.822736 0.275212 0.391867
0.827802 0.283223 0.385
0 0.629343 0.733898
0 0.677394 0.764248
0.818479 0.773175 0.788022
0.918791 0.630259 0.660548
0.92871 0.659617 0.669108
0 0.700908 0.765576
0 0.743664 0.79469
0.459831 0.857832 0.855039
0.906737 0.911528 0.857359
0.925109 0.912535 0.853574
0 0.717144 0.776043
0 0.759365 0.804135
0.442313 0.862211 0.8589
0.896056 0.920943 0.867018
0.917464 0.921096 0.863005
0.039292 0.318029 0.568231
0.339605 0.285573 0.547539
0.76817 0.220798 0.430426
0.779614 0.173648 0.31751
0.773602 0.157656 0.294163
0 0.455589 0.649485
0.282582 0.492836 0.672175
0.816693 0.397925 0.566735
0.840681 0.320424 0.446952
0.833799 0.298161 0.416129
0 0.661067 0.75494
0 0.712642 0.786023
0.839719 0.799359 0.805554
0.925658 0.680552 0.701396
0.923293 0.6271 0.660945
0 0.711986 0.77409
0 0.755016 0.802838
0.54023 0.8701 0.861738
0.910445 0.913222 0.862669
0.926741 0.909392 0.855894
0 0.716106 0.776272
0 0.757916 0.80415
0.428458 0.859678 0.858961
0.896315 0.920287 0.870222
0.917952 0.92047 0.866545
