film-luts/Frontier luts/ClassicPrint 16mm DWG LUT v3 500T.cube
TITLE "John Razalo - ClassicPrint 16mm v3"
# © Copyright 2025 - John Razalo Visuals
LUT_3D_SIZE 9
0.0244144 0.018967 0.032929
0.0860914 0.019089 0.0308995
0.271122 0.0145724 0.0260929
0.490166 0.0187533 0.0274815
0.602777 0.0284428 0.0333867
0.642832 0.0401617 0.0407263
0.662318 0.0467384 0.0456245
0.669764 0.0492866 0.0475624
0.669917 0.0493477 0.0476081
0.0186923 0.0606088 0.0343633
0.0554208 0.0595407 0.0361791
0.223011 0.0511177 0.0266117
0.475227 0.0340734 0.0272679
0.612329 0.0420844 0.0333562
0.661158 0.0534066 0.0410773
0.684825 0.0603342 0.0462501
0.693935 0.0630655 0.0483406
0.694148 0.0631266 0.0483864
0.0105287 0.182712 0.0341039
0.028748 0.176745 0.0359808
0.159167 0.189212 0.0411536
0.495583 0.135698 0.0315862
0.641855 0.0699626 0.0349432
0.692653 0.0999619 0.0422065
0.719188 0.149538 0.0473487
0.729961 0.171069 0.049485
0.730205 0.171557 0.0495308
0.0074464 0.3738 0.0333562
0.0242161 0.363348 0.0331273
0.0483101 0.373648 0.0388952
0.450736 0.474937 0.0505074
0.748714 0.422309 0.0420386
0.790188 0.391714 0.0467231
0.803128 0.388846 0.0507057
0.80824 0.390738 0.0525063
0.808347 0.390784 0.0525368
0.00770581 0.473564 0.0420691
0.027451 0.471168 0.0408331
0.0458534 0.486061 0.0427558
0.204578 0.583505 0.0572976
0.724376 0.696574 0.0642252
0.861662 0.682597 0.0565957
0.882902 0.672206 0.0585946
0.887816 0.668452 0.0599374
0.887907 0.668391 0.059968
0.0166323 0.507942 0.0522621
0.0367132 0.511238 0.0504158
0.0518807 0.527779 0.0511635
0.0782635 0.599268 0.0597696
0.598611 0.734722 0.0768597
0.830213 0.760174 0.0738842
0.872541 0.755001 0.0708171
0.884749 0.75346 0.0705577
0.884993 0.753429 0.0705577
0.0264286 0.522423 0.0666972
0.0430915 0.531929 0.0563516
0.0571756 0.550866 0.0569772
0.0786145 0.614893 0.0635691
0.546349 0.73608 0.0789197
0.796551 0.781872 0.082536
0.854932 0.780179 0.0791638
0.870405 0.778424 0.0778363
0.87071 0.778408 0.077821
0.0298314 0.529061 0.0820935
0.0458381 0.540429 0.0595254
0.0596628 0.562051 0.0594797
0.0799725 0.624018 0.0655833
0.53257 0.737423 0.0798657
0.779828 0.787457 0.0854505
0.846418 0.788373 0.0823835
0.863447 0.787213 0.0811933
0.863798 0.787182 0.0811627
0.0299077 0.529229 0.0824903
0.0458991 0.540627 0.0596475
0.0597238 0.56231 0.0595407
0.0800183 0.624231 0.0656291
0.532296 0.737469 0.0798962
0.779492 0.787564 0.0855116
0.846235 0.78854 0.0824445
0.863264 0.787396 0.0812695
0.86363 0.787366 0.081239
0.0233768 0.0204013 0.100038
0.0693523 0.0195163 0.0789807
0.279438 0.0149386 0.0511635
0.495445 0.0185245 0.0423285
0.605814 0.0272221 0.0458686
0.647883 0.0390326 0.0526894
0.667933 0.0458381 0.0573281
0.675731 0.0484932 0.0592203
0.675914 0.0485542 0.059266
0.0133059 0.0613718 0.0823987
0.0532998 0.0554818 0.0712596
0.226795 0.0478981 0.0501259
0.484092 0.0327764 0.0411841
0.617731 0.0409705 0.0455787
0.667628 0.052369 0.0526436
0.691142 0.0593576 0.0575265
0.700298 0.0621653 0.0595407
0.700496 0.0622263 0.0595865
0.00962844 0.184375 0.0706798
0.0290532 0.177371 0.0657206
0.167285 0.187228 0.0681163
0.500496 0.134508 0.0438849
0.647227 0.0633249 0.0467689
0.698909 0.0927596 0.0538643
0.725353 0.145403 0.0588083
0.736141 0.168383 0.0608682
0.736385 0.168902 0.060914
0.0074464 0.378393 0.0441138
0.023682 0.369238 0.0434882
0.0492256 0.376242 0.0465095
0.451545 0.481666 0.0593423
0.754818 0.426261 0.0535744
0.796353 0.393347 0.0582284
0.808835 0.390356 0.0619821
0.813809 0.392065 0.0637217
0.813916 0.392126 0.0637522
0.0074464 0.48539 0.0523232
0.0268559 0.48159 0.0510109
0.0466621 0.495659 0.0516518
0.202045 0.596429 0.0641794
0.728985 0.708278 0.0725567
0.866529 0.692683 0.0673381
0.887541 0.68249 0.0695659
0.892241 0.67892 0.0709239
0.892332 0.678843 0.0709544
0.0134585 0.52369 0.125505
0.0358129 0.524971 0.0863813
0.0523537 0.541543 0.0645457
0.0796826 0.615732 0.0673838
0.607385 0.747753 0.0991531
0.832319 0.773373 0.0824903
0.875212 0.769192 0.0805982
0.887556 0.767788 0.0805371
0.8878 0.767758 0.0805524
0.0236362 0.538964 0.162829
0.0422827 0.547295 0.134615
0.0576333 0.56669 0.109499
0.0807813 0.633204 0.0973678
0.557641 0.749966 0.170138
0.800748 0.794354 0.112245
0.856657 0.793896 0.0879988
0.872145 0.792844 0.0870069
0.872435 0.792828 0.0870069
0.0273594 0.545495 0.1776
0.0450752 0.556634 0.153506
0.0602274 0.57937 0.132769
0.0822309 0.642969 0.122576
0.544411 0.75169 0.193622
0.785534 0.799802 0.189044
0.848127 0.801389 0.100938
0.86508 0.800809 0.0901656
0.865431 0.800793 0.0901503
0.0274357 0.545647 0.177951
0.0451514 0.556832 0.153948
0.0602884 0.579644 0.133303
0.0822766 0.643198 0.12314
0.544152 0.751736 0.194049
0.785183 0.799908 0.190417
0.847944 0.801541 0.101534
0.864912 0.800977 0.0902419
0.865263 0.800961 0.0902113
0.0164645 0.0171817 0.252644
0.0515145 0.0162203 0.227893
0.215244 0.0175784 0.187884
0.494209 0.0198062 0.110857
0.616144 0.0274205 0.0647746
0.655131 0.0380865 0.0669566
0.674998 0.0449836 0.0742809
0.682918 0.047715 0.0801556
0.683085 0.047776 0.080293
0.010544 0.0460822 0.257206
0.0449073 0.0435492 0.230808
0.219226 0.0453498 0.189731
0.501839 0.0336919 0.108309
0.62974 0.0412146 0.064683
0.675334 0.0516213 0.0670787
0.69836 0.0585489 0.0741131
0.707439 0.0613413 0.0788586
0.707637 0.0614176 0.0789654
0.0074464 0.199878 0.262287
0.0260166 0.192676 0.242313
0.168414 0.191409 0.22002
0.509926 0.125521 0.117098
0.65597 0.0602731 0.0647135
0.705226 0.0810559 0.0670939
0.730892 0.13814 0.0716259
0.741756 0.162387 0.0733349
0.742 0.162951 0.0733654
0.0074464 0.403403 0.182116
0.0212863 0.395972 0.1729
0.0486305 0.394202 0.154681
0.458625 0.487938 0.153735
0.760342 0.428031 0.0690166
0.802106 0.39527 0.0710155
0.812955 0.388647 0.0737316
0.817395 0.390005 0.0751965
0.817502 0.390082 0.0752422
0.0074464 0.502556 0.150713
0.0238956 0.499046 0.134844
0.0448615 0.509453 0.10985
0.164034 0.607904 0.109361
0.72578 0.723415 0.084184
0.869505 0.707164 0.0793622
0.890135 0.696391 0.0813306
0.894575 0.692805 0.0825971
0.894667 0.692729 0.0826276
0.00967422 0.541146 0.210513
0.0339818 0.540841 0.182834
0.0515602 0.557061 0.165637
0.0810864 0.63183 0.153628
0.613169 0.760128 0.23328
0.832914 0.786831 0.128374
0.87599 0.784329 0.0909743
0.888411 0.783307 0.0976425
0.888655 0.783291 0.0975967
0.0204776 0.555032 0.241276
0.0410925 0.563012 0.220188
0.0574655 0.583108 0.207477
0.0826581 0.651087 0.198077
0.570611 0.764569 0.269352
0.804746 0.807401 0.274662
0.857664 0.807141 0.22266
0.872801 0.8065 0.203754
0.873091 0.806516 0.203647
0.0248264 0.561593 0.257832
0.0441291 0.572732 0.239277
0.0601816 0.596216 0.227863
0.0841688 0.661418 0.219196
0.558801 0.767208 0.285908
0.791455 0.813306 0.313054
0.84921 0.814755 0.27187
0.865858 0.81445 0.254368
0.866194 0.814435 0.25388
0.024918 0.561746 0.258228
0.0441901 0.572946 0.239734
0.0602426 0.596521 0.228336
0.0842145 0.661662 0.219684
0.558572 0.767269 0.28632
0.791135 0.813413 0.313817
0.849042 0.814923 0.272892
0.865675 0.814618 0.255634
0.866041 0.814618 0.255116
0.00846876 0.0272984 0.410742
0.0354314 0.0251011 0.387274
0.156237 0.0238956 0.37731
0.446433 0.024033 0.34995
0.629114 0.0305943 0.298695
0.672908 0.0394751 0.267903
0.688838 0.0450141 0.256107
0.694911 0.0473335 0.253376
0.695048 0.0473793 0.25333
0.0074464 0.0454566 0.42118
0.0326696 0.0386206 0.39707
0.155001 0.0367132 0.389731
0.457862 0.0369879 0.363287
0.646906 0.0441901 0.313878
0.694194 0.0530404 0.283131
0.712139 0.0585031 0.270253
0.719127 0.060853 0.267109
0.71928 0.0608988 0.267063
0.0074464 0.138582 0.453086
0.0256046 0.129397 0.438132
0.160037 0.12604 0.435752
0.498741 0.0977035 0.397833
0.674876 0.0616159 0.334493
0.722423 0.0962539 0.298177
0.742412 0.14757 0.28307
0.750546 0.165988 0.279255
0.750744 0.16643 0.279194
0.0074464 0.434379 0.494514
0.00825513 0.441962 0.498085
0.0432288 0.42739 0.481544
0.47985 0.494194 0.481712
0.757595 0.413947 0.379461
0.800885 0.376898 0.31841
0.81059 0.368032 0.29398
0.81442 0.369314 0.287144
0.814527 0.369421 0.287037
0.0074464 0.551797 0.421683
0.0124666 0.552544 0.4215
0.0391241 0.557443 0.403784
0.0864881 0.649012 0.402991
0.739483 0.754757 0.428458
0.868635 0.732937 0.353826
0.887816 0.718288 0.328145
0.892531 0.713939 0.321263
0.892622 0.713863 0.321233
0.0074464 0.574853 0.378958
0.0261845 0.572 0.361639
0.0458686 0.585687 0.349004
0.0775616 0.652018 0.341619
0.612345 0.782238 0.404654
0.830854 0.812848 0.408057
0.874479 0.810819 0.390845
0.886275 0.809308 0.387655
0.886488 0.809277 0.387671
0.00961318 0.583291 0.386343
0.0355688 0.586664 0.36611
0.0528878 0.604807 0.358663
0.07953 0.66865 0.354971
0.57055 0.784237 0.403235
0.805234 0.827268 0.438697
0.857404 0.829541 0.424247
0.8719 0.829618 0.41973
0.87219 0.829633 0.419791
0.0149996 0.586892 0.393652
0.0395056 0.594949 0.37763
0.0561379 0.615228 0.372366
0.08159 0.679789 0.371054
0.562097 0.786984 0.412528
0.796384 0.831617 0.454383
0.850095 0.835142 0.442756
0.865721 0.835569 0.438087
0.866041 0.835584 0.43798
0.0151827 0.586984 0.393866
0.0395972 0.595148 0.377951
0.0562142 0.615473 0.372732
0.0816358 0.680064 0.371496
0.561975 0.78706 0.412787
0.796201 0.831708 0.454734
0.849943 0.835248 0.443137
0.865568 0.835691 0.438514
0.865904 0.835706 0.438407
0.00883497 0.0468757 0.499138
0.033402 0.0396887 0.489067
0.107668 0.0382849 0.495247
0.423758 0.0361944 0.512322
0.618616 0.0363012 0.491066
0.680476 0.0411383 0.480079
0.699046 0.0464942 0.47985
0.705715 0.0487984 0.479789
0.705852 0.0488441 0.479774
0.0074464 0.111421 0.522942
0.0322576 0.0899672 0.510933
0.0818952 0.077409 0.519066
0.438529 0.0493172 0.539635
0.637995 0.0491035 0.516945
0.70222 0.0544137 0.507042
0.722728 0.0598917 0.507088
0.730266 0.0622416 0.507103
0.730419 0.0622873 0.507103
0.0074464 0.178363 0.548852
0.0273747 0.161227 0.53727
0.0643015 0.15845 0.548653
0.462654 0.141009 0.570459
0.663355 0.0626078 0.545907
0.729717 0.0914321 0.536568
0.752468 0.158282 0.536568
0.761273 0.182483 0.536767
0.761471 0.183032 0.536767
0.0074464 0.365103 0.604379
0.0162203 0.357885 0.599359
0.0522621 0.358724 0.604593
0.512413 0.388693 0.649683
0.733257 0.357885 0.618753
0.787808 0.343404 0.589212
0.806271 0.366781 0.581079
0.813718 0.381109 0.578576
0.813886 0.381445 0.578531
0.0074464 0.571008 0.623896
0.0074464 0.578103 0.631037
0.0289464 0.574563 0.624109
0.0808423 0.662028 0.663981
0.754513 0.764019 0.679332
0.861143 0.737575 0.642832
0.877714 0.721355 0.624781
0.88217 0.716136 0.618509
0.882246 0.716045 0.618372
0.0074464 0.607538 0.611521
0.0074464 0.608209 0.612833
0.0363775 0.615381 0.609537
0.0702068 0.675059 0.629419
0.624628 0.814588 0.658106
0.841276 0.838666 0.657771
0.875624 0.835676 0.645304
0.883497 0.833356 0.64033
0.883665 0.833295 0.640223
0.0074464 0.616526 0.605158
0.020676 0.615137 0.598123
0.0436408 0.63003 0.597055
0.0708782 0.684001 0.613657
0.543206 0.812207 0.639796
0.816983 0.851713 0.651652
0.864118 0.854536 0.648173
0.87538 0.854246 0.645167
0.875547 0.854231 0.645121
0.0074464 0.618906 0.602014
0.0269474 0.618341 0.590768
0.0471504 0.635874 0.591501
0.0726787 0.690852 0.608316
0.518791 0.81062 0.631708
0.806134 0.853712 0.646372
0.857969 0.858152 0.64625
0.871015 0.858564 0.644663
0.871275 0.858564 0.644633
0.0074464 0.618936 0.601892
0.0270848 0.618448 0.590616
0.0472419 0.636011 0.591379
0.0727398 0.691051 0.608225
0.518334 0.810605 0.63154
0.80592 0.853758 0.646265
0.857832 0.858213 0.646204
0.870893 0.85864 0.644633
0.871168 0.85864 0.644602
0.0260471 0.0957046 0.538857
0.0438544 0.0796674 0.539956
0.119326 0.0653086 0.555688
0.409567 0.0481117 0.579614
0.6327 0.0462043 0.569482
0.683406 0.0458228 0.559335
0.699535 0.0469978 0.555993
0.706676 0.0489357 0.557961
0.706813 0.0489815 0.558007
0.0171206 0.170275 0.566613
0.0428473 0.157733 0.567895
0.0744945 0.155962 0.586236
0.426444 0.136629 0.612726
0.656077 0.059617 0.600702
0.706172 0.0587778 0.58912
0.723033 0.0601205 0.586069
0.731014 0.0621958 0.588403
0.731182 0.0622416 0.588464
0.00975052 0.252384 0.597101
0.0385595 0.239963 0.596521
0.0687114 0.244282 0.618387
0.446586 0.242084 0.646189
0.683482 0.181903 0.633371
0.732235 0.133745 0.619394
0.751431 0.153094 0.618265
0.760388 0.174441 0.62092
0.760586 0.175006 0.620996
0.0074464 0.374823 0.635355
0.0345006 0.360449 0.632197
0.0618601 0.370291 0.650019
0.474311 0.395514 0.690593
0.72781 0.359731 0.679698
0.777493 0.331487 0.665751
0.797986 0.348455 0.664607
0.806775 0.365484 0.666377
0.806973 0.365911 0.666423
0.0074464 0.562722 0.673167
0.00965896 0.560708 0.671656
0.0431678 0.572702 0.678218
0.0915541 0.667887 0.731167
0.776318 0.726879 0.750195
0.849699 0.707088 0.737408
0.867506 0.694362 0.728115
0.872282 0.690898 0.724712
0.872374 0.690852 0.724651
0.0074464 0.609827 0.67039
0.0074464 0.614023 0.675563
0.0264439 0.61239 0.670695
0.062562 0.660044 0.694621
0.58613 0.814878 0.752468
0.842283 0.840772 0.749737
0.874754 0.837736 0.743358
0.882292 0.835676 0.7402
0.882445 0.83563 0.740108
0.0074464 0.621134 0.66952
0.0074464 0.621592 0.670237
0.0351415 0.628656 0.670039
0.0642863 0.674968 0.692638
0.476738 0.813123 0.744213
0.821042 0.858671 0.747936
0.867887 0.86125 0.745556
0.876722 0.860792 0.743618
0.87689 0.860777 0.743572
0.0074464 0.624445 0.669276
0.0112917 0.623438 0.667491
0.0394751 0.635691 0.670283
0.0663462 0.683314 0.693324
0.442557 0.811688 0.740688
0.809506 0.861936 0.746303
0.864408 0.866072 0.745007
0.874449 0.866239 0.743694
0.874632 0.866239 0.743664
0.0074464 0.624521 0.669276
0.0114443 0.623484 0.66743
0.0395666 0.635843 0.670298
0.066392 0.683497 0.693339
0.441855 0.811658 0.740597
0.809247 0.861997 0.746258
0.864317 0.866163 0.744991
0.874388 0.866346 0.743679
0.874586 0.866331 0.743664
0.0378271 0.125673 0.561608
0.0532387 0.115908 0.567452
0.165927 0.108522 0.588846
0.451942 0.061738 0.611154
0.649073 0.0523995 0.60058
0.693675 0.0513466 0.589731
0.704662 0.0512093 0.585351
0.709392 0.0513161 0.583581
0.709499 0.0513313 0.583566
0.0322118 0.204868 0.588998
0.0527047 0.199756 0.598138
0.130205 0.204593 0.62269
0.472969 0.191546 0.647196
0.67538 0.0923323 0.634668
0.719112 0.064744 0.621851
0.729534 0.0643168 0.616648
0.734157 0.0643473 0.614603
0.734264 0.0643473 0.614572
0.0274205 0.294682 0.618723
0.0484932 0.292226 0.627054
0.0772259 0.307378 0.657191
0.494148 0.306722 0.682734
0.704906 0.24831 0.668986
0.748028 0.21004 0.654704
0.757687 0.195056 0.648478
0.762188 0.191089 0.646143
0.762295 0.191135 0.646113
0.0209049 0.405753 0.649912
0.0455329 0.4047 0.657359
0.0711376 0.426337 0.683894
0.52076 0.447822 0.719432
0.741894 0.401144 0.707805
0.787182 0.370733 0.694759
0.797971 0.361089 0.689372
0.803525 0.361761 0.687831
0.803708 0.362081 0.687877
0.00753796 0.549615 0.680568
0.0371862 0.551293 0.683864
0.0619974 0.582879 0.705501
0.354498 0.672923 0.756512
0.790524 0.678492 0.760922
0.843992 0.656474 0.749752
0.856519 0.647654 0.744549
0.861906 0.644846 0.742382
0.862028 0.644831 0.742336
0.0074464 0.609796 0.685542
0.0074464 0.610025 0.68571
0.0371405 0.618524 0.689586
0.0729229 0.685939 0.72726
0.660777 0.821149 0.775433
0.85037 0.836072 0.770916
0.873014 0.833432 0.767025
0.88072 0.831342 0.764721
0.880873 0.831296 0.76466
0.0074464 0.620615 0.683726
0.0074464 0.622629 0.686046
0.0310674 0.625208 0.685054
0.0604562 0.665858 0.707683
0.433219 0.807431 0.766644
0.816236 0.858259 0.772107
0.867521 0.860548 0.768719
0.876036 0.860166 0.767529
0.876219 0.860151 0.767514
0.0074464 0.624079 0.683726
0.0074464 0.624613 0.684398
0.0350805 0.631907 0.68629
0.0622721 0.673686 0.709102
0.391302 0.805905 0.763638
0.803632 0.862135 0.771344
0.864103 0.866224 0.768261
0.873915 0.866438 0.767468
0.874098 0.866438 0.767437
0.0074464 0.624155 0.683726
0.0074464 0.624659 0.684352
0.0352026 0.632074 0.686336
0.0623331 0.673899 0.709148
0.390509 0.805875 0.763577
0.803342 0.862211 0.771313
0.863996 0.866316 0.768246
0.873869 0.86656 0.767468
0.874052 0.866545 0.767437
0.0433509 0.137514 0.571221
0.0589761 0.130785 0.580667
0.211353 0.126589 0.604471
0.502647 0.065568 0.622934
0.663081 0.0548257 0.610544
0.700023 0.0536812 0.600473
0.708904 0.0532998 0.596262
0.712398 0.0533913 0.595056
0.712489 0.0533913 0.595026
0.0385443 0.221408 0.600351
0.0586862 0.219745 0.613046
0.195468 0.227115 0.639857
0.526436 0.208377 0.659907
0.6907 0.121782 0.645548
0.726604 0.0744945 0.633509
0.734722 0.0666056 0.628336
0.738125 0.0665904 0.626932
0.738216 0.0665904 0.626886
0.0346075 0.315038 0.629786
0.0543832 0.316365 0.641184
0.135622 0.33637 0.674937
0.549767 0.330037 0.695842
0.721172 0.271382 0.6804
0.756344 0.235721 0.666896
0.763806 0.221485 0.66096
0.766964 0.218326 0.659144
0.76704 0.218235 0.659098
0.029633 0.426337 0.658045
0.051133 0.431418 0.669764
0.0776532 0.461082 0.701183
0.575082 0.476982 0.731853
0.757061 0.423011 0.717891
0.793759 0.388922 0.705013
0.802304 0.378103 0.699886
0.806027 0.377005 0.698482
0.806134 0.376989 0.698451
0.0179446 0.547417 0.682002
0.0451972 0.558846 0.691829
0.0700542 0.600641 0.719982
0.458213 0.680919 0.764767
0.801831 0.67068 0.764294
0.844892 0.647623 0.754177
0.854795 0.636576 0.749493
0.858427 0.63238 0.747631
0.858518 0.632258 0.747585
0.0074464 0.610086 0.690059
0.014435 0.607706 0.687984
0.045243 0.626184 0.698558
0.0835279 0.713283 0.745739
0.722225 0.825956 0.782208
0.856336 0.833371 0.776989
0.873991 0.830625 0.773831
0.879438 0.828901 0.772198
0.879591 0.828855 0.772152
0.0074464 0.620905 0.688167
0.00779736 0.621088 0.688365
0.0368963 0.630167 0.692241
0.0669718 0.682292 0.721813
0.543786 0.823255 0.777218
0.830579 0.85864 0.778454
0.869444 0.859739 0.77528
0.875639 0.859464 0.774517
0.875822 0.859449 0.774487
0.0074464 0.623743 0.687312
0.0074464 0.624735 0.688487
0.0339513 0.630762 0.69012
0.0610208 0.670481 0.712688
0.370214 0.803143 0.769848
0.801144 0.861784 0.778851
0.863355 0.86595 0.775296
0.87364 0.866194 0.774594
0.873823 0.866194 0.774563
0.0074464 0.623804 0.687312
0.0074464 0.624796 0.688472
0.0339666 0.630838 0.69012
0.0610056 0.670542 0.712657
0.369299 0.803113 0.769787
0.800839 0.86186 0.778836
0.863249 0.866056 0.775296
0.873579 0.866316 0.774578
0.873777 0.8663 0.774563
0.0435035 0.137758 0.571435
0.059144 0.131106 0.581018
0.212863 0.127001 0.604883
0.504021 0.0659342 0.623133
0.663554 0.0548867 0.610727
0.700206 0.053727 0.600702
0.709026 0.0533455 0.59649
0.712489 0.0534371 0.5953
0.712566 0.0534371 0.59527
0.0387121 0.221805 0.60061
0.0588693 0.220249 0.613458
0.197513 0.22768 0.640314
0.527871 0.208606 0.660121
0.691203 0.122255 0.645747
0.726818 0.0751049 0.633753
0.734859 0.0666514 0.628595
0.738216 0.0666514 0.627176
0.738293 0.0666514 0.627146
0.0347906 0.315526 0.630076
0.054551 0.316945 0.641566
0.140337 0.337087 0.67541
0.551324 0.330434 0.696071
0.721706 0.271794 0.680613
0.756573 0.23621 0.66714
0.763958 0.222034 0.661234
0.767086 0.218845 0.659419
0.767147 0.218769 0.659373
0.0298314 0.426902 0.658305
0.0512856 0.432044 0.670069
0.0778668 0.461921 0.701656
0.57673 0.477516 0.732097
0.75758 0.423499 0.718105
0.793957 0.389334 0.705226
0.802426 0.378531 0.700114
0.806119 0.377401 0.698726
0.806195 0.377386 0.698695
0.0184024 0.547372 0.682048
0.0453956 0.559106 0.692058
0.0702831 0.60119 0.720378
0.461509 0.681224 0.764996
0.802274 0.670542 0.764355
0.844984 0.647532 0.754284
0.854795 0.6365 0.749615
0.858396 0.632288 0.747768
0.858473 0.632197 0.747723
0.0074464 0.610101 0.690166
0.0148928 0.607706 0.68806
0.0454871 0.626444 0.698802
0.0838788 0.714199 0.746273
0.724147 0.826093 0.782345
0.856535 0.833295 0.777096
0.874022 0.830533 0.773953
0.879438 0.82884 0.772335
0.879576 0.828794 0.772305
0.0074464 0.62092 0.688258
0.00791943 0.621057 0.688411
0.0370794 0.63035 0.692439
0.0672007 0.682918 0.72224
0.546792 0.823682 0.777447
0.831052 0.858656 0.778576
0.869505 0.859724 0.775418
0.875669 0.859449 0.774655
0.875807 0.859434 0.774639
0.0074464 0.623758 0.687419
0.0074464 0.624704 0.688533
0.0341192 0.6309 0.690303
0.0612039 0.670985 0.713054
0.374701 0.803738 0.770153
0.801801 0.861845 0.778973
0.863493 0.86595 0.775448
0.873671 0.866178 0.774746
0.873808 0.866178 0.774716
0.0074464 0.623804 0.687388
0.0074464 0.624781 0.688533
0.0340124 0.630884 0.690227
0.0610361 0.670604 0.712795
0.368841 0.803052 0.769909
0.800793 0.861845 0.778988
0.863233 0.866056 0.775448
0.873579 0.8663 0.774746
0.873762 0.8663 0.774716
