film-luts/Frontier luts/ClassicPrint 16mm DWG LUT v3 Technicolor.cube
TITLE "John Razalo - ClassicPrint 16mm v3"
# © Copyright 2025 - John Razalo Visuals
LUT_3D_SIZE 9
0.0260014 0.0294194 0.032578
0.137819 0.0420233 0.0267185
0.31162 0.0495918 0.0196994
0.517891 0.0350042 0.00408942
0.645167 0.0590219 0.00192264
0.710887 0.118608 0.0172885
0.743008 0.153735 0.03505
0.757198 0.171237 0.0445258
0.759594 0.174563 0.0467231
0.000381476 0.0758679 0.0659953
0.0655985 0.0717021 0.0508125
0.258335 0.0794995 0.0413672
0.489372 0.0792859 0.0224308
0.650034 0.0985885 0.0149233
0.725216 0.154253 0.0377661
0.764858 0.198123 0.0639048
0.782727 0.221378 0.0794232
0.78555 0.225452 0.0820935
0 0.193057 0.141405
0 0.184726 0.124895
0.171023 0.185046 0.10518
0.496834 0.170199 0.0764935
0.679881 0.1841 0.065568
0.762341 0.229664 0.0915084
0.802289 0.276173 0.119677
0.819776 0.302037 0.136584
0.822675 0.306828 0.139757
0 0.391836 0.287938
0 0.385031 0.275517
0 0.404349 0.280201
0.463355 0.474784 0.262089
0.778683 0.449577 0.245106
0.851804 0.455482 0.256825
0.878981 0.478843 0.271595
0.890929 0.49865 0.286687
0.893217 0.503731 0.290776
0 0.568063 0.456199
0 0.578042 0.456123
0 0.603037 0.468635
0.0792706 0.686336 0.515969
0.737377 0.750423 0.479698
0.884596 0.748882 0.450202
0.917357 0.750698 0.449363
0.926345 0.758572 0.460273
0.927581 0.761151 0.463676
0 0.671595 0.583017
0 0.68957 0.594049
0 0.712184 0.607858
0 0.760845 0.635813
0.607126 0.840131 0.656092
0.857862 0.859754 0.616495
0.906554 0.859373 0.604685
0.918059 0.861509 0.607599
0.919524 0.862348 0.609064
0 0.713558 0.639735
0 0.730388 0.65098
0 0.751354 0.664988
0.00471504 0.7888 0.68809
0.540383 0.854963 0.716442
0.826383 0.890639 0.693202
0.893233 0.892866 0.674189
0.908522 0.893111 0.670253
0.910353 0.893309 0.670176
0 0.728283 0.662394
0 0.744472 0.673838
0 0.765316 0.687572
0.0169223 0.800061 0.709499
0.520226 0.858976 0.737346
0.813748 0.897963 0.719081
0.88542 0.902312 0.701381
0.903944 0.902068 0.693767
0.905989 0.902098 0.693141
0 0.730373 0.66566
0 0.746517 0.677089
0 0.767315 0.6907
0.0145876 0.801694 0.712261
0.517861 0.85948 0.739727
0.811902 0.898741 0.722591
0.884276 0.903502 0.705089
0.90312 0.903319 0.697459
0.905272 0.903212 0.696406
0.0272526 0.0336156 0.0664378
0.14374 0.0386053 0.0391546
0.365164 0.0392462 0.0168154
0.532387 0.0195468 0.00303655
0.64535 0.0427558 0.00154116
0.711315 0.107652 0.0175479
0.744152 0.145464 0.0366522
0.757427 0.164523 0.0480049
0.759625 0.168124 0.0503243
0 0.0729076 0.0997177
0.0604715 0.0649119 0.0680552
0.280873 0.0730297 0.0421149
0.505608 0.0669566 0.0219425
0.655543 0.090013 0.0179141
0.730663 0.151705 0.0428779
0.770016 0.197253 0.0720836
0.786679 0.220905 0.088014
0.789334 0.22504 0.0907301
0 0.196796 0.185702
0 0.188373 0.169635
0.173938 0.181506 0.123827
0.516533 0.1664 0.0814679
0.689601 0.18056 0.0724041
0.768612 0.227573 0.0975052
0.807294 0.274846 0.126741
0.823896 0.301183 0.144045
0.826734 0.30605 0.147265
0 0.393286 0.318746
0 0.389059 0.308293
0 0.409003 0.314046
0.463081 0.481956 0.295521
0.783032 0.462699 0.245975
0.858473 0.454307 0.266728
0.883879 0.478187 0.280705
0.895033 0.498177 0.295109
0.897246 0.503243 0.298955
0 0.573144 0.48336
0 0.586709 0.488563
0 0.611032 0.500969
0.0184634 0.69308 0.548165
0.740414 0.755962 0.507729
0.885863 0.754437 0.482856
0.918395 0.756252 0.481331
0.927169 0.764035 0.491875
0.928435 0.766613 0.495247
0 0.673945 0.602625
0 0.691936 0.613275
0 0.714931 0.62826
0 0.763302 0.65687
0.612131 0.843595 0.674098
0.859815 0.863432 0.638315
0.907546 0.863371 0.630167
0.919051 0.865476 0.633295
0.920516 0.8663 0.634638
0 0.715557 0.658396
0 0.731746 0.66981
0 0.752758 0.683925
0 0.790494 0.707881
0.545663 0.858152 0.733516
0.828367 0.893217 0.710857
0.89482 0.895445 0.691997
0.909682 0.89575 0.688365
0.911528 0.895964 0.688365
0 0.729824 0.679774
0 0.745525 0.690974
0 0.766186 0.704601
0 0.801373 0.726848
0.52607 0.861601 0.750515
0.815915 0.900343 0.736431
0.886778 0.904799 0.718853
0.904967 0.904433 0.711009
0.907027 0.904463 0.710384
0 0.731853 0.682826
0 0.747509 0.69398
0 0.768078 0.707576
0.00047303 0.802853 0.729549
0.523629 0.862074 0.752865
0.813977 0.901122 0.739986
0.885634 0.905943 0.722393
0.904112 0.905699 0.714763
0.906294 0.905577 0.71368
0.0198672 0.0456397 0.134676
0.0968032 0.0439307 0.0919966
0.353307 0.0377356 0.0489662
0.560723 0.00454719 0.00668345
0.652934 0.0286412 0.00247196
0.712902 0.0953384 0.0200198
0.743404 0.137362 0.0396887
0.75613 0.157595 0.0517433
0.758282 0.161074 0.0539101
0 0.0720836 0.170901
0.0624857 0.0677501 0.125154
0.293843 0.0642405 0.0693675
0.548913 0.0438087 0.0224918
0.665995 0.0760357 0.0216373
0.734264 0.142168 0.0458076
0.76994 0.18761 0.0749676
0.784619 0.211566 0.0904402
0.787076 0.215702 0.0931411
0 0.200305 0.287175
0 0.18555 0.249668
0.174395 0.179675 0.189654
0.537438 0.164065 0.100664
0.702495 0.171084 0.0811627
0.774426 0.222095 0.104189
0.811215 0.271351 0.134432
0.826154 0.297581 0.150805
0.828656 0.302449 0.153872
0 0.410056 0.394659
0 0.411612 0.390402
0 0.422919 0.387243
0.466392 0.486259 0.353277
0.786267 0.472282 0.283101
0.863264 0.467369 0.267155
0.887892 0.485267 0.282353
0.898817 0.507561 0.29482
0.900969 0.513558 0.298085
0 0.576761 0.519097
0 0.591516 0.525826
0 0.615915 0.537575
0 0.695155 0.582864
0.73933 0.762448 0.543832
0.88748 0.760693 0.521981
0.919768 0.76228 0.519677
0.928512 0.769665 0.52813
0.929793 0.772183 0.531014
0 0.675944 0.625925
0 0.69424 0.636057
0 0.71725 0.651057
0 0.765255 0.681788
0.614862 0.84715 0.695064
0.861601 0.86746 0.66334
0.908858 0.86772 0.656901
0.920485 0.869764 0.659617
0.921904 0.870542 0.660746
0 0.717144 0.679545
0 0.732967 0.690059
0 0.75375 0.70396
0 0.79173 0.728176
0.551751 0.861128 0.749462
0.830671 0.896178 0.731563
0.896712 0.898543 0.71339
0.91104 0.898878 0.710323
0.912902 0.899138 0.710521
0 0.731533 0.700755
0 0.746899 0.71107
0 0.76701 0.724254
0 0.802106 0.746609
0.532326 0.864637 0.766384
0.818463 0.90309 0.756161
0.888579 0.907652 0.739223
0.906279 0.90724 0.731716
0.908324 0.907286 0.731182
0 0.733577 0.703685
0 0.748852 0.713985
0 0.768917 0.727138
0 0.803601 0.74931
0.529915 0.865095 0.76878
0.816587 0.903822 0.759182
0.887465 0.908766 0.74287
0.90544 0.908492 0.735256
0.907622 0.90837 0.734234
0.0011902 0.0876936 0.286595
0.0529641 0.0740063 0.241978
0.227314 0.0724041 0.170336
0.560586 0.00637827 0.0863355
0.675975 0.0204166 0.0229648
0.719493 0.0842756 0.0359197
0.742916 0.125902 0.0505837
0.753902 0.143954 0.0602121
0.755764 0.147066 0.062089
0 0.0978408 0.293095
0.0298772 0.0934768 0.258289
0.198459 0.0897078 0.190768
0.53669 0.052842 0.110369
0.694621 0.0701152 0.0522316
0.743832 0.133761 0.0660563
0.767895 0.173037 0.0841688
0.780072 0.194034 0.095552
0.782147 0.197742 0.0977646
0 0.162707 0.348898
0 0.155734 0.317037
0.176516 0.163851 0.29601
0.550896 0.132692 0.176761
0.726482 0.14107 0.125826
0.779324 0.201236 0.1149
0.804807 0.245365 0.135042
0.816983 0.269566 0.148562
0.81915 0.273945 0.151186
0 0.423224 0.526024
0 0.42533 0.52256
0 0.425376 0.508064
0.489708 0.484977 0.487495
0.790204 0.46453 0.394705
0.864973 0.468025 0.346502
0.888991 0.483314 0.331273
0.899336 0.504662 0.338949
0.901289 0.510658 0.342504
0 0.584634 0.606073
0 0.600198 0.615518
0 0.624063 0.629816
0 0.694636 0.653315
0.744823 0.769146 0.630518
0.892958 0.767376 0.59469
0.922789 0.767773 0.580316
0.931411 0.77528 0.585718
0.932494 0.777813 0.588205
0 0.672526 0.666804
0 0.691615 0.678126
0 0.714153 0.691493
0 0.758434 0.71957
0.592813 0.849104 0.736843
0.86244 0.873838 0.709209
0.911208 0.874098 0.701839
0.922744 0.876112 0.703319
0.924071 0.87686 0.704173
0 0.714549 0.711055
0 0.732601 0.722377
0 0.751842 0.735698
0 0.788022 0.758526
0.535836 0.862196 0.776791
0.830304 0.900328 0.766171
0.898039 0.903731 0.751293
0.912978 0.904128 0.747967
0.914839 0.904387 0.748135
0 0.730358 0.729702
0 0.747311 0.740749
0 0.765942 0.753353
0 0.79913 0.774197
0.522332 0.866468 0.792386
0.819287 0.906661 0.784695
0.890608 0.911986 0.772442
0.908171 0.91162 0.766308
0.910323 0.911665 0.765759
0 0.73257 0.732403
0 0.749294 0.743404
0 0.767865 0.755932
0 0.800748 0.776562
0.520974 0.867079 0.794583
0.817548 0.907408 0.787213
0.889464 0.913024 0.775128
0.907317 0.912779 0.769116
0.909606 0.912688 0.768261
0 0.160281 0.418326
0.062211 0.138872 0.38584
0.183749 0.125322 0.350851
0.526101 0.0989242 0.264912
0.683635 0.0384527 0.159777
0.724727 0.0711681 0.130648
0.743984 0.108812 0.134463
0.753277 0.12639 0.139284
0.754925 0.129412 0.140459
0 0.175967 0.426062
0.00766003 0.172015 0.414664
0.156481 0.156237 0.383047
0.517052 0.140444 0.305287
0.701198 0.0965286 0.205249
0.7514 0.131426 0.174166
0.770779 0.163577 0.178759
0.781384 0.183276 0.185306
0.783352 0.18706 0.186938
0 0.212299 0.452186
0 0.21207 0.445808
0.132631 0.224659 0.445396
0.524605 0.200946 0.362509
0.724804 0.163195 0.272038
0.787366 0.207309 0.245701
0.810773 0.249149 0.250095
0.822217 0.273442 0.260121
0.824323 0.277958 0.262531
0 0.392752 0.566491
0 0.396109 0.565255
0 0.41767 0.576471
0.529732 0.45034 0.578027
0.786282 0.358633 0.439261
0.854688 0.386725 0.399176
0.876692 0.427314 0.399741
0.886915 0.454887 0.409247
0.888975 0.460716 0.412146
0 0.578637 0.666148
0 0.594247 0.677653
0 0.62005 0.694636
0 0.692393 0.728618
0.761303 0.767773 0.727749
0.899062 0.764736 0.686488
0.926467 0.76849 0.672343
0.933883 0.778866 0.673777
0.934951 0.781979 0.675196
0 0.661311 0.722194
0 0.678691 0.735241
0 0.710048 0.754879
0 0.762661 0.781079
0.573877 0.853483 0.804959
0.870558 0.882017 0.786343
0.9178 0.881529 0.77409
0.928283 0.883162 0.771679
0.92958 0.883833 0.77174
0 0.697856 0.748547
0 0.715877 0.761273
0 0.741665 0.778058
0 0.785351 0.799435
0.488518 0.860838 0.822919
0.829602 0.906493 0.822354
0.9019 0.909941 0.807813
0.9178 0.910292 0.80383
0.9196 0.910475 0.803494
0 0.712627 0.75877
0 0.73109 0.771511
0 0.753994 0.786465
0 0.795056 0.806516
0.473732 0.863661 0.828428
0.813138 0.911162 0.831785
0.892958 0.917693 0.821439
0.911376 0.917189 0.815106
0.913619 0.917189 0.814481
0 0.714672 0.760174
0 0.733288 0.772961
0 0.755871 0.78764
0 0.79649 0.807477
0.472236 0.864073 0.829099
0.810712 0.911589 0.832944
0.891508 0.918502 0.822828
0.910246 0.918257 0.816892
0.912703 0.91812 0.816052
0.00700389 0.236576 0.503517
0.106706 0.212634 0.482048
0.229343 0.194308 0.458381
0.50277 0.174319 0.40502
0.716503 0.128252 0.31075
0.741299 0.104402 0.226062
0.751736 0.118807 0.209583
0.760693 0.13518 0.215671
0.762264 0.138079 0.217243
0 0.268376 0.52137
0.0204776 0.267384 0.520775
0.196109 0.24918 0.504616
0.50486 0.229206 0.456428
0.734859 0.183032 0.361975
0.766293 0.159304 0.283131
0.77789 0.17377 0.265599
0.788205 0.193103 0.27187
0.790097 0.19678 0.27364
0 0.32256 0.551858
0 0.330663 0.558389
0.158511 0.34696 0.569696
0.51577 0.314855 0.527306
0.75967 0.263005 0.432685
0.798062 0.229816 0.346349
0.814023 0.253941 0.334493
0.824735 0.276753 0.342626
0.826719 0.281132 0.344808
0 0.435309 0.618799
0 0.449775 0.629572
0 0.470222 0.641932
0.511177 0.493965 0.646372
0.800732 0.422705 0.552331
0.845655 0.364675 0.462593
0.868833 0.403082 0.460487
0.879973 0.433768 0.473289
0.881987 0.439689 0.476402
0 0.600992 0.704875
0 0.618997 0.718944
0 0.645457 0.736736
0.00810254 0.709072 0.769329
0.793256 0.769802 0.77258
0.903181 0.690715 0.692241
0.928649 0.703227 0.679408
0.935897 0.721325 0.682368
0.937087 0.72636 0.684398
0 0.658732 0.733547
0 0.678325 0.748608
0 0.70631 0.769375
0 0.757 0.799893
0.565896 0.85153 0.834165
0.873014 0.880308 0.826764
0.921035 0.881392 0.815473
0.931579 0.883619 0.813062
0.932631 0.884428 0.813138
0 0.69984 0.761654
0 0.717494 0.773846
0 0.744091 0.791867
0 0.785565 0.817288
0.479683 0.861692 0.849012
0.833524 0.908721 0.855222
0.905943 0.91281 0.845579
0.922072 0.913329 0.841764
0.924025 0.913542 0.841398
0 0.716701 0.773541
0 0.73463 0.785565
0 0.757671 0.800305
0 0.79617 0.823087
0.461677 0.864439 0.852872
0.814954 0.91313 0.86099
0.897185 0.920623 0.856443
0.915999 0.920409 0.850858
0.918273 0.920439 0.850263
0 0.718593 0.774777
0 0.736904 0.78706
0 0.759594 0.801465
0 0.797604 0.82385
0.459388 0.864744 0.8533
0.811933 0.913527 0.861677
0.895903 0.921538 0.857816
0.914839 0.921508 0.852415
0.917327 0.921431 0.851591
0.0216983 0.285481 0.544945
0.147417 0.265644 0.531594
0.286671 0.249256 0.517769
0.54641 0.227008 0.473594
0.742992 0.184604 0.394308
0.769024 0.160922 0.315862
0.763363 0.140276 0.271855
0.766812 0.144823 0.264958
0.767651 0.146227 0.26482
0 0.334524 0.573678
0.0480354 0.338048 0.576928
0.258183 0.324697 0.568948
0.553872 0.298695 0.531945
0.76434 0.251469 0.453941
0.795941 0.221317 0.371069
0.789731 0.198123 0.324468
0.793576 0.203357 0.318502
0.794583 0.205097 0.318486
0 0.4038 0.616266
0 0.415167 0.624033
0.219898 0.434745 0.636149
0.560678 0.405936 0.606302
0.787503 0.343725 0.523964
0.828748 0.302922 0.445243
0.822736 0.275212 0.391867
0.826764 0.281178 0.384878
0.827802 0.283223 0.385
0 0.508751 0.672755
0 0.525078 0.68365
0 0.548257 0.696712
0.55053 0.571817 0.70251
0.819989 0.499046 0.629114
0.868177 0.441733 0.551125
0.868223 0.402945 0.498451
0.875334 0.419577 0.499504
0.877134 0.42475 0.501762
0 0.629343 0.733898
0 0.648768 0.747646
0 0.677394 0.764248
0.316915 0.739712 0.792538
0.818479 0.773175 0.788022
0.907317 0.696986 0.718044
0.918791 0.630259 0.660548
0.927199 0.652811 0.666117
0.92871 0.659617 0.669108
0 0.679072 0.751492
0 0.700298 0.767193
0 0.725856 0.784955
0 0.776684 0.816938
0.624094 0.861723 0.848554
0.884627 0.885115 0.84361
0.924651 0.866316 0.820462
0.934859 0.869734 0.81857
0.936004 0.870924 0.818753
0 0.700908 0.765576
0 0.719585 0.778592
0 0.743664 0.79469
0 0.780255 0.816754
0.459831 0.857832 0.855039
0.832609 0.90753 0.864271
0.906737 0.911528 0.857359
0.923079 0.912306 0.85388
0.925109 0.912535 0.853574
0 0.715068 0.774685
0 0.733959 0.787671
0 0.757443 0.80296
0 0.791699 0.823178
0.443946 0.861753 0.858595
0.813214 0.912505 0.869795
0.897368 0.919921 0.865888
0.916152 0.920027 0.862303
0.918563 0.920043 0.861799
0 0.717144 0.776043
0 0.736065 0.789029
0 0.759365 0.804135
0 0.793408 0.824125
0.442313 0.862211 0.8589
0.809995 0.912993 0.87042
0.896056 0.920943 0.867018
0.9149 0.921141 0.863691
0.917464 0.921096 0.863005
0.0361791 0.312642 0.564416
0.174838 0.293309 0.553857
0.328893 0.279561 0.54316
0.595636 0.255436 0.50013
0.763348 0.215228 0.426352
0.783581 0.190356 0.351034
0.777066 0.168353 0.311254
0.772305 0.155367 0.291478
0.773007 0.15642 0.290959
0 0.367758 0.598795
0.0889906 0.375296 0.604501
0.304997 0.366522 0.598123
0.606378 0.334142 0.561379
0.785489 0.286656 0.484489
0.811917 0.255375 0.410056
0.805234 0.231678 0.365682
0.799558 0.216068 0.343236
0.800351 0.217334 0.342809
0 0.447501 0.64448
0 0.460777 0.65359
0.269459 0.483543 0.666667
0.614359 0.448524 0.633387
0.810941 0.389303 0.561227
0.844266 0.344381 0.488014
0.837888 0.313191 0.439017
0.832364 0.295171 0.412909
0.833234 0.296727 0.412619
0 0.552361 0.700648
0 0.570504 0.712032
0.0270542 0.597543 0.725307
0.60351 0.617227 0.728084
0.83946 0.547204 0.659541
0.881376 0.488457 0.595712
0.881727 0.447547 0.542672
0.875715 0.421714 0.514412
0.876844 0.424598 0.515023
0 0.655985 0.751659
0 0.676173 0.765118
0 0.706508 0.782559
0.410132 0.769238 0.808652
0.835782 0.793042 0.802167
0.913115 0.729793 0.743877
0.924208 0.67042 0.694148
0.922866 0.626932 0.660548
0.924041 0.631174 0.661891
0 0.695415 0.764553
0 0.715801 0.778714
0 0.740124 0.794629
0 0.792889 0.826719
0.672541 0.87187 0.855253
0.89099 0.891203 0.850538
0.925628 0.874937 0.831846
0.936156 0.856962 0.814893
0.937301 0.858503 0.815305
0 0.710018 0.772656
0 0.72958 0.786145
0 0.753048 0.801495
0 0.791714 0.824338
0.523323 0.86746 0.860578
0.849393 0.910124 0.867689
0.909789 0.912795 0.861936
0.924468 0.909682 0.856046
0.926436 0.909972 0.855756
0 0.714229 0.774929
0 0.732967 0.787823
0 0.756207 0.802991
0 0.789929 0.823026
0.432227 0.85948 0.858701
0.811551 0.911711 0.872145
0.897597 0.919326 0.868788
0.916609 0.919463 0.865461
0.919142 0.919524 0.864973
0 0.716167 0.776196
0 0.734936 0.78909
0 0.758068 0.804135
0 0.791623 0.823987
0.430777 0.860059 0.859007
0.808255 0.912215 0.872816
0.896269 0.920363 0.869825
0.915282 0.920607 0.866743
0.917876 0.920562 0.866102
0.039292 0.318029 0.568231
0.181338 0.299123 0.558068
0.339605 0.285573 0.547539
0.607492 0.260517 0.50396
0.76817 0.220798 0.430426
0.786236 0.195758 0.35639
0.779614 0.173648 0.31751
0.774807 0.160693 0.298146
0.773602 0.157656 0.294163
0 0.374151 0.603387
0.0982223 0.382712 0.609689
0.31667 0.374609 0.60351
0.619318 0.341039 0.565896
0.790356 0.293248 0.488701
0.814649 0.261616 0.416129
0.808057 0.237873 0.372656
0.802411 0.222354 0.350607
0.800992 0.218738 0.346151
0 0.455589 0.649485
0 0.4692 0.658778
0.282582 0.492836 0.672175
0.628168 0.456199 0.637583
0.816693 0.397925 0.566735
0.847272 0.352483 0.494347
0.840681 0.320424 0.446952
0.835157 0.302144 0.421317
0.833799 0.298161 0.416129
0 0.560754 0.705455
0 0.579187 0.717357
0.0502785 0.606958 0.73048
0.61828 0.626734 0.732692
0.844587 0.556542 0.664591
0.884092 0.497871 0.602457
0.884474 0.456931 0.551492
0.878462 0.431022 0.522911
0.876844 0.424735 0.517052
0 0.661067 0.75494
0 0.681544 0.768368
0 0.712642 0.786023
0.425971 0.776638 0.812314
0.839719 0.799359 0.805554
0.914672 0.738521 0.749416
0.925658 0.680552 0.701396
0.924361 0.636927 0.667948
0.923293 0.6271 0.660945
0 0.698863 0.767178
0 0.719036 0.781018
0 0.743053 0.796475
0 0.796628 0.828763
0.684428 0.874434 0.856596
0.892348 0.892897 0.851881
0.925811 0.877256 0.834089
0.936019 0.860014 0.818143
0.937545 0.855329 0.813718
0 0.711986 0.77409
0 0.731655 0.787579
0 0.755016 0.802838
0 0.79443 0.825956
0.54023 0.8701 0.861738
0.853208 0.910811 0.868238
0.910445 0.913222 0.862669
0.924559 0.910277 0.857252
0.926741 0.909392 0.855894
0 0.715862 0.776165
0 0.734752 0.789166
0 0.75787 0.804166
0 0.79205 0.824353
0.448508 0.861814 0.859907
0.817884 0.912505 0.872663
0.898772 0.919463 0.86923
0.916945 0.919554 0.866041
0.919387 0.919295 0.865248
0 0.716106 0.776272
0 0.734844 0.789136
0 0.757916 0.80415
0 0.79144 0.823987
0.428458 0.859678 0.858961
0.807935 0.912077 0.873167
0.896315 0.920287 0.870222
0.915328 0.920501 0.867155
0.917952 0.92047 0.866545
