film-luts/Frontier luts/ClassicPrint_16mm_250D_CORRECTED.cube
TITLE "250D Corrected - More Accurate Color Science"
# Based on John Razalo ClassicPrint v3
# Corrections: Blue-lifted shadows, reduced green cast, warmer highlights
# More accurate to Kodak Vision3 250D characteristics
LUT_3D_SIZE 33
0.023126 0.010349 0.058091
0.041968 0.010006 0.056682
0.065994 0.010109 0.053231
0.094432 0.010466 0.049758
0.123423 0.010424 0.046661
0.155773 0.009856 0.043345
0.192075 0.009262 0.039410
0.230389 0.008277 0.035007
0.271135 0.006431 0.030475
0.317470 0.003625 0.025323
0.364395 0.000412 0.023760
0.405349 0.000000 0.022005
0.444588 0.000000 0.020149
0.487580 0.000000 0.017995
0.527441 0.000000 0.015855
0.562069 0.000000 0.013854
0.590094 0.000000 0.012108
0.608339 0.000000 0.010893
0.622767 0.000000 0.011063
0.634198 0.000000 0.014335
0.643351 0.000000 0.018588
0.650927 0.000000 0.022873
0.656568 0.000000 0.026173
0.660475 0.000421 0.028412
0.663203 0.002084 0.029859
0.664842 0.003377 0.030700
0.665941 0.004380 0.031430
0.666681 0.005101 0.032060
0.667240 0.005599 0.032548
0.667515 0.005833 0.032778
0.667515 0.005833 0.032778
0.667515 0.005833 0.032778
0.667515 0.005833 0.032778
0.011824 0.011561 0.051762
0.033131 0.013637 0.051064
0.053551 0.013115 0.048727
0.076841 0.012860 0.045558
0.103058 0.012558 0.042722
0.129904 0.012288 0.039989
0.163324 0.011971 0.037515
0.204288 0.011289 0.034125
0.250027 0.009729 0.029806
0.297780 0.007073 0.025507
0.348339 0.003976 0.023668
0.394665 0.000517 0.022384
0.434657 0.000000 0.020628
0.477541 0.000000 0.018511
0.519674 0.000000 0.016284
0.555957 0.000000 0.014219
0.584349 0.000000 0.012477
0.604576 0.000000 0.011150
0.620327 0.000000 0.010053
0.633602 0.000126 0.010487
0.643954 0.000000 0.013911
0.651681 0.002062 0.017547
0.656850 0.005223 0.020184
0.660553 0.007620 0.022093
0.663355 0.009599 0.023581
0.663767 0.012674 0.023378
0.699318 0.000000 0.006205
0.701242 0.000000 0.007193
0.702489 0.000033 0.008256
0.703118 0.001046 0.008803
0.703118 0.001046 0.008803
0.703118 0.001046 0.008803
0.703118 0.001046 0.008803
0.004239 0.015548 0.047811
0.020588 0.017370 0.049318
0.044579 0.018620 0.045865
0.073931 0.018479 0.042648
0.100047 0.018106 0.039994
0.124837 0.017178 0.037494
0.153919 0.016620 0.035312
0.191287 0.015747 0.032457
0.237137 0.014082 0.028572
0.284761 0.011681 0.024637
0.336453 0.008363 0.023206
0.386781 0.004430 0.021877
0.429316 0.001051 0.020656
0.472020 0.000000 0.018791
0.516769 0.000000 0.016443
0.555095 0.000000 0.014270
0.580697 0.000000 0.012709
0.602235 0.000000 0.011308
0.619822 0.001055 0.009824
0.633559 0.001165 0.008837
0.643729 0.005097 0.009394
0.651007 0.009831 0.011822
0.655244 0.014800 0.013272
0.693139 0.001789 0.000000
0.698550 0.006170 0.000000
0.702015 0.009952 0.000972
0.704791 0.013047 0.002420
0.707062 0.015700 0.003594
0.708585 0.017893 0.004600
0.709274 0.018995 0.005147
0.709274 0.018995 0.005147
0.709274 0.018995 0.005147
0.709274 0.018995 0.005147
0.000000 0.021970 0.045465
0.009425 0.021717 0.047333
0.028982 0.023358 0.045028
0.061618 0.026662 0.042190
0.093923 0.026319 0.038890
0.126962 0.026054 0.035398
0.160101 0.025595 0.031454
0.191281 0.022983 0.029433
0.233950 0.021131 0.025662
0.279198 0.018286 0.023415
0.328568 0.014630 0.022181
0.381088 0.010186 0.020866
0.426650 0.005676 0.019758
0.470588 0.002707 0.018267
0.517184 0.000000 0.016421
0.553516 0.000000 0.014363
0.578558 0.000000 0.012843
0.601049 0.002808 0.010694
0.619800 0.004049 0.009038
0.632626 0.009356 0.006526
0.642297 0.014656 0.005431
0.682183 0.005084 0.000000
0.691147 0.011606 0.000000
0.698279 0.017401 0.000000
0.704176 0.022865 0.000000
0.707949 0.027358 0.000000
0.710856 0.030805 0.000000
0.713140 0.033419 0.000000
0.714698 0.035484 0.000539
0.715373 0.036523 0.001126
0.715373 0.036523 0.001126
0.715373 0.036523 0.001126
0.715373 0.036523 0.001126
0.000000 0.030428 0.043689
0.000000 0.028267 0.044708
0.012982 0.029947 0.046402
0.041249 0.035903 0.042218
0.080406 0.037976 0.038918
0.116948 0.037454 0.034286
0.154227 0.036866 0.029392
0.197632 0.035743 0.025317
0.244877 0.034484 0.021467
0.285300 0.029775 0.020819
0.328873 0.024660 0.020067
0.381238 0.019988 0.018756
0.428864 0.014311 0.017753
0.471902 0.009422 0.016694
0.517340 0.004635 0.015361
0.552373 0.002536 0.013845
0.577165 0.005541 0.011594
0.600273 0.008649 0.009241
0.618829 0.013746 0.006396
0.631104 0.021066 0.002721
0.674983 0.013218 0.000000
0.687418 0.021232 0.000000
0.696918 0.029060 0.000000
0.704309 0.035415 0.000000
0.710299 0.040872 0.000000
0.714556 0.046407 0.000000
0.717840 0.050715 0.000000
0.720457 0.054023 0.000000
0.722291 0.056627 0.000000
0.723086 0.057942 0.000000
0.723086 0.057942 0.000000
0.723086 0.057942 0.000000
0.723086 0.057942 0.000000
0.000000 0.041643 0.042211
0.000000 0.039472 0.042948
0.000000 0.039533 0.044672
0.016170 0.043792 0.045056
0.055348 0.051762 0.040271
0.100077 0.054616 0.034744
0.142608 0.054802 0.028255
0.189577 0.052676 0.021185
0.244295 0.051005 0.018349
0.293568 0.046526 0.017213
0.337309 0.042241 0.016175
0.387543 0.036577 0.015020
0.434018 0.029138 0.014305
0.474018 0.022152 0.013746
0.515881 0.016067 0.012802
0.550203 0.013595 0.011333
0.576086 0.015285 0.009217
0.599460 0.019498 0.006327
0.616828 0.028850 0.001135
0.665993 0.021939 0.000000
0.681185 0.031762 0.000000
0.693774 0.040645 0.000000
0.703895 0.049218 0.000000
0.712054 0.057084 0.000000
0.718581 0.063664 0.000000
0.722828 0.068899 0.000000
0.725958 0.072334 0.000000
0.728481 0.074983 0.000000
0.730218 0.077009 0.000000
0.731038 0.078007 0.000000
0.731038 0.078007 0.000000
0.731038 0.078007 0.000000
0.731038 0.078007 0.000000
0.000000 0.056961 0.041088
0.000000 0.054109 0.041582
0.000000 0.052617 0.042395
0.000000 0.054068 0.044492
0.019380 0.063058 0.043832
0.067380 0.073939 0.038399
0.123219 0.080875 0.030464
0.177668 0.081005 0.018107
0.237766 0.078936 0.013563
0.296372 0.074108 0.011906
0.342390 0.066976 0.011109
0.387690 0.059398 0.010349
0.434620 0.051346 0.009505
0.473728 0.042179 0.009275
0.513068 0.033860 0.008788
0.549180 0.029572 0.007415
0.575684 0.032861 0.004372
0.629023 0.025247 0.000000
0.654251 0.033767 0.000000
0.673229 0.043350 0.000000
0.689091 0.054047 0.000000
0.702562 0.064300 0.000000
0.712789 0.072725 0.000000
0.720645 0.079195 0.000000
0.726953 0.084502 0.000000
0.731084 0.088763 0.000000
0.734219 0.092086 0.000000
0.736995 0.095106 0.000000
0.738926 0.097414 0.000000
0.739861 0.098537 0.000000
0.739861 0.098537 0.000000
0.739861 0.098537 0.000000
0.739861 0.098537 0.000000
0.000000 0.080813 0.039677
0.000000 0.076676 0.040098
0.000000 0.074110 0.040637
0.000000 0.074136 0.041596
0.000000 0.078939 0.043669
0.017826 0.095777 0.041972
0.084130 0.110086 0.035767
0.154427 0.123147 0.021202
0.225117 0.127083 0.005428
0.291629 0.129564 0.000392
0.360176 0.112172 0.000000
0.412092 0.098789 0.000000
0.460758 0.085913 0.000000
0.500403 0.074055 0.000000
0.540175 0.062789 0.000000
0.579381 0.054010 0.000000
0.610062 0.051066 0.000000
0.638722 0.054173 0.000000
0.664164 0.061930 0.000000
0.684112 0.071778 0.000000
0.699636 0.081042 0.000000
0.712424 0.089127 0.000000
0.722619 0.096741 0.000000
0.730926 0.103744 0.000000
0.737596 0.109551 0.000000
0.742074 0.114149 0.000000
0.745360 0.117585 0.000000
0.747963 0.119885 0.000000
0.749759 0.121580 0.000000
0.750623 0.122418 0.000000
0.750623 0.122418 0.000000
0.750623 0.122418 0.000000
0.750623 0.122418 0.000000
0.000000 0.117947 0.038187
0.000000 0.112257 0.038378
0.000000 0.108869 0.038501
0.000000 0.107311 0.038718
0.000000 0.110555 0.039326
0.000000 0.121529 0.040601
0.010791 0.148846 0.040387
0.102701 0.187745 0.021811
0.205938 0.187374 0.000000
0.297143 0.175109 0.000000
0.368069 0.162599 0.000000
0.426884 0.148656 0.000000
0.482396 0.134932 0.000000
0.524256 0.122412 0.000000
0.562552 0.112235 0.000000
0.600145 0.103216 0.000000
0.628902 0.098091 0.000000
0.654634 0.096190 0.000000
0.678828 0.098586 0.000000
0.697820 0.104876 0.000000
0.713089 0.112610 0.000000
0.725944 0.120272 0.000000
0.735821 0.126479 0.000000
0.743459 0.131526 0.000000
0.749645 0.135664 0.000000
0.754007 0.139219 0.000000
0.757310 0.142045 0.000000
0.760023 0.144354 0.000000
0.761960 0.146101 0.000000
0.762888 0.146954 0.000000
0.762888 0.146954 0.000000
0.762888 0.146954 0.000000
0.762888 0.146954 0.000000
0.000000 0.165097 0.032857
0.000000 0.159262 0.034124
0.000000 0.155340 0.035091
0.000000 0.153459 0.035950
0.000000 0.155488 0.036335
0.000000 0.165627 0.035832
0.000000 0.199760 0.033387
0.000000 0.233388 0.028627
0.141188 0.241303 0.020934
0.274389 0.241423 0.000000
0.369703 0.223195 0.000000
0.438904 0.208092 0.000000
0.503401 0.194065 0.000000
0.552056 0.180683 0.000000
0.592431 0.169216 0.000000
0.629449 0.159466 0.000000
0.655302 0.151933 0.000000
0.677546 0.147145 0.000000
0.699301 0.144888 0.000000
0.716216 0.145485 0.000000
0.729680 0.148263 0.000000
0.741315 0.153122 0.000000
0.750731 0.157927 0.000000
0.757896 0.162026 0.000000
0.764068 0.165992 0.000000
0.768642 0.169177 0.000000
0.771924 0.171525 0.000000
0.774444 0.173304 0.000000
0.776324 0.174691 0.000000
0.777241 0.175377 0.000000
0.777241 0.175377 0.000000
0.777241 0.175377 0.000000
0.777241 0.175377 0.000000
0.000000 0.225842 0.019763
0.000000 0.222414 0.020434
0.000000 0.220257 0.020832
0.000000 0.219233 0.021319
0.000000 0.219733 0.022140
0.000000 0.224873 0.024196
0.000000 0.236987 0.026556
0.000000 0.266047 0.027040
0.035194 0.282840 0.022831
0.203334 0.293892 0.008088
0.357433 0.297036 0.000000
0.446652 0.276547 0.000000
0.520744 0.262814 0.000000
0.579031 0.249456 0.000000
0.621878 0.235566 0.000000
0.660830 0.221988 0.000000
0.685821 0.211170 0.000000
0.705114 0.203104 0.000000
0.724135 0.197254 0.000000
0.739085 0.194256 0.000000
0.750603 0.192763 0.000000
0.760026 0.193264 0.000000
0.768269 0.195345 0.000000
0.774770 0.198017 0.000000
0.780349 0.200864 0.000000
0.784639 0.203318 0.000000
0.787676 0.205225 0.000000
0.790027 0.206720 0.000000
0.791803 0.207837 0.000000
0.792674 0.208416 0.000000
0.792674 0.208416 0.000000
0.792674 0.208416 0.000000
0.792674 0.208416 0.000000
0.000000 0.257114 0.016348
0.000000 0.253914 0.016964
0.000000 0.251984 0.017512
0.000000 0.250917 0.018053
0.000000 0.251152 0.018645
0.000000 0.255507 0.019740
0.000000 0.265217 0.021696
0.000000 0.291650 0.023815
0.000000 0.317244 0.018805
0.106913 0.333631 0.007256
0.285919 0.346828 0.000000
0.439383 0.347326 0.000000
0.526607 0.326186 0.000000
0.597836 0.314067 0.000000
0.646681 0.303185 0.000000
0.691553 0.291526 0.000000
0.719145 0.279779 0.000000
0.737736 0.269284 0.000000
0.754458 0.260996 0.000000
0.767260 0.254763 0.000000
0.776930 0.250276 0.000000
0.784708 0.247923 0.000000
0.791354 0.246540 0.000000
0.796132 0.245859 0.000000
0.800320 0.245969 0.000000
0.803874 0.246721 0.000000
0.806266 0.247215 0.000000
0.808209 0.247920 0.000000
0.809682 0.248415 0.000000
0.810403 0.248682 0.000000
0.810403 0.248682 0.000000
0.810403 0.248682 0.000000
0.810403 0.248682 0.000000
0.000000 0.285382 0.014184
0.000000 0.283373 0.014255
0.000000 0.282387 0.014127
0.000000 0.282143 0.014013
0.000000 0.282887 0.013993
0.000000 0.287602 0.013780
0.000000 0.296822 0.013618
0.000000 0.318133 0.014228
0.000000 0.349609 0.010742
0.000000 0.374350 0.000000
0.192628 0.386850 0.000000
0.374145 0.398038 0.000000
0.519595 0.410322 0.000000
0.607824 0.388381 0.000000
0.661288 0.375712 0.000000
0.711880 0.367193 0.000000
0.745441 0.355589 0.000000
0.765535 0.343369 0.000000
0.782413 0.332177 0.000000
0.795014 0.323452 0.000000
0.803488 0.316553 0.000000
0.810172 0.311627 0.000000
0.815526 0.307999 0.000000
0.819232 0.305180 0.000000
0.822478 0.303615 0.000000
0.825191 0.302583 0.000000
0.826816 0.301428 0.000000
0.828084 0.300602 0.000000
0.829123 0.300169 0.000000
0.829633 0.299954 0.000000
0.829633 0.299954 0.000000
0.829633 0.299954 0.000000
0.829633 0.299954 0.000000
0.000000 0.308115 0.009917
0.000000 0.307275 0.010544
0.000000 0.307178 0.011048
0.000000 0.307861 0.011478
0.000000 0.309618 0.011861
0.000000 0.315055 0.012110
0.000000 0.324297 0.010722
0.000000 0.343360 0.008073
0.000000 0.377216 0.002169
0.000000 0.400393 0.000000
0.062739 0.420844 0.000000
0.288064 0.433636 0.000000
0.457587 0.472884 0.000000
0.600489 0.489698 0.000000
0.676017 0.469983 0.000000
0.725716 0.453300 0.000000
0.764954 0.443305 0.000000
0.788137 0.430568 0.000000
0.806324 0.417856 0.000000
0.819734 0.406896 0.000000
0.828201 0.397554 0.000000
0.834694 0.390621 0.000000
0.839385 0.385007 0.000000
0.842549 0.380362 0.000000
0.845159 0.377047 0.000000
0.847232 0.374359 0.000000
0.848596 0.372191 0.000000
0.849447 0.370397 0.000000
0.850185 0.369284 0.000000
0.850547 0.368727 0.000000
0.850547 0.368727 0.000000
0.850547 0.368727 0.000000
0.850547 0.368727 0.000000
0.000000 0.327921 0.004814
0.000000 0.327707 0.005293
0.000000 0.328249 0.005576
0.000000 0.329648 0.005748
0.000000 0.333062 0.005794
0.000000 0.338856 0.005809
0.000000 0.348101 0.005835
0.000000 0.365604 0.002957
0.000000 0.398629 0.000000
0.000000 0.420242 0.000000
0.000000 0.444567 0.000000
0.199861 0.457460 0.000000
0.381116 0.504134 0.000000
0.544768 0.543119 0.000000
0.669594 0.556759 0.000000
0.738670 0.543028 0.000000
0.779467 0.524627 0.000000
0.805258 0.514120 0.000000
0.825346 0.504158 0.000000
0.840465 0.494135 0.000000
0.850473 0.484907 0.000000
0.857576 0.476892 0.000000
0.862452 0.470067 0.000000
0.865860 0.464412 0.000000
0.868252 0.459721 0.000000
0.869977 0.455736 0.000000
0.871228 0.452460 0.000000
0.871881 0.449642 0.000000
0.872406 0.447623 0.000000
0.872652 0.446605 0.000000
0.872652 0.446605 0.000000
0.872652 0.446605 0.000000
0.872652 0.446605 0.000000
0.000000 0.345980 0.000000
0.000000 0.346661 0.000000
0.000000 0.348028 0.000000
0.000000 0.350364 0.000000
0.000000 0.355392 0.000000
0.000000 0.361399 0.000000
0.000000 0.371350 0.000000
0.000000 0.388589 0.000000
0.000000 0.418174 0.000000
0.000000 0.438500 0.000000
0.000000 0.460917 0.000000
0.082265 0.479164 0.000000
0.305148 0.525960 0.000000
0.475707 0.574787 0.000000
0.625599 0.609744 0.000000
0.725723 0.618010 0.000000
0.794786 0.609923 0.000000
0.820181 0.588411 0.000000
0.838874 0.575846 0.000000
0.855304 0.566866 0.000000
0.866787 0.559817 0.000000
0.874810 0.553353 0.000000
0.880352 0.547600 0.000000
0.884608 0.542762 0.000000
0.887415 0.538447 0.000000
0.889476 0.534897 0.000000
0.891035 0.531861 0.000000
0.892014 0.529316 0.000000
0.892615 0.527378 0.000000
0.892893 0.526372 0.000000
0.892893 0.526372 0.000000
0.892893 0.526372 0.000000
0.892893 0.526372 0.000000
0.000000 0.359780 0.000000
0.000000 0.361388 0.000000
0.000000 0.363527 0.000000
0.000000 0.367891 0.000000
0.000000 0.373014 0.000000
0.000000 0.380159 0.000000
0.000000 0.390255 0.000000
0.000000 0.407546 0.000000
0.000000 0.433856 0.000000
0.000000 0.452032 0.000000
0.000000 0.472306 0.000000
0.000000 0.495645 0.000000
0.231789 0.538907 0.000000
0.403889 0.588265 0.000000
0.568050 0.637706 0.000000
0.689801 0.665069 0.000000
0.779552 0.672721 0.000000
0.833222 0.668609 0.000000
0.855612 0.652643 0.000000
0.869671 0.636687 0.000000
0.880791 0.626323 0.000000
0.888762 0.618716 0.000000
0.894065 0.612358 0.000000
0.898614 0.607753 0.000000
0.901417 0.603538 0.000000
0.903646 0.600207 0.000000
0.905369 0.597553 0.000000
0.906653 0.595429 0.000000
0.907574 0.593891 0.000000
0.908066 0.593161 0.000000
0.908066 0.593161 0.000000
0.908066 0.593161 0.000000
0.908066 0.593161 0.000000
0.000000 0.370306 0.000000
0.000000 0.372725 0.000000
0.000000 0.376625 0.000000
0.000000 0.381333 0.000000
0.000000 0.386914 0.000000
0.000000 0.394704 0.000000
0.000000 0.405167 0.000000
0.000000 0.424385 0.000000
0.000000 0.446507 0.000000
0.000000 0.462077 0.000000
0.000000 0.480303 0.000000
0.000000 0.501589 0.000000
0.152789 0.543895 0.000000
0.341771 0.592277 0.000000
0.510886 0.645863 0.000000
0.648364 0.686269 0.000000
0.746487 0.705250 0.000000
0.819759 0.711171 0.000000
0.857552 0.707850 0.000000
0.882579 0.702632 0.000000
0.897060 0.694019 0.000000
0.904429 0.685770 0.000000
0.909255 0.678280 0.000000
0.913175 0.672902 0.000000
0.915789 0.668037 0.000000
0.917586 0.663704 0.000000
0.918937 0.660112 0.000000
0.920061 0.657460 0.000000
0.920868 0.655432 0.000000
0.921256 0.654448 0.000000
0.921256 0.654448 0.000000
0.921256 0.654448 0.000000
0.921256 0.654448 0.000000
0.000000 0.379020 0.000000
0.000000 0.382655 0.000000
0.000000 0.387382 0.000000
0.000000 0.392360 0.000000
0.000000 0.399225 0.000000
0.000000 0.407666 0.000000
0.000000 0.420100 0.000000
0.000000 0.439237 0.000000
0.000000 0.457426 0.000000
0.000000 0.470756 0.000000
0.000000 0.486927 0.000000
0.000000 0.506144 0.000000
0.061705 0.545845 0.000000
0.291027 0.594645 0.000000
0.452815 0.645536 0.000000
0.604172 0.694208 0.000000
0.711930 0.722890 0.000000
0.797872 0.736446 0.000000
0.846990 0.739020 0.000000
0.877250 0.736181 0.000000
0.898154 0.733210 0.000000
0.911422 0.730026 0.000000
0.919129 0.726420 0.000000
0.923540 0.722194 0.000000
0.927580 0.719560 0.000000
0.930635 0.717770 0.000000
0.931889 0.714961 0.000000
0.932447 0.712199 0.000000
0.932894 0.710087 0.000000
0.933110 0.709031 0.000000
0.933110 0.709031 0.000000
0.933110 0.709031 0.000000
0.933110 0.709031 0.000000
0.000000 0.386200 0.000000
0.000000 0.391638 0.000000
0.000000 0.396713 0.000000
0.000000 0.402817 0.000000
0.000000 0.410145 0.000000
0.000000 0.418942 0.000000
0.000000 0.433299 0.000000
0.000000 0.451806 0.000000
0.000000 0.465533 0.000000
0.000000 0.478119 0.000000
0.000000 0.492707 0.000000
0.000000 0.511570 0.000000
0.000505 0.547292 0.000000
0.246288 0.595802 0.000000
0.401789 0.642878 0.000000
0.559107 0.695065 0.000000
0.679544 0.732434 0.000000
0.770864 0.752909 0.000000
0.831969 0.760814 0.000000
0.843957 0.743268 0.000000
0.867227 0.740720 0.000000
0.882587 0.738260 0.000000
0.892375 0.735899 0.000000
0.898112 0.733513 0.000000
0.902259 0.731640 0.000000
0.904868 0.730109 0.000000
0.906768 0.728711 0.000000
0.908113 0.727510 0.000000
0.909139 0.726571 0.000000
0.909629 0.726093 0.000000
0.909629 0.726093 0.000000
0.909629 0.726093 0.000000
0.909629 0.726093 0.000000
0.000000 0.392959 0.000000
0.000000 0.398583 0.000000
0.000000 0.404156 0.000000
0.000000 0.411005 0.000000
0.000000 0.418931 0.000000
0.000000 0.430009 0.000000
0.000000 0.445116 0.000000
0.000000 0.460593 0.000000
0.000000 0.471933 0.000000
0.000000 0.484054 0.000000
0.000000 0.497475 0.000000
0.000000 0.516940 0.000000
0.000000 0.549644 0.000000
0.203616 0.595474 0.000000
0.362682 0.640374 0.000000
0.519003 0.692440 0.000000
0.648474 0.735145 0.000000
0.741917 0.760672 0.000000
0.793831 0.754240 0.000000
0.833727 0.755888 0.000000
0.861209 0.755770 0.000000
0.879647 0.754653 0.000000
0.890996 0.753119 0.000000
0.898093 0.751353 0.000000
0.903111 0.750127 0.000000
0.906494 0.748930 0.000000
0.908602 0.747643 0.000000
0.910172 0.746568 0.000000
0.911313 0.745738 0.000000
0.911867 0.745307 0.000000
0.911867 0.745307 0.000000
0.911867 0.745307 0.000000
0.911867 0.745307 0.000000
0.000000 0.398353 0.000000
0.000000 0.404192 0.000000
0.000000 0.410838 0.000000
0.000000 0.418162 0.000000
0.000000 0.426565 0.000000
0.000000 0.439214 0.000000
0.000000 0.454482 0.000000
0.000000 0.467680 0.000000
0.000000 0.476921 0.000000
0.000000 0.488503 0.000000
0.000000 0.501191 0.000000
0.000000 0.521194 0.000000
0.000000 0.551431 0.000000
0.161610 0.593855 0.000000
0.332119 0.637301 0.000000
0.485212 0.687806 0.000000
0.619816 0.733112 0.000000
0.717689 0.762737 0.000000
0.776859 0.759871 0.000000
0.822864 0.763815 0.000000
0.853876 0.765047 0.000000
0.874330 0.765217 0.000000
0.888143 0.764833 0.000000
0.896823 0.764331 0.000000
0.902306 0.763125 0.000000
0.906264 0.762013 0.000000
0.908842 0.761120 0.000000
0.910730 0.760468 0.000000
0.912071 0.759858 0.000000
0.912680 0.759583 0.000000
0.912680 0.759583 0.000000
0.912680 0.759583 0.000000
0.912680 0.759583 0.000000
0.000000 0.402902 0.000000
0.000000 0.409403 0.000000
0.000000 0.416396 0.000000
0.000000 0.424149 0.000000
0.000000 0.434481 0.000000
0.000000 0.447485 0.000000
0.000000 0.461731 0.000000
0.000000 0.472755 0.000000
0.000000 0.481321 0.000000
0.000000 0.492154 0.000000
0.000000 0.504361 0.000000
0.000000 0.524848 0.000000
0.000000 0.553253 0.000000
0.128497 0.592727 0.000000
0.308444 0.635113 0.000000
0.455971 0.682979 0.000000
0.593597 0.729821 0.000000
0.697262 0.763050 0.000000
0.760340 0.762952 0.000000
0.812581 0.768882 0.000000
0.845668 0.770997 0.000000
0.868273 0.771737 0.000000
0.884166 0.771984 0.000000
0.894334 0.771718 0.000000
0.900689 0.771442 0.000000
0.905231 0.771068 0.000000
0.908290 0.770492 0.000000
0.910233 0.769967 0.000000
0.911707 0.769530 0.000000
0.912430 0.769319 0.000000
0.912430 0.769319 0.000000
0.912430 0.769319 0.000000
0.912430 0.769319 0.000000
0.000000 0.406514 0.000000
0.000000 0.413878 0.000000
0.000000 0.421386 0.000000
0.000000 0.429264 0.000000
0.000000 0.441030 0.000000
0.000000 0.454369 0.000000
0.000000 0.466829 0.000000
0.000000 0.476169 0.000000
0.000000 0.485067 0.000000
0.000000 0.495319 0.000000
0.000000 0.507007 0.000000
0.000000 0.528187 0.000000
0.000000 0.555164 0.000000
0.101234 0.592106 0.000000
0.289932 0.633489 0.000000
0.432818 0.678993 0.000000
0.572066 0.726549 0.000000
0.680688 0.762393 0.000000
0.745279 0.764443 0.000000
0.802841 0.771959 0.000000
0.837949 0.774892 0.000000
0.863014 0.776019 0.000000
0.879925 0.776856 0.000000
0.891010 0.776990 0.000000
0.898416 0.776835 0.000000
0.903417 0.776686 0.000000
0.906958 0.776457 0.000000
0.909319 0.776218 0.000000
0.910915 0.776016 0.000000
0.911656 0.775853 0.000000
0.911656 0.775853 0.000000
0.911656 0.775853 0.000000
0.911656 0.775853 0.000000
0.000000 0.409403 0.000000
0.000000 0.417428 0.000000
0.000000 0.425288 0.000000
0.000000 0.434574 0.000000
0.000000 0.446427 0.000000
0.000000 0.459923 0.000000
0.000000 0.470965 0.000000
0.000000 0.478945 0.000000
0.000000 0.488138 0.000000
0.000000 0.498056 0.000000
0.000000 0.510160 0.000000
0.000000 0.531312 0.000000
0.000000 0.557215 0.000000
0.080984 0.592124 0.000000
0.277621 0.632964 0.000000
0.415683 0.676290 0.000000
0.554306 0.723501 0.000000
0.665920 0.760921 0.000000
0.749402 0.785298 0.000000
0.794544 0.774084 0.000000
0.831135 0.777534 0.000000
0.858215 0.779307 0.000000
0.876063 0.780139 0.000000
0.887940 0.780704 0.000000
0.896156 0.780730 0.000000
0.901601 0.780554 0.000000
0.905394 0.780423 0.000000
0.908101 0.780312 0.000000
0.909780 0.780190 0.000000
0.910587 0.780121 0.000000
0.910587 0.780121 0.000000
0.910587 0.780121 0.000000
0.910587 0.780121 0.000000
0.000000 0.411913 0.000000
0.000000 0.420147 0.000000
0.000000 0.428225 0.000000
0.000000 0.438708 0.000000
0.000000 0.450879 0.000000
0.000000 0.464179 0.000000
0.000000 0.474049 0.000000
0.000000 0.481039 0.000000
0.000000 0.490406 0.000000
0.000000 0.500056 0.000000
0.000000 0.512932 0.000000
0.000000 0.533676 0.000000
0.000000 0.558837 0.000000
0.065992 0.592088 0.000000
0.268165 0.632384 0.000000
0.402467 0.674062 0.000000
0.540584 0.721015 0.000000
0.654225 0.759457 0.000000
0.737455 0.784895 0.000000
0.786367 0.775290 0.000000
0.825525 0.779533 0.000000
0.853811 0.781788 0.000000
0.872424 0.782583 0.000000
0.885269 0.783409 0.000000
0.893971 0.783611 0.000000
0.899763 0.783565 0.000000
0.903941 0.783439 0.000000
0.906770 0.783328 0.000000
0.908802 0.783225 0.000000
0.909612 0.783171 0.000000
0.909612 0.783171 0.000000
0.909612 0.783171 0.000000
0.909612 0.783171 0.000000
0.000000 0.414128 0.000000
0.000000 0.422587 0.000000
0.000000 0.430591 0.000000
0.000000 0.441993 0.000000
0.000000 0.454448 0.000000
0.000000 0.466795 0.000000
0.000000 0.476430 0.000000
0.000000 0.482738 0.000000
0.000000 0.492058 0.000000
0.000000 0.501631 0.000000
0.000000 0.515306 0.000000
0.000000 0.535549 0.000000
0.000000 0.560080 0.000000
0.056423 0.592218 0.000000
0.260978 0.631959 0.000000
0.392327 0.672248 0.000000
0.529827 0.718939 0.000000
0.644985 0.758108 0.000000
0.728963 0.784302 0.000000
0.779841 0.775954 0.000000
0.820892 0.780732 0.000000
0.849664 0.783180 0.000000
