film-luts/Frontier luts/ClassicPrint 16mm DWG LUT v3 800T.cube
TITLE "John Razalo - ClassicPrint 16mm v3"
# © Copyright 2025 - John Razalo Visuals
LUT_3D_SIZE 33
0.0243687 0.0393988 0.0673686
0.0270542 0.0396735 0.0673381
0.0312963 0.040238 0.0675822
0.0426642 0.0412909 0.0678111
0.0700999 0.0434577 0.068101
0.115602 0.0457618 0.0676738
0.181872 0.0453193 0.0662699
0.266056 0.0409857 0.063859
0.34815 0.0341344 0.0608225
0.417029 0.0315862 0.059144
0.475273 0.0315862 0.0590829
0.516274 0.0315862 0.0590829
0.544839 0.0315862 0.0590829
0.56907 0.0315862 0.0590829
0.587808 0.0315862 0.0590829
0.601022 0.0315862 0.0590829
0.610437 0.0315862 0.0590829
0.619196 0.0315862 0.0590829
0.628 0.0315862 0.0590829
0.637079 0.0315862 0.0590829
0.645808 0.0315862 0.0590829
0.654002 0.0315862 0.0590829
0.661692 0.0315862 0.0590829
0.668376 0.035172 0.0590829
0.674037 0.0400702 0.0595865
0.678737 0.0454414 0.0598306
0.682673 0.0499733 0.0610208
0.685863 0.053727 0.0624552
0.688365 0.0566567 0.0635996
0.690318 0.0589609 0.0644999
0.690822 0.0595712 0.0647135
0.690822 0.0595712 0.0647135
0.690822 0.0595712 0.0647135
0.024567 0.0424201 0.0679332
0.0271611 0.0424506 0.0678416
0.0319371 0.0430762 0.0680247
0.0443427 0.0443732 0.0681926
0.068574 0.0463569 0.0684672
0.109758 0.0493935 0.0681163
0.166888 0.0500649 0.0670024
0.240101 0.0470741 0.0650187
0.323049 0.0415045 0.0620737
0.391821 0.0348516 0.059556
0.458579 0.0315862 0.0590829
0.50985 0.0315862 0.0590829
0.544518 0.0315862 0.0590829
0.572137 0.0315862 0.0590829
0.59472 0.0315862 0.0590829
0.6112 0.0315862 0.0590829
0.622156 0.0315862 0.0590829
0.631571 0.0315862 0.0590829
0.640604 0.0315862 0.0590829
0.649821 0.0315862 0.0590829
0.65893 0.0323033 0.0590829
0.667338 0.0366979 0.0590829
0.674937 0.0453346 0.0590829
0.681727 0.0532998 0.0590829
0.687617 0.0601816 0.0590829
0.692531 0.0658885 0.0590829
0.696544 0.0705119 0.0601053
0.699702 0.074342 0.0611276
0.702144 0.0773327 0.0619211
0.704082 0.0796979 0.0625315
0.704585 0.0803082 0.0626993
0.704585 0.0803082 0.0626993
0.704585 0.0803082 0.0626993
0.024445 0.0472114 0.068574
0.0273899 0.0472419 0.0684672
0.031281 0.0473793 0.068513
0.0408789 0.0485237 0.0685893
0.0588083 0.0503395 0.0687419
0.0869917 0.0526284 0.068864
0.132586 0.0555428 0.0680095
0.192645 0.0550698 0.066743
0.278614 0.0509346 0.0640269
0.366064 0.0433814 0.0606851
0.442481 0.0347295 0.0590829
0.503166 0.0315862 0.0590829
0.544121 0.0315862 0.0590829
0.573846 0.0315862 0.0590829
0.598703 0.0315862 0.0590829
0.617533 0.0315862 0.0590829
0.630655 0.0315862 0.0590829
0.640223 0.0315862 0.0590829
0.649531 0.0315862 0.0590829
0.659068 0.0340581 0.0590829
0.668116 0.0406653 0.0590829
0.676493 0.0501717 0.0590829
0.684398 0.0593423 0.0590829
0.691264 0.0673686 0.0590829
0.697139 0.0742809 0.0590829
0.702037 0.0800488 0.0590829
0.706065 0.0845655 0.0596475
0.709209 0.087953 0.0603952
0.711635 0.0905776 0.0610056
0.713542 0.0926375 0.0614939
0.714046 0.0931716 0.0616159
0.714046 0.0931716 0.0616159
0.714046 0.0931716 0.0616159
0.0233768 0.0563516 0.0693065
0.0267948 0.0563211 0.0691539
0.031342 0.0565499 0.0691844
0.0396582 0.0568551 0.0691844
0.0568551 0.0585031 0.0691997
0.082887 0.0605173 0.0692912
0.121965 0.0632486 0.0686351
0.178134 0.0634623 0.0674754
0.250034 0.0609751 0.0654307
0.343114 0.054078 0.0619669
0.42359 0.0447089 0.0593118
0.495125 0.0349432 0.0590829
0.542519 0.0315862 0.0590829
0.575586 0.0315862 0.0590829
0.602396 0.0315862 0.0590829
0.622766 0.0315862 0.0590829
0.637766 0.0315862 0.0590829
0.648157 0.0315862 0.0590829
0.657755 0.0353704 0.0590829
0.667247 0.0430304 0.0590829
0.676402 0.0528115 0.0590829
0.685008 0.0627146 0.0590829
0.692927 0.0718395 0.0590829
0.699748 0.0798962 0.0590829
0.705638 0.0864118 0.0590829
0.710552 0.0915084 0.0590829
0.714611 0.0962844 0.0592355
0.71783 0.100618 0.0594186
0.720333 0.103975 0.0595865
0.722286 0.10663 0.0597086
0.722805 0.107362 0.0597086
0.722805 0.107362 0.0597086
0.722805 0.107362 0.0597086
0.0207828 0.0710307 0.070222
0.0244144 0.0712596 0.0700236
0.0294041 0.0722972 0.0700694
0.0392157 0.0727092 0.0700694
0.0546426 0.0727092 0.0699168
0.0797894 0.07393 0.0698405
0.115297 0.0752575 0.0693065
0.170016 0.0751354 0.0681163
0.242512 0.0731365 0.066041
0.330343 0.0674144 0.0628977
0.411627 0.0578012 0.0594949
0.48658 0.0471809 0.0590829
0.538903 0.0382239 0.0590829
0.576532 0.0321965 0.0590829
0.605737 0.0315862 0.0590829
0.627466 0.0315862 0.0590829
0.64416 0.0335546 0.0590829
0.656214 0.0374609 0.0590829
0.665888 0.045655 0.0590829
0.675532 0.0548104 0.0590829
0.684749 0.0648814 0.0590829
0.693324 0.0748302 0.0590829
0.701228 0.0841535 0.0590829
0.708064 0.0913252 0.0590829
0.714015 0.0983597 0.0590829
0.719127 0.104952 0.0590829
0.723323 0.110689 0.0590829
0.726574 0.115572 0.0590829
0.729091 0.119341 0.0590829
0.731106 0.122393 0.0590829
0.731655 0.123217 0.0590829
0.731655 0.123217 0.0590829
0.731655 0.123217 0.0590829
0.0180819 0.0897383 0.0711223
0.0201267 0.0909895 0.0708171
0.0243839 0.0942855 0.0708629
0.0341955 0.0961624 0.0708476
0.0514229 0.0965133 0.0706493
0.0749065 0.0947433 0.0705119
0.109377 0.0949722 0.0699626
0.160357 0.0936904 0.0688487
0.235645 0.0914015 0.0666056
0.326207 0.0850385 0.0632792
0.409903 0.0757305 0.059678
0.483024 0.0639353 0.0590829
0.537575 0.0540932 0.0590829
0.578256 0.0455329 0.0590829
0.609613 0.0404517 0.0590829
0.633509 0.0402533 0.0590829
0.650996 0.0439002 0.0590829
0.664607 0.0498817 0.0590829
0.674754 0.0581064 0.0590829
0.684367 0.0673381 0.0590829
0.693446 0.07776 0.0590829
0.7019 0.0873121 0.0590829
0.709712 0.0958267 0.0590829
0.716701 0.104967 0.0590829
0.722835 0.11339 0.0590829
0.727977 0.120699 0.0590829
0.732433 0.127031 0.0590829
0.735988 0.13228 0.0590829
0.738735 0.136339 0.0590829
0.740887 0.139528 0.0590829
0.741451 0.140383 0.0590829
0.741451 0.140383 0.0590829
0.741451 0.140383 0.0590829
0.0180667 0.114046 0.071397
0.0180667 0.116472 0.0709087
0.0183871 0.121309 0.0707713
0.024155 0.125185 0.0705272
0.0385901 0.128481 0.0702831
0.0660105 0.128389 0.0700084
0.100496 0.124453 0.0700236
0.15079 0.121675 0.0691844
0.222995 0.116762 0.0670634
0.317372 0.111116 0.0632181
0.408988 0.100694 0.059205
0.48603 0.0889448 0.0590829
0.542535 0.0763409 0.0590829
0.584726 0.0670787 0.0590829
0.616022 0.0618601 0.0590829
0.641062 0.0594186 0.0590829
0.659129 0.0608682 0.0590829
0.673579 0.0652781 0.0590829
0.684581 0.0726329 0.0590829
0.693919 0.0820172 0.0590829
0.702846 0.0914778 0.0590829
0.711116 0.101198 0.0590829
0.719081 0.111635 0.0590829
0.72604 0.121401 0.0590829
0.732433 0.130358 0.0590829
0.737926 0.137987 0.0590829
0.742443 0.144366 0.0590829
0.745937 0.149523 0.0590829
0.748775 0.153765 0.0590829
0.751034 0.157137 0.0590829
0.751614 0.158038 0.0590829
0.751614 0.158038 0.0590829
0.751614 0.158038 0.0590829
0.0180667 0.152712 0.0703441
0.0180667 0.154376 0.0698405
0.0180667 0.157733 0.0696422
0.0180819 0.162112 0.0692607
0.0203555 0.166842 0.0688487
0.0416876 0.170001 0.0683604
0.0850843 0.167559 0.0682078
0.137392 0.162005 0.0676432
0.211795 0.156756 0.0655985
0.302846 0.146441 0.0622568
0.403494 0.135042 0.0590829
0.483696 0.121614 0.0590829
0.548714 0.1084 0.0590829
0.593408 0.0964981 0.0590829
0.625666 0.0885939 0.0590829
0.651331 0.083299 0.0590829
0.669795 0.082826 0.0590829
0.684047 0.0858625 0.0590829
0.695644 0.0903334 0.0590829
0.704646 0.098024 0.0590829
0.713329 0.108186 0.0590829
0.721447 0.11899 0.0590829
0.729473 0.129931 0.0590829
0.736843 0.140093 0.0590829
0.743252 0.14902 0.0590829
0.748791 0.156802 0.0590829
0.753475 0.163622 0.0590829
0.757107 0.169085 0.0590829
0.759945 0.173373 0.0590829
0.762158 0.176944 0.0590829
0.762722 0.177859 0.0590829
0.762722 0.177859 0.0590829
0.762722 0.177859 0.0590829
0.0180667 0.210727 0.0668193
0.0180667 0.213291 0.0660563
0.0180667 0.213931 0.0658579
0.0180667 0.213382 0.0656443
0.018143 0.213977 0.0653239
0.0219577 0.218387 0.0643473
0.0531777 0.220111 0.0635843
0.116838 0.217014 0.0625467
0.194614 0.210529 0.0607156
0.294789 0.20116 0.0591592
0.401663 0.185977 0.0590829
0.4869 0.168017 0.0590829
0.552453 0.149523 0.0590829
0.602152 0.135592 0.0590829
0.637797 0.124788 0.0590829
0.66453 0.117815 0.0590829
0.683528 0.113909 0.0590829
0.697414 0.113832 0.0590829
0.708553 0.116442 0.0590829
0.717906 0.121736 0.0590829
0.725841 0.130297 0.0590829
0.733837 0.14052 0.0590829
0.741833 0.151202 0.0590829
0.74905 0.161166 0.0590829
0.755444 0.170245 0.0590829
0.760906 0.178363 0.0590829
0.765362 0.185229 0.0590829
0.769024 0.191104 0.0590829
0.771923 0.195895 0.0590829
0.774197 0.19968 0.0590829
0.774792 0.200656 0.0590829
0.774792 0.200656 0.0590829
0.774792 0.200656 0.0590829
0.0180667 0.280659 0.0596017
0.0180667 0.283116 0.0594644
0.0180667 0.283299 0.0593576
0.0180667 0.282673 0.0592813
0.0180667 0.281575 0.0591287
0.0185702 0.278996 0.0590829
0.0255283 0.277989 0.0590829
0.0814679 0.278874 0.0590829
0.16614 0.277089 0.0590829
0.275639 0.274144 0.0590829
0.393179 0.259831 0.0590829
0.497108 0.237781 0.0590829
0.566949 0.213977 0.0590829
0.619455 0.191745 0.0590829
0.657832 0.175021 0.0590829
0.683818 0.163897 0.0590829
0.703822 0.158007 0.0590829
0.716823 0.154742 0.0590829
0.726772 0.153826 0.0590829
0.735637 0.156268 0.0590829
0.74316 0.160876 0.0590829
0.749859 0.168399 0.0590829
0.757076 0.177935 0.0590829
0.763653 0.187427 0.0590829
0.769711 0.196643 0.0590829
0.775082 0.205142 0.0590829
0.779446 0.212161 0.0590829
0.782879 0.218128 0.0590829
0.78558 0.222843 0.0590829
0.787808 0.22678 0.0590829
0.788403 0.227802 0.0590829
0.788403 0.227802 0.0590829
0.788403 0.227802 0.0590829
0.0180667 0.328618 0.0590829
0.0180667 0.332921 0.0590829
0.0180667 0.337209 0.0590829
0.0180667 0.340337 0.0590829
0.0180667 0.341741 0.0590829
0.0180667 0.341787 0.0590829
0.0188449 0.341756 0.0590829
0.0339971 0.345525 0.0590829
0.124697 0.349386 0.0590829
0.241688 0.351522 0.0590829
0.371008 0.346502 0.0590829
0.496529 0.331716 0.0590829
0.577569 0.304219 0.0590829
0.63917 0.275975 0.0590829
0.68191 0.25034 0.0590829
0.70959 0.231159 0.0590829
0.730037 0.218143 0.0590829
0.743481 0.211353 0.0590829
0.752605 0.207568 0.0590829
0.759625 0.205707 0.0590829
0.766186 0.206897 0.0590829
0.771572 0.210498 0.0590829
0.777035 0.216434 0.0590829
0.782193 0.223728 0.0590829
0.787167 0.23151 0.0590829
0.792126 0.240314 0.0590829
0.796201 0.247578 0.0590829
0.799435 0.253498 0.0590829
0.802075 0.25861 0.0590829
0.80415 0.262654 0.0590829
0.8047 0.263691 0.0590829
0.8047 0.263691 0.0590829
0.8047 0.263691 0.0590829
0.0180667 0.370047 0.0590829
0.0180667 0.374777 0.0590829
0.0180667 0.379446 0.0590829
0.0180667 0.384146 0.0590829
0.0180667 0.38912 0.0590829
0.0180667 0.394293 0.0590829
0.0181582 0.398199 0.0590829
0.0257725 0.403723 0.0590829
0.0585336 0.413199 0.0590829
0.19472 0.424735 0.0590829
0.33756 0.430808 0.0590829
0.476539 0.426276 0.0590829
0.580209 0.4094 0.0590829
0.651499 0.3823 0.0590829
0.703029 0.352682 0.0590829
0.735668 0.324865 0.0590829
0.759335 0.304723 0.0590829
0.773709 0.289937 0.0590829
0.782452 0.281224 0.0590829
0.788846 0.275563 0.0590829
0.794415 0.273228 0.0590829
0.798566 0.272847 0.0590829
0.802823 0.27509 0.0590829
0.806439 0.278477 0.0590829
0.809842 0.28304 0.0590829
0.813016 0.288518 0.0590829
0.816052 0.294255 0.0590829
0.81854 0.299123 0.0590829
0.820874 0.304158 0.0590829
0.82269 0.308186 0.0590829
0.823163 0.309224 0.0590829
0.823163 0.309224 0.0590829
0.823163 0.309224 0.0590829
0.0180667 0.406561 0.0590829
0.0180667 0.41323 0.0590829
0.0180667 0.418921 0.0590829
0.0180667 0.424277 0.0590829
0.0180667 0.429511 0.0590829
0.0180667 0.435828 0.0590829
0.0180667 0.443046 0.0590829
0.0212711 0.451957 0.0590829
0.0407111 0.463371 0.0590829
0.13724 0.478157 0.0590829
0.289448 0.496605 0.0590829
0.439628 0.506264 0.0590829
0.567742 0.505348 0.0590829
0.652842 0.489616 0.0590829
0.71632 0.465797 0.0590829
0.759915 0.439689 0.0590829
0.784726 0.412192 0.0590829
0.80296 0.391959 0.0590829
0.813031 0.377066 0.0590829
0.819623 0.36669 0.0590829
0.824826 0.360616 0.0590829
0.828641 0.356664 0.0590829
0.831739 0.355306 0.0590829
0.834546 0.356085 0.0590829
0.837049 0.357839 0.0590829
0.838987 0.359747 0.0590829
0.840864 0.362264 0.0590829
0.842298 0.364645 0.0590829
0.843732 0.367788 0.0590829
0.844846 0.37026 0.0590829
0.845136 0.370901 0.0590829
0.845136 0.370901 0.0590829
0.845136 0.370901 0.0590829
0.0180667 0.438834 0.0590829
0.0180667 0.447349 0.0590829
0.0180667 0.453819 0.0590829
0.0180667 0.459846 0.0590829
0.0180667 0.465797 0.0590829
0.0180667 0.472496 0.0590829
0.0180819 0.479896 0.0590829
0.0201724 0.489494 0.0590829
0.0337072 0.502083 0.0590829
0.075227 0.518364 0.0590829
0.237568 0.539315 0.0590829
0.392508 0.557687 0.0590829
0.540536 0.571435 0.0590829
0.641566 0.573114 0.0590829
0.721019 0.56376 0.0590829
0.775982 0.545419 0.0590829
0.806958 0.522408 0.0590829
0.828107 0.499092 0.0590829
0.840131 0.482536 0.0590829
0.84802 0.470665 0.0590829
0.8533 0.461357 0.0590829
0.857374 0.455283 0.0590829
0.860471 0.451682 0.0590829
0.862745 0.449668 0.0590829
0.864561 0.448661 0.0590829
0.86595 0.447959 0.0590829
0.867369 0.448417 0.0590829
0.868437 0.448997 0.0590829
0.869108 0.449409 0.0590829
0.869627 0.449729 0.0590829
0.869764 0.449805 0.0590829
0.869764 0.449805 0.0590829
0.869764 0.449805 0.0590829
0.0180667 0.468589 0.0590829
0.0180667 0.477638 0.0590829
0.0180667 0.484535 0.0590829
0.0180667 0.490898 0.0590829
0.0180667 0.497261 0.0590829
0.0180667 0.503838 0.0590829
0.0180667 0.51162 0.0590829
0.020264 0.520882 0.0590829
0.0323949 0.532509 0.0590829
0.0590829 0.548104 0.0590829
0.192584 0.569329 0.0590829
0.346471 0.592142 0.0590829
0.500435 0.613123 0.0590829
0.619852 0.624384 0.0590829
0.710384 0.626307 0.0590829
0.778775 0.620859 0.0590829
0.821637 0.609552 0.0590829
0.849104 0.595117 0.0590829
0.8636 0.579278 0.0590829
0.8719 0.566567 0.0590829
0.87776 0.556664 0.0590829
0.882048 0.549157 0.0590829
0.885435 0.543877 0.0590829
0.887663 0.540002 0.0590829
0.889128 0.537285 0.0590829
0.890333 0.535256 0.0590829
0.891325 0.53373 0.0590829
0.892119 0.532921 0.0590829
0.892546 0.532265 0.0590829
0.892882 0.531762 0.0590829
0.893004 0.531731 0.0590829
0.893004 0.531731 0.0590829
0.893004 0.531731 0.0590829
0.0180667 0.492592 0.0590829
0.0180667 0.503349 0.0590829
0.0180667 0.511467 0.0590829
0.0180667 0.518441 0.0590829
0.0180667 0.525185 0.0590829
0.0180667 0.532158 0.0590829
0.0180667 0.540002 0.0590829
0.0204013 0.54905 0.0590829
0.0309758 0.560494 0.0590829
0.0571603 0.574975 0.0590829
0.155474 0.593606 0.0590829
0.309712 0.616083 0.0590829
0.456367 0.637247 0.0590829
0.59115 0.657679 0.0590829
0.689677 0.668437 0.0590829
0.770031 0.671778 0.0590829
0.825147 0.667292 0.0590829
0.858076 0.657694 0.0590829
0.878676 0.648066 0.0590829
0.890227 0.640024 0.0590829
0.897459 0.633158 0.0590829
0.902556 0.627436 0.0590829
0.906096 0.622522 0.0590829
0.908629 0.618296 0.0590829
0.910231 0.615335 0.0590829
0.911421 0.612863 0.0590829
0.912261 0.61088 0.0590829
0.912978 0.609461 0.0590829
0.913359 0.60824 0.0590829
0.913664 0.607416 0.0590829
0.913756 0.607233 0.0590829
0.913756 0.607233 0.0590829
0.913756 0.607233 0.0590829
0.0180667 0.511513 0.0590829
0.0180667 0.522866 0.0590829
0.0180667 0.531395 0.0590829
0.0180667 0.538949 0.0590829
0.0180667 0.546441 0.0590829
0.0181277 0.553903 0.0590829
0.0182803 0.561822 0.0590829
0.0221103 0.570703 0.0590829
0.0328069 0.581292 0.0590829
0.057969 0.594736 0.0590829
0.137713 0.612467 0.0590829
0.281331 0.633097 0.0590829
0.420996 0.655482 0.0590829
0.559365 0.678233 0.0590829
0.664256 0.694377 0.0590829
0.753399 0.703182 0.0590829
0.819745 0.706127 0.0590829
0.860349 0.703441 0.0590829
0.887556 0.697887 0.0590829
0.901534 0.690517 0.0590829
0.910155 0.684749 0.0590829
0.916106 0.680003 0.0590829
0.919905 0.675685 0.0590829
0.922713 0.672038 0.0590829
0.924453 0.668864 0.0590829
0.925658 0.666346 0.0590829
0.926558 0.664393 0.0590829
0.927306 0.662913 0.0590829
0.927718 0.661692 0.0590829
0.928038 0.660868 0.0590829
0.928115 0.660655 0.0590829
0.928115 0.660655 0.0590829
0.928115 0.660655 0.0590829
0.0180667 0.529412 0.0599222
0.0180667 0.540551 0.0594492
0.0180667 0.549203 0.0594492
0.0180667 0.557046 0.0591897
0.0180667 0.56463 0.0591897
0.018143 0.572335 0.0591287
0.0186465 0.580194 0.0591287
0.0250095 0.588357 0.0590982
0.0391699 0.597787 0.0590829
0.0615396 0.609842 0.0590829
0.140459 0.625116 0.0590829
0.266941 0.644266 0.0590829
0.392554 0.665766 0.0590829
0.530694 0.690501 0.0590829
0.638056 0.709224 0.0590829
0.731426 0.723079 0.0590829
0.805859 0.730297 0.0590829
0.85478 0.732204 0.0590829
0.888136 0.730678 0.0590829
0.907103 0.726558 0.0590829
0.917906 0.722393 0.0590829
0.925124 0.718807 0.0590829
0.929808 0.715541 0.0590829
0.933196 0.712795 0.0590829
0.935332 0.710323 0.0590829
0.936767 0.708263 0.0590829
0.937591 0.706432 0.0590829
0.938231 0.70486 0.0590829
0.938643 0.703685 0.0590829
0.938903 0.702846 0.0590829
0.938964 0.702632 0.0590829
0.938964 0.702632 0.0590829
0.938964 0.702632 0.0590829
0.0180667 0.544213 0.0621195
0.0180667 0.556207 0.0611734
0.0180667 0.564981 0.0608225
0.0180667 0.572793 0.0601053
0.0180972 0.580255 0.0601816
0.0182345 0.587808 0.0599985
0.0204929 0.59559 0.0599374
0.0297246 0.603433 0.0594797
0.0454871 0.612116 0.0593271
0.0667277 0.622843 0.0590982
0.151278 0.636164 0.0590829
0.253544 0.652491 0.0590829
0.370993 0.671778 0.0590829
0.499657 0.694865 0.0590829
0.612863 0.716976 0.0590829
0.706859 0.733898 0.0590829
0.786938 0.74464 0.0590829
0.845365 0.750301 0.0590829
0.883055 0.751858 0.0590829
0.907134 0.750515 0.0590829
0.920607 0.747707 0.0590829
0.929198 0.745037 0.0590829
0.93463 0.742672 0.0590829
0.938659 0.740734 0.0590829
0.94139 0.739025 0.0590829
0.943282 0.737636 0.0590829
0.944472 0.736431 0.0590829
0.945388 0.735454 0.0590829
0.946029 0.734661 0.0590829
0.946395 0.734005 0.0590829
0.946487 0.733852 0.0590829
0.946487 0.733852 0.0590829
0.946487 0.733852 0.0590829
0.0180667 0.555749 0.0699626
0.0180667 0.568978 0.0677806
0.0180667 0.577874 0.0661784
0.0180667 0.585641 0.0654917
0.0183566 0.593103 0.0651713
0.0187381 0.600519 0.0641337
0.0246891 0.607767 0.0644083
0.0348058 0.615457 0.0659495
0.050309 0.62388 0.0661784
0.071931 0.633524 0.0623941
0.153521 0.645212 0.0593423
0.249958 0.659709 0.0605936
0.352132 0.677058 0.0607614
0.472892 0.697932 0.0590829
0.585458 0.719676 0.0590829
0.680659 0.738369 0.0590829
0.767559 0.754162 0.0590829
0.832883 0.762203 0.0590829
0.874983 0.765972 0.0590829
0.904021 0.767239 0.0590829
0.92047 0.765957 0.0590829
0.93048 0.764096 0.0590829
0.937011 0.762219 0.0590829
0.941466 0.760861 0.0590829
0.944518 0.759625 0.0590829
0.946746 0.758633 0.0590829
0.948241 0.75787 0.0590829
0.94931 0.75729 0.0590829
0.950118 0.756741 0.0590829
0.950591 0.756298 0.0590829
0.950713 0.756191 0.0590829
0.950713 0.756191 0.0590829
0.950713 0.756191 0.0590829
0.0180667 0.566491 0.0823072
0.0180667 0.580407 0.0809339
0.0180667 0.589548 0.0799725
0.0180972 0.59733 0.0800946
0.0185855 0.604608 0.0800183
0.0208286 0.611765 0.079942
0.0290684 0.618769 0.0814679
0.0406195 0.626123 0.0844739
0.0564736 0.634333 0.0873732
0.0789197 0.643214 0.0864118
0.156878 0.653635 0.083238
0.249973 0.66659 0.0823682
0.340002 0.682445 0.0804913
0.452384 0.701442 0.0638285
0.562875 0.722683 0.0601816
0.656703 0.740749 0.0594492
0.745449 0.75787 0.0590829
0.817487 0.769909 0.0590829
0.864576 0.775616 0.0590829
0.89839 0.778576 0.0590829
0.917861 0.778836 0.0590829
0.929854 0.777981 0.0590829
0.937591 0.776928 0.0590829
0.942702 0.775906 0.0590829
0.946288 0.775189 0.0590829
0.948806 0.77467 0.0591135
0.950515 0.774105 0.0590829
0.95172 0.773541 0.0590829
0.952605 0.773068 0.0590829
0.953231 0.772702 0.0590829
0.953368 0.77261 0.0590829
0.953368 0.77261 0.0590829
0.953368 0.77261 0.0590829
0.0180667 0.576928 0.0978866
0.0180667 0.591196 0.097673
0.0180667 0.600549 0.0983291
0.0182345 0.608362 0.0986648
0.0187381 0.615549 0.0987106
0.0247196 0.622324 0.0998703
0.0340887 0.629114 0.102129
0.0467384 0.636286 0.104479
0.063508 0.644129 0.107378
0.0971237 0.652537 0.10869
0.170642 0.662028 0.105638
0.257237 0.673854 0.103716
0.337438 0.68806 0.105333
0.438987 0.705684 0.097322
0.54728 0.725963 0.0855573
0.637247 0.743664 0.0743114
0.725429 0.760418 0.0619059
0.799969 0.773785 0.0632181
0.853681 0.782345 0.0651102
0.891005 0.786908 0.0667887
0.913909 0.788312 0.0685588
0.92752 0.788251 0.0670176
0.936492 0.787701 0.0628519
0.942412 0.787137 0.0597543
0.946609 0.78648 0.0619821
0.949355 0.785992 0.0687572
0.9514 0.785718 0.0747387
0.952743 0.785458 0.0719158
0.95378 0.785306 0.0707713
0.954559 0.785138 0.07364
0.954742 0.785077 0.0743725
0.954742 0.785077 0.0743725
0.954742 0.785077 0.0743725
0.0180667 0.586954 0.114519
0.0180667 0.601404 0.116365
0.0182345 0.610773 0.11722
0.0185245 0.618585 0.117311
0.0222477 0.625528 0.118166
0.0299992 0.632151 0.119646
0.0399634 0.638788 0.12105
0.0539406 0.645747 0.122469
0.0703136 0.653147 0.124743
0.114137 0.661189 0.127337
0.190234 0.67013 0.126223
0.266819 0.680919 0.125002
0.339666 0.693919 0.129198
0.431174 0.710277 0.127138
0.53547 0.729381 0.118883
0.62269 0.746899 0.114473
0.708141 0.762783 0.100603
0.78381 0.776562 0.0993668
0.842847 0.786252 0.100557
0.88188 0.792035 0.106065
0.908873 0.795148 0.106569
0.924559 0.795834 0.101183
0.934356 0.795773 0.0973983
0.941131 0.795392 0.097612
0.94583 0.795041 0.0999313
0.949065 0.794736 0.103517
0.951339 0.79443 0.105715
0.952941 0.794171 0.107393
0.95404 0.794034 0.109133
0.954879 0.793927 0.110994
0.955077 0.793896 0.111498
0.955077 0.793896 0.111498
0.955077 0.793896 0.111498
0.0180667 0.596078 0.127901
0.0180667 0.610636 0.130129
0.018204 0.620035 0.130724
0.0190127 0.627832 0.131197
0.0248569 0.634531 0.133272
0.0337224 0.64097 0.13521
0.047303 0.647486 0.137163
0.0632944 0.654246 0.138476
0.0795453 0.661204 0.141512
0.129488 0.668956 0.144884
0.209873 0.677592 0.14551
0.275807 0.68748 0.146471
0.34403 0.69955 0.15053
0.429114 0.714809 0.152621
0.528222 0.732906 0.146853
0.612726 0.74992 0.143359
0.694469 0.765377 0.134066
0.770672 0.778912 0.128832
0.833143 0.789425 0.128588
0.873716 0.795697 0.131426
0.903075 0.799863 0.134554
0.92105 0.80145 0.134874
0.93193 0.801953 0.135729
0.939391 0.801953 0.135988
0.944625 0.801678 0.135988
0.948104 0.801328 0.13547
0.950591 0.801068 0.135241
0.95256 0.800885 0.135073
0.95378 0.800732 0.135653
0.954696 0.800641 0.137697
0.95494 0.80061 0.138247
0.95494 0.80061 0.138247
0.95494 0.80061 0.138247
0.0180667 0.604089 0.140047
0.0180667 0.61857 0.142397
0.0181735 0.627955 0.143175
0.0221103 0.635493 0.144915
0.0287022 0.6421 0.147387
0.0394598 0.648402 0.149752
0.0554208 0.65481 0.152071
0.0700084 0.661311 0.15407
0.0931258 0.668025 0.15729
0.149523 0.675578 0.160784
0.228122 0.684016 0.162188
0.286336 0.693385 0.164523
0.350698 0.704646 0.16733
0.430793 0.719036 0.170657
0.523735 0.736233 0.167178
0.605707 0.75259 0.163302
0.684108 0.767849 0.155703
0.760143 0.781186 0.147692
0.823865 0.791867 0.146319
0.866178 0.798459 0.149432
0.897734 0.803067 0.152499
0.917388 0.805341 0.153231
0.92961 0.806439 0.153536
0.937667 0.806882 0.153796
0.943191 0.806867 0.153918
0.947066 0.806653 0.153841
0.949691 0.806348 0.15407
0.951705 0.806119 0.154437
0.95314 0.805982 0.154742
0.954162 0.805875 0.15494
0.954421 0.805829 0.155016
0.954421 0.805829 0.155016
0.954421 0.805829 0.155016
0.0180667 0.610925 0.150408
0.0180667 0.625315 0.153017
0.0181277 0.634699 0.154086
0.0247196 0.641993 0.156847
0.0318151 0.648508 0.159609
0.0441291 0.654719 0.16231
0.0625772 0.661036 0.165194
0.0759747 0.667323 0.167773
0.104143 0.673915 0.170947
0.16968 0.681254 0.174304
0.240681 0.689403 0.176501
0.296193 0.698482 0.179309
0.357977 0.709224 0.18146
0.43447 0.722957 0.185534
0.521279 0.739208 0.183825
0.600977 0.754971 0.17966
0.676524 0.769985 0.174762
0.752209 0.78323 0.16585
0.815244 0.793545 0.161654
0.859876 0.800549 0.162783
0.892943 0.805417 0.165728
0.913954 0.808072 0.166979
0.92697 0.809308 0.167239
0.935882 0.810056 0.16759
0.941649 0.81033 0.167712
0.94583 0.810437 0.167758
