film-luts/Frontier luts/ClassicPrint_16mm_250D_CORRECTED.cube
TITLE "250D Corrected - More Accurate Color Science"
# Based on John Razalo ClassicPrint v3
# Corrections: Blue-lifted shadows, reduced green cast, warmer highlights
# More accurate to Kodak Vision3 250D characteristics
LUT_3D_SIZE 9
0.023126 0.010349 0.058091
0.123423 0.010424 0.046661
0.271135 0.006431 0.030475
0.444588 0.000000 0.020149
0.590094 0.000000 0.012108
0.643351 0.000000 0.018588
0.663203 0.002084 0.029859
0.667240 0.005599 0.032548
0.667515 0.005833 0.032778
0.000000 0.030428 0.043689
0.080406 0.037976 0.038918
0.244877 0.034484 0.021467
0.428864 0.014311 0.017753
0.577165 0.005541 0.011594
0.674983 0.013218 0.000000
0.710299 0.040872 0.000000
0.722291 0.056627 0.000000
0.723086 0.057942 0.000000
0.000000 0.117947 0.038187
0.000000 0.110555 0.039326
0.205938 0.187374 0.000000
0.482396 0.134932 0.000000
0.628902 0.098091 0.000000
0.713089 0.112610 0.000000
0.749645 0.135664 0.000000
0.761960 0.146101 0.000000
0.762888 0.146954 0.000000
0.000000 0.285382 0.014184
0.000000 0.282887 0.013993
0.000000 0.349609 0.010742
0.519595 0.410322 0.000000
0.745441 0.355589 0.000000
0.803488 0.316553 0.000000
0.822478 0.303615 0.000000
0.829123 0.300169 0.000000
0.829633 0.299954 0.000000
0.000000 0.359780 0.000000
0.000000 0.373014 0.000000
0.000000 0.433856 0.000000
0.231789 0.538907 0.000000
0.779552 0.672721 0.000000
0.880791 0.626323 0.000000
0.901417 0.603538 0.000000
0.907574 0.593891 0.000000
0.908066 0.593161 0.000000
0.000000 0.392959 0.000000
0.000000 0.418931 0.000000
0.000000 0.471933 0.000000
0.000000 0.549644 0.000000
0.648474 0.735145 0.000000
0.861209 0.755770 0.000000
0.903111 0.750127 0.000000
0.911313 0.745738 0.000000
0.911867 0.745307 0.000000
0.000000 0.409403 0.000000
0.000000 0.446427 0.000000
0.000000 0.488138 0.000000
0.000000 0.557215 0.000000
0.554306 0.723501 0.000000
0.831135 0.777534 0.000000
0.896156 0.780730 0.000000
0.909780 0.780190 0.000000
0.910587 0.780121 0.000000
0.000000 0.417179 0.000000
0.000000 0.459431 0.000000
0.000000 0.494386 0.000000
0.000000 0.562257 0.000000
0.515638 0.716188 0.000000
0.814285 0.782189 0.000000
0.889173 0.787887 0.000000
0.906032 0.788273 0.000000
0.907134 0.788239 0.000000
0.000000 0.417831 0.000000
0.000000 0.460492 0.000000
0.000000 0.494873 0.000000
0.000000 0.562707 0.000000
0.512495 0.715547 0.000000
0.812830 0.782455 0.000000
0.888525 0.788334 0.000000
0.905650 0.788785 0.000000
0.906769 0.788781 0.000000
0.014513 0.006583 0.124101
0.111231 0.013743 0.125799
0.285193 0.008868 0.082015
0.450917 0.000000 0.039368
0.593506 0.000000 0.025688
0.647357 0.000000 0.051500
0.664163 0.000000 0.068815
0.668494 0.003514 0.075772
0.668777 0.003855 0.076353
0.000000 0.025476 0.079576
0.055987 0.031127 0.091496
0.238695 0.028749 0.058488
0.428190 0.009572 0.022917
0.585536 0.000743 0.012996
0.687227 0.003599 0.016105
0.714159 0.035690 0.038602
0.724260 0.051546 0.049365
0.725061 0.052853 0.050229
0.000000 0.102256 0.048541
0.000000 0.097429 0.050133
0.203183 0.180440 0.020161
0.484177 0.132020 0.000000
0.638366 0.090514 0.000000
0.727033 0.107591 0.000000
0.754486 0.132276 0.011908
0.764049 0.142480 0.023903
0.764812 0.143324 0.024877
0.000000 0.276170 0.020092
0.000000 0.278373 0.020391
0.000000 0.345232 0.020749
0.514846 0.410723 0.000000
0.759491 0.362311 0.000000
0.825073 0.323254 0.000000
0.840026 0.306442 0.000000
0.843306 0.301594 0.000000
0.843520 0.301246 0.000000
0.000000 0.359876 0.004493
0.000000 0.373034 0.002073
0.000000 0.432686 0.000000
0.214343 0.538198 0.000000
0.779354 0.676778 0.000000
0.899424 0.648943 0.000000
0.919112 0.623680 0.000000
0.923138 0.610921 0.000000
0.923309 0.609720 0.000000
0.000000 0.394864 0.000000
0.000000 0.420300 0.000000
0.000000 0.473928 0.000000
0.000000 0.551723 0.000000
0.643222 0.739369 0.000000
0.863230 0.762293 0.000000
0.906493 0.758287 0.000000
0.915179 0.754244 0.000000
0.915782 0.753845 0.000000
0.000000 0.412345 0.015473
0.000000 0.448192 0.008915
0.000000 0.491115 0.000000
0.000000 0.561687 0.000000
0.544251 0.728502 0.000000
0.831335 0.785370 0.000000
0.898713 0.789710 0.000000
0.912619 0.789377 0.000000
0.913444 0.789323 0.000000
0.000000 0.420178 0.023196
0.000000 0.461384 0.019021
0.000000 0.497748 0.001190
0.000000 0.567643 0.000000
0.502830 0.721488 0.000000
0.813353 0.790217 0.000000
0.891285 0.797710 0.000000
0.908704 0.798510 0.000000
0.909854 0.798491 0.000000
0.000000 0.420854 0.023943
0.000000 0.462457 0.019930
0.000000 0.498247 0.002394
0.000000 0.568164 0.000000
0.499366 0.720866 0.000000
0.811758 0.790465 0.000000
0.890594 0.798202 0.000000
0.908296 0.799099 0.000000
0.909463 0.799112 0.000000
0.007347 0.003986 0.204460
0.077832 0.005945 0.242689
0.279030 0.043116 0.236984
0.488764 0.000610 0.165572
0.606512 0.000000 0.112837
0.649461 0.000000 0.117090
0.665124 0.000000 0.132719
0.702786 0.000000 0.130755
0.703425 0.000000 0.131618
0.000000 0.013209 0.189191
0.046849 0.016008 0.216727
0.240211 0.045194 0.207218
0.472426 0.017636 0.136931
0.607446 0.000064 0.095871
0.691740 0.000000 0.093548
0.718022 0.028138 0.116999
0.727281 0.043370 0.127005
0.728065 0.044764 0.127818
0.000000 0.101887 0.142756
0.000000 0.100087 0.143962
0.181958 0.179018 0.187374
0.507912 0.125922 0.112353
0.659542 0.076938 0.062603
0.729112 0.099577 0.082228
0.756867 0.126673 0.107345
0.766097 0.137005 0.118208
0.766828 0.137864 0.119102
0.000000 0.276955 0.069286
0.000000 0.282865 0.068965
0.000000 0.343312 0.094564
0.509808 0.415696 0.019186
0.779628 0.374723 0.000000
0.832364 0.324233 0.000000
0.841809 0.301599 0.026692
0.844072 0.296065 0.054851
0.844267 0.295789 0.056838
0.000000 0.362401 0.035651
0.000000 0.373219 0.036156
0.000000 0.426729 0.041295
0.155380 0.537166 0.000000
0.774950 0.688924 0.000000
0.904143 0.663928 0.000000
0.924287 0.636728 0.000000
0.927890 0.621956 0.000000
0.928018 0.620613 0.000000
0.000000 0.398566 0.046974
0.000000 0.422499 0.048568
0.000000 0.476199 0.051079
0.000000 0.557688 0.015005
0.633971 0.748962 0.000000
0.865276 0.775434 0.000000
0.910118 0.772557 0.000000
0.919193 0.768470 0.000000
0.919827 0.768070 0.000000
0.000000 0.417150 0.067330
0.000000 0.451057 0.073933
0.000000 0.493740 0.076495
0.000000 0.570683 0.050093
0.531749 0.738665 0.000000
0.830967 0.797250 0.000000
0.900826 0.803678 0.000000
0.915027 0.803694 0.000000
0.915871 0.803688 0.000000
0.000000 0.424961 0.079461
0.000000 0.464210 0.088136
0.000000 0.502958 0.089883
0.000000 0.577346 0.068494
0.486611 0.731464 0.000000
0.811624 0.801879 0.000000
0.892651 0.811112 0.000000
0.910650 0.812361 0.000000
0.911818 0.812390 0.000000
0.000000 0.425649 0.080570
0.000000 0.465285 0.089431
0.000000 0.503859 0.090901
0.000000 0.577971 0.069758
0.482711 0.730800 0.000000
0.809734 0.802078 0.000000
0.891895 0.811573 0.000000
0.910175 0.812888 0.000000
0.911377 0.812948 0.000000
0.000478 0.000000 0.320510
0.048642 0.000000 0.351787
0.227698 0.002715 0.430652
0.492364 0.041670 0.418050
0.654867 0.000000 0.368368
0.695739 0.000000 0.308771
0.709475 0.000000 0.285617
0.714688 0.000000 0.279859
0.715087 0.000000 0.279571
0.000000 0.006739 0.309954
0.017242 0.002816 0.340487
0.187587 0.014428 0.400166
0.473515 0.058442 0.397409
0.659408 0.000000 0.359726
0.711112 0.000000 0.306738
0.729060 0.020991 0.284700
0.735549 0.033532 0.279068
0.736155 0.034775 0.278957
0.000000 0.055479 0.325728
0.000000 0.053727 0.340748
0.189556 0.101924 0.421854
0.506326 0.126774 0.418320
0.687643 0.092197 0.365748
0.742873 0.100609 0.307960
0.763019 0.120781 0.284271
0.770333 0.130233 0.279074
0.770921 0.130992 0.278861
0.000000 0.295276 0.298715
0.000000 0.304039 0.309573
0.000000 0.351930 0.384207
0.483452 0.427748 0.460050
0.767290 0.375726 0.382929
0.825558 0.312913 0.311473
0.834356 0.282452 0.276628
0.837579 0.279340 0.271568
0.837901 0.279442 0.271233
0.000000 0.384700 0.219297
0.000000 0.391311 0.221497
0.000000 0.428397 0.250896
0.000000 0.557018 0.313639
0.754380 0.730864 0.303663
0.898385 0.699131 0.233615
0.919112 0.659820 0.216982
0.922438 0.640664 0.215892
0.922537 0.638932 0.215610
0.000000 0.410434 0.159189
0.000000 0.428073 0.166771
0.000000 0.478212 0.194444
0.000000 0.569689 0.212995
0.594227 0.772417 0.225054
0.863011 0.805522 0.210113
0.911935 0.801831 0.199727
0.921669 0.796013 0.201977
0.922323 0.795425 0.201939
0.000000 0.426562 0.167805
0.000000 0.453681 0.181345
0.000000 0.507389 0.205680
0.000000 0.585817 0.217678
0.485547 0.759277 0.225570
0.825172 0.823331 0.232153
0.900703 0.832084 0.213922
0.915804 0.831694 0.206435
0.916679 0.831641 0.206438
0.000000 0.434136 0.178312
0.000000 0.467689 0.197026
0.000000 0.521107 0.217058
0.000000 0.595005 0.228153
0.438793 0.752084 0.234579
0.804812 0.826699 0.247424
0.891956 0.838519 0.227907
0.910864 0.840227 0.223535
0.912069 0.840172 0.222121
0.000000 0.434735 0.179194
0.000000 0.468804 0.198397
0.000000 0.522278 0.218067
0.000000 0.595801 0.229073
0.435012 0.751471 0.235424
0.802901 0.826822 0.248464
0.891151 0.838889 0.228634
0.910374 0.840696 0.224441
0.911608 0.840755 0.224003
0.000995 0.000000 0.440036
0.054759 0.000000 0.463560
0.181752 0.000000 0.521428
0.474042 0.000000 0.591962
0.663852 0.007226 0.588880
0.734481 0.000000 0.569061
0.748777 0.000000 0.550835
0.752114 0.004409 0.540983
0.752347 0.004867 0.540122
0.000000 0.011352 0.418096
0.011291 0.000437 0.474554
0.152741 0.000077 0.519249
0.460654 0.028197 0.591420
0.669892 0.047614 0.594624
0.745696 0.050426 0.576039
0.762898 0.068454 0.558067
0.767508 0.077106 0.548242
0.767863 0.077784 0.547356
0.000000 0.051192 0.425612
0.000000 0.048453 0.468352
0.144373 0.070504 0.546697
0.475676 0.114255 0.616089
0.691584 0.125994 0.613434
0.769169 0.133341 0.591946
0.787583 0.147759 0.572063
0.792791 0.154241 0.561163
0.793110 0.154646 0.560046
0.000000 0.247202 0.481876
0.000000 0.255469 0.509327
0.000000 0.294258 0.617126
0.516236 0.316568 0.698410
0.756572 0.338474 0.673070
0.822044 0.299978 0.627961
0.836605 0.298686 0.599175
0.840341 0.298855 0.583951
0.840555 0.298697 0.582487
0.000000 0.411840 0.477549
0.000000 0.418659 0.488673
0.000000 0.446953 0.536422
0.000000 0.601909 0.663328
0.733259 0.740770 0.701760
0.864965 0.709332 0.661000
0.884463 0.672681 0.630351
0.901096 0.646158 0.604865
0.901457 0.643811 0.602978
0.000000 0.454116 0.449968
0.000000 0.473196 0.466519
0.000000 0.539238 0.521091
0.000000 0.633607 0.577452
0.572934 0.808494 0.630779
0.857255 0.851032 0.620166
0.905657 0.842165 0.591429
0.916006 0.832899 0.573093
0.916688 0.831924 0.571183
0.000000 0.455786 0.407564
0.000000 0.485159 0.431110
0.000000 0.556908 0.481625
0.000000 0.632543 0.517479
0.418018 0.809432 0.566056
0.813050 0.865058 0.571652
0.894014 0.874676 0.564158
0.910216 0.872897 0.548732
0.911299 0.872587 0.547037
0.000000 0.457174 0.391218
0.000000 0.490800 0.416133
0.000000 0.561819 0.461217
0.000000 0.633211 0.491012
0.358651 0.793742 0.529571
0.787960 0.863119 0.541683
0.884845 0.877383 0.538322
0.904946 0.879062 0.535059
0.906198 0.878944 0.533410
0.000000 0.457314 0.389994
0.000000 0.491380 0.414964
0.000000 0.562229 0.459590
0.000000 0.633305 0.488902
0.354264 0.792494 0.526577
0.785563 0.862765 0.539058
0.884009 0.877394 0.535903
0.904504 0.879172 0.532654
0.905775 0.879234 0.532363
0.025640 0.000000 0.525347
0.092590 0.000000 0.537341
0.198684 0.000000 0.572755
0.445172 0.000000 0.634026
0.671968 0.010706 0.673921
0.739076 0.000000 0.671639
0.760430 0.000000 0.666143
0.766401 0.000000 0.663026
0.766758 0.000000 0.662684
0.000000 0.023902 0.499066
0.040748 0.007387 0.551947
0.178124 0.006159 0.590921
0.442438 0.019100 0.665590
0.681862 0.073676 0.686599
0.750291 0.054719 0.683022
0.772744 0.059566 0.677513
0.779621 0.070206 0.674755
0.780082 0.071062 0.674453
0.000000 0.094358 0.501981
0.000000 0.100765 0.570481
0.147575 0.113683 0.641312
0.454498 0.132065 0.699294
0.701570 0.156070 0.710044
0.770985 0.140752 0.703413
0.794792 0.146145 0.697682
0.802238 0.153591 0.694606
0.802692 0.154167 0.694232
0.000000 0.232470 0.553194
0.000000 0.250720 0.630322
0.000000 0.270250 0.689972
0.477576 0.274321 0.754967
0.741164 0.308521 0.754843
0.813842 0.292788 0.744415
0.836612 0.295116 0.735548
0.843346 0.301513 0.730730
0.843686 0.301771 0.730160
0.000000 0.393619 0.563626
0.000000 0.406718 0.592746
0.000000 0.461097 0.690026
0.000000 0.575147 0.793597
0.761639 0.685712 0.820530
0.859480 0.678584 0.804538
0.887500 0.632342 0.792765
0.891842 0.608967 0.781684
0.891962 0.606674 0.780555
0.000000 0.463786 0.567720
0.000000 0.479697 0.584528
0.000000 0.535025 0.640690
0.000000 0.642527 0.730760
0.543582 0.819121 0.789962
0.852825 0.858171 0.784045
0.899985 0.850867 0.772435
0.909628 0.842441 0.764841
0.910220 0.841578 0.764090
0.000000 0.494278 0.573273
0.000000 0.525382 0.603024
0.000000 0.591864 0.665074
0.000000 0.669293 0.718612
0.386476 0.820330 0.770542
0.813902 0.885292 0.767040
0.892855 0.894177 0.760786
0.907694 0.892743 0.752450
0.908699 0.892514 0.751617
0.000000 0.505342 0.575604
0.000000 0.544874 0.612821
0.000000 0.604057 0.663718
0.000000 0.678010 0.711972
0.316463 0.815392 0.760186
0.784605 0.886883 0.755568
0.884777 0.900765 0.751498
0.903977 0.901983 0.747769
0.905116 0.901913 0.746840
0.000000 0.506349 0.575865
0.000000 0.546447 0.613496
0.000000 0.604871 0.663396
0.000000 0.678497 0.711168
0.285154 0.829471 0.769356
0.781522 0.886714 0.754430
0.883939 0.901145 0.750460
0.903501 0.902430 0.746722
0.904712 0.902459 0.746353
0.059638 0.000000 0.557195
0.131330 0.000000 0.573088
0.239506 0.000000 0.606784
0.466373 0.001771 0.658023
0.684175 0.019231 0.704546
0.745739 0.000000 0.702919
0.761796 0.000000 0.700942
0.767618 0.000000 0.698625
0.768020 0.000000 0.698408
0.000000 0.037504 0.565441
0.092250 0.029722 0.593194
0.224479 0.040132 0.626807
0.474719 0.058052 0.700459
0.696120 0.097165 0.721086
0.758908 0.082186 0.717421
0.775107 0.075929 0.714764
0.780824 0.073387 0.711937
0.781215 0.073194 0.711679
0.000000 0.150997 0.571295
0.000000 0.147501 0.637862
0.202152 0.148807 0.685546
0.485864 0.161682 0.734961
0.716290 0.178694 0.747106
0.780953 0.165356 0.740904
0.796794 0.157555 0.736811
0.801943 0.153460 0.732949
0.802277 0.153118 0.732584
0.000000 0.263598 0.618400
0.000000 0.280556 0.682800
0.000000 0.298454 0.733337
0.505133 0.301023 0.786930
0.748823 0.327910 0.788782
0.817379 0.311414 0.779756
0.834115 0.300474 0.774840
0.839900 0.296388 0.770698
0.840366 0.296365 0.770386
0.000000 0.387515 0.619150
0.000000 0.421337 0.703899
0.000000 0.458865 0.754243
0.352164 0.549517 0.825501
0.779680 0.599064 0.843859
0.858437 0.595390 0.832768
0.877424 0.578569 0.826676
0.882997 0.560792 0.820387
0.883390 0.559540 0.819841
0.000000 0.461371 0.597608
0.000000 0.489906 0.629609
0.000000 0.569668 0.714233
0.000000 0.663945 0.787652
0.622322 0.817208 0.828966
0.865252 0.844751 0.822829
0.898042 0.842443 0.819203
0.908186 0.833116 0.816235
0.908833 0.832115 0.815966
0.000000 0.488271 0.600906
0.000000 0.511999 0.625413
0.000000 0.580151 0.693611
0.000000 0.659984 0.757511
0.314802 0.816412 0.821176
0.808338 0.885484 0.814312
0.890781 0.895026 0.809929
0.905663 0.894089 0.806995
0.906638 0.893831 0.806553
0.000000 0.498359 0.605154
0.000000 0.529911 0.637228
0.000000 0.601045 0.705484
0.000000 0.671553 0.757915
0.137352 0.819964 0.830891
0.775814 0.889368 0.809367
0.882487 0.903693 0.806058
0.901961 0.905223 0.803859
0.903109 0.905219 0.803470
0.000000 0.499142 0.605452
0.000000 0.531417 0.638223
0.000000 0.602579 0.706269
0.000000 0.672378 0.757831
0.121510 0.818604 0.830392
0.772499 0.889467 0.808895
0.881458 0.904200 0.805672
0.901514 0.905832 0.803424
0.902745 0.905910 0.803214
0.087150 0.000000 0.572637
0.162791 0.000000 0.591756
0.286427 0.000000 0.628054
0.517592 0.000000 0.695334
0.700622 0.025682 0.713943
0.750830 0.006424 0.712309
0.764208 0.000000 0.710825
0.768431 0.000000 0.709963
0.768838 0.000000 0.709818
0.002499 0.048301 0.584081
0.135802 0.048733 0.613801
0.269569 0.052834 0.668008
0.524939 0.082690 0.718687
0.713768 0.107152 0.731715
0.765206 0.093074 0.728261
0.778532 0.086112 0.725998
0.782749 0.084224 0.724905
0.783142 0.083889 0.724714
0.000000 0.161679 0.628202
0.000000 0.164819 0.664558
0.264967 0.166180 0.710103
0.537128 0.177726 0.751988
0.734649 0.188726 0.758385
0.787806 0.175546 0.752670
0.800730 0.167504 0.749088
0.804763 0.165146 0.747523
0.805084 0.164655 0.747226
0.000000 0.288113 0.667791
0.000000 0.299876 0.708485
0.088041 0.311604 0.755261
0.555975 0.323883 0.801902
0.766740 0.345617 0.800225
0.823482 0.326338 0.791673
0.836327 0.309789 0.786339
0.840250 0.304856 0.784181
0.840521 0.303874 0.783804
0.000000 0.398380 0.656815
0.000000 0.426447 0.727736
0.000000 0.469127 0.779214
0.440172 0.547311 0.837565
0.794277 0.585367 0.847463
0.859226 0.578029 0.838468
0.875317 0.561109 0.833418
0.880124 0.553163 0.831081
0.880420 0.550799 0.830536
0.000000 0.467062 0.617199
0.000000 0.512838 0.668464
0.000000 0.584067 0.741564
0.000000 0.691217 0.821211
0.689794 0.813150 0.840035
0.873944 0.831750 0.832739
0.899411 0.827863 0.830093
0.906450 0.824036 0.828826
0.907056 0.822847 0.828716
0.000000 0.490887 0.612243
0.000000 0.524613 0.647020
0.000000 0.599800 0.722427
0.000000 0.680092 0.782672
0.439411 0.831134 0.830352
0.829935 0.885403 0.824696
0.894462 0.892292 0.820853
0.904852 0.892384 0.819729
0.905816 0.892159 0.819579
0.000000 0.496602 0.611892
0.000000 0.524969 0.640991
0.000000 0.595031 0.710201
0.000000 0.666151 0.765950
0.041241 0.808427 0.844056
0.768919 0.888001 0.822424
0.881055 0.903038 0.818769
0.901231 0.904785 0.817025
0.902305 0.904813 0.816876
0.000000 0.497350 0.612239
0.000000 0.526316 0.641894
0.000000 0.596542 0.711099
0.000000 0.666935 0.765978
0.024468 0.807092 0.843740
0.764937 0.888046 0.822124
0.879999 0.903593 0.818535
0.900835 0.905444 0.816817
0.901989 0.905521 0.816691
0.090311 0.000094 0.574009
0.166652 0.000000 0.593508
0.292570 0.000000 0.630254
0.524405 0.000000 0.697257
0.702902 0.026319 0.714660
0.751479 0.007086 0.712910
0.764475 0.000000 0.711547
0.768571 0.000000 0.710721
0.768894 0.000000 0.710623
0.003394 0.049076 0.585878
0.141164 0.050674 0.615838
0.277338 0.055133 0.670672
0.531921 0.085251 0.720455
0.716078 0.107735 0.732449
0.765943 0.093847 0.728966
0.778885 0.086916 0.726839
0.782977 0.084976 0.725768
0.783300 0.084812 0.725653
0.000000 0.163130 0.630550
0.004942 0.166176 0.667053
0.273537 0.167754 0.712601
0.544435 0.179382 0.753610
0.737035 0.189387 0.759130
0.788559 0.176225 0.753424
0.801113 0.168242 0.749992
0.805037 0.165878 0.748446
0.805331 0.165652 0.748302
0.000000 0.289825 0.671050
0.000000 0.301524 0.710934
0.107437 0.312170 0.757280
0.563463 0.325988 0.803219
0.769130 0.346745 0.800892
0.824210 0.327344 0.792419
0.836653 0.310908 0.787250
0.840370 0.305459 0.785032
0.840668 0.305117 0.784843
0.000000 0.400077 0.661789
0.000000 0.427540 0.730037
0.000000 0.470428 0.781602
0.451023 0.547629 0.838794
0.796602 0.584504 0.847647
0.859587 0.576574 0.838765
0.875258 0.559837 0.833926
0.879949 0.552022 0.831652
0.880291 0.551243 0.831427
0.000000 0.468269 0.619744
0.000000 0.517258 0.674478
0.000000 0.586408 0.744958
0.000000 0.695177 0.825030
0.697831 0.812617 0.840863
0.875158 0.830271 0.833416
0.899564 0.825979 0.830884
0.906358 0.822213 0.829633
0.906861 0.821872 0.829525
0.000000 0.491287 0.613489
0.000000 0.526472 0.649721
0.000000 0.601331 0.724543
0.000000 0.682972 0.785510
0.456770 0.833328 0.830970
0.832527 0.885375 0.825357
0.894927 0.891938 0.821596
0.905021 0.892010 0.820497
0.905762 0.891955 0.820391
0.000000 0.496904 0.612918
0.000000 0.526277 0.643007
0.000000 0.597114 0.712970
0.000000 0.668131 0.768211
0.079282 0.813336 0.845361
0.773570 0.888536 0.823202
0.881929 0.903005 0.819502
0.901434 0.904728 0.817754
0.902244 0.904753 0.817651
0.000000 0.497262 0.612814
0.000000 0.526038 0.642282
0.000000 0.596073 0.711395
0.000000 0.666600 0.766604
0.016959 0.806175 0.844640
0.764190 0.887898 0.823036
0.879844 0.903500 0.819353
0.900775 0.905399 0.817588
0.901944 0.905461 0.817466
