film-luts/Frontier luts/ClassicPrint 16mm DWG LUT v3 Ektachrome.cube
TITLE "John Razalo - ClassicPrint 16mm v3"
# © Copyright 2025 - John Razalo Visuals
LUT_3D_SIZE 9
0.0254368 0.0376593 0.0390021
0.116213 0.0436713 0.0361181
0.380484 0.0344396 0.0201114
0.593378 0 3.0518e-05
0.670649 0.000488289 0.000701915
0.712886 0.0657511 0.0126497
0.736584 0.11075 0.0295567
0.74641 0.127901 0.0374456
0.747814 0.130388 0.038468
0.00497444 0.098497 0.0372015
0.0655222 0.0831311 0.0329442
0.282567 0.080705 0.0256657
0.573327 0.0194247 0
0.684947 0.0319219 0
0.731792 0.110994 0.00280766
0.760693 0.160174 0.0209201
0.774548 0.185092 0.0320134
0.776577 0.18883 0.0334783
0 0.257206 0.0281834
0 0.225437 0.0283207
0.190036 0.214313 0.0239719
0.568948 0.160174 0
0.721462 0.143999 0
0.774945 0.198535 0
0.805783 0.252827 0.0105745
0.819821 0.280583 0.0222477
0.821897 0.284932 0.0241245
0 0.455528 0
0 0.454154 0
0 0.476066 0
0.575463 0.530861 0
0.839597 0.489219 0
0.886107 0.485725 0
0.901198 0.505379 0
0.909346 0.524102 0
0.910796 0.528176 0
0 0.564004 0.0225223
0 0.582208 0.012604
0 0.615564 0.00494392
0.404425 0.708598 0
0.864073 0.77467 0
0.941665 0.768612 0
0.95555 0.769665 0
0.959472 0.773922 0
0.960021 0.775204 0
0 0.621225 0.125429
0 0.643107 0.128313
0 0.672801 0.144503
0.328832 0.735485 0.164446
0.794537 0.830076 0.126207
0.939132 0.849897 0.115373
0.960342 0.851591 0.145312
0.965179 0.853223 0.166186
0.965698 0.853635 0.169467
0 0.657023 0.192081
0 0.67921 0.202579
0 0.706584 0.220905
0.345739 0.757656 0.253391
0.743984 0.839002 0.267567
0.92517 0.87042 0.268803
0.9552 0.874357 0.269688
0.962005 0.875319 0.274235
0.962661 0.875471 0.275273
0 0.672221 0.221027
0 0.692851 0.233204
0.000549325 0.719844 0.252308
0.361578 0.767712 0.285893
0.726177 0.84242 0.310094
0.917021 0.874891 0.307347
0.951659 0.880095 0.309377
0.959365 0.881148 0.310063
0.960266 0.881331 0.310506
0 0.678218 0.227344
0 0.697688 0.239124
0.00437934 0.722515 0.257588
0.356176 0.767529 0.289311
0.707942 0.840131 0.316686
0.910536 0.874617 0.312016
0.950256 0.880705 0.314626
0.95877 0.881849 0.315206
0.959823 0.881987 0.315282
0.0210575 0.0342565 0.125216
0.0923476 0.0377661 0.0983444
0.383963 0.0306706 0.0659953
0.589014 0 0.030396
0.665873 0 0.0292668
0.709575 0.0534218 0.0522316
0.735241 0.103838 0.0742199
0.746105 0.123568 0.0851606
0.747707 0.126528 0.0867628
0.00131228 0.077348 0.0757153
0.0466316 0.0668498 0.0663005
0.254475 0.0722667 0.0549172
0.563958 0.0158541 0.0209659
0.681758 0.0253452 0.019028
0.733349 0.11017 0.0457771
0.762844 0.161212 0.0739452
0.776623 0.186465 0.0877089
0.778637 0.190265 0.0895857
0 0.236408 0.0657359
0 0.197726 0.0601053
0.180255 0.193271 0.055436
0.555367 0.155428 0.0211185
0.719356 0.140642 0.0118563
0.775845 0.197421 0.0423896
0.807355 0.253971 0.0755016
0.821393 0.282231 0.0915389
0.823468 0.286625 0.0937362
0 0.449836 0.0226902
0 0.448508 0.0143435
0 0.469383 0.000411994
0.562585 0.523033 0
0.835081 0.486213 0
0.883345 0.483238 0.00102235
0.900984 0.50573 0.0236667
0.909514 0.525185 0.0419471
0.910994 0.529427 0.0433967
0 0.573373 0.0970626
0 0.59234 0.0957656
0 0.625116 0.0833295
0.392905 0.714473 0.0171817
0.86038 0.778073 0
0.940764 0.772244 0
0.95523 0.773892 0.018143
0.959091 0.778408 0.0500649
0.959625 0.77969 0.0562905
0 0.633906 0.188174
0 0.655634 0.193713
0 0.683696 0.207324
0.320974 0.745998 0.232471
0.792859 0.838758 0.214527
0.937621 0.856214 0.201694
0.958892 0.858152 0.22475
0.963699 0.859785 0.241596
0.964218 0.860197 0.244541
0 0.669978 0.250843
0 0.692119 0.263066
0 0.71754 0.279545
0.338018 0.768261 0.315068
0.742153 0.847333 0.332143
0.923781 0.876387 0.319768
0.95375 0.879789 0.320333
0.960555 0.880659 0.324025
0.961227 0.880796 0.324758
0 0.68545 0.282094
0 0.706096 0.295735
0 0.731029 0.312139
0.354818 0.778042 0.345464
0.724956 0.850309 0.368856
0.915434 0.881285 0.361334
0.950088 0.885863 0.358526
0.9579 0.886854 0.35877
0.958801 0.887022 0.359136
0 0.691478 0.289235
0 0.710872 0.302129
0.002121 0.733745 0.317494
0.34963 0.777859 0.348714
0.706981 0.847929 0.373602
0.908705 0.881361 0.3691
0.948684 0.886473 0.363668
0.95729 0.887526 0.363622
0.958358 0.887663 0.363622
0.00723278 0.0167391 0.298009
0.0730144 0.0208133 0.28864
0.292714 0.0320134 0.236805
0.58764 0 0.136645
0.666896 0 0.0954299
0.708415 0.0431525 0.109667
0.734936 0.0962234 0.131899
0.746395 0.118898 0.143633
0.748028 0.122087 0.145342
0 0.0513771 0.261616
0.04654 0.0528725 0.221454
0.233249 0.0617533 0.191348
0.5691 0.00926223 0.116716
0.681651 0.0190433 0.090425
0.733318 0.103822 0.111513
0.762173 0.155642 0.138643
0.775296 0.180148 0.151537
0.77731 0.184039 0.153414
0 0.198245 0.206546
0 0.180163 0.180728
0.147936 0.172778 0.169604
0.540002 0.146715 0.117037
0.717357 0.134936 0.0975052
0.776501 0.195239 0.120394
0.808164 0.253025 0.148196
0.82211 0.281956 0.162173
0.824186 0.286381 0.164202
0 0.450858 0.134325
0 0.453742 0.127062
0 0.461219 0.126787
0.547631 0.514061 0.103639
0.829023 0.482643 0.0895705
0.881392 0.481437 0.124224
0.89897 0.502358 0.156756
0.907469 0.521843 0.171054
0.908904 0.526146 0.172869
0 0.583825 0.169802
0 0.602533 0.172259
0 0.632349 0.172717
0.357351 0.717815 0.150164
0.853437 0.785534 0.0769055
0.938476 0.780041 0.133074
0.953109 0.782101 0.200015
0.956924 0.786648 0.222675
0.957443 0.787961 0.226032
0 0.648295 0.254551
0 0.670054 0.262577
0 0.697032 0.276661
0.30367 0.757443 0.30634
0.788327 0.848798 0.305058
0.935012 0.863996 0.289769
0.95668 0.865705 0.308064
0.961578 0.867124 0.320806
0.962112 0.867491 0.323079
0 0.685557 0.321752
0 0.707134 0.334096
0 0.73164 0.349096
0.32987 0.779187 0.378332
0.740932 0.856016 0.396307
0.92134 0.884428 0.388083
0.951568 0.886336 0.380316
0.958297 0.88719 0.385321
0.958968 0.887343 0.38645
0 0.700984 0.351949
0 0.720562 0.363882
0 0.744671 0.378805
0.348348 0.788937 0.406714
0.724422 0.859052 0.43093
0.912993 0.889525 0.42977
0.947768 0.89308 0.419226
0.955627 0.893523 0.416617
0.956497 0.893599 0.41677
0 0.706722 0.35819
0 0.7252 0.369879
0 0.747234 0.383551
0.343084 0.788785 0.409995
0.706462 0.856764 0.43592
0.90634 0.889601 0.436942
0.946273 0.893828 0.425483
0.954971 0.894423 0.422492
0.956024 0.894423 0.422049
0.00128176 0.00656138 0.44654
0.0450446 0.00123598 0.438529
0.212909 0 0.463447
0.511879 0 0.450965
0.679255 0 0.351064
0.719661 0.0296788 0.305791
0.741466 0.0870832 0.29926
0.75111 0.111849 0.30045
0.752514 0.115053 0.300877
0 0.0291142 0.43154
0.0247501 0.0226291 0.412757
0.186038 0.0222477 0.43537
0.492927 0.00291447 0.418662
0.693248 0.0189822 0.348867
0.744701 0.106294 0.318013
0.76672 0.152026 0.311864
0.776944 0.172961 0.313313
0.7785 0.176226 0.313771
0 0.0990005 0.433799
0 0.095079 0.424521
0.187381 0.107958 0.441871
0.516426 0.105119 0.427146
0.724941 0.126711 0.367269
0.780392 0.191546 0.335012
0.806149 0.242267 0.328618
0.818128 0.268681 0.330419
0.819974 0.272999 0.330953
0 0.448753 0.470726
0 0.447639 0.465934
0 0.444556 0.459434
0.509102 0.502174 0.49395
0.810544 0.459464 0.420279
0.873106 0.464302 0.375875
0.890929 0.482521 0.359045
0.899306 0.502403 0.358282
0.900816 0.507088 0.35877
0 0.611139 0.407248
0 0.629114 0.412268
0 0.656138 0.410056
0.202411 0.731365 0.433463
0.831952 0.801312 0.441215
0.929183 0.793957 0.417029
0.946456 0.793606 0.415824
0.951125 0.798413 0.42034
0.951705 0.79971 0.421363
0 0.669078 0.390936
0 0.690425 0.399603
0 0.716701 0.412436
0.156725 0.768811 0.440146
0.754391 0.863798 0.468452
0.924559 0.880766 0.464958
0.948898 0.881559 0.474556
0.954314 0.882368 0.48249
0.954894 0.882643 0.483833
0 0.703243 0.430655
0 0.724895 0.443244
0 0.747784 0.459617
0.264881 0.79057 0.487297
0.715297 0.868666 0.5187
0.912306 0.900084 0.527276
0.943816 0.900923 0.521111
0.950973 0.901381 0.524819
0.951766 0.901503 0.525734
0 0.718456 0.455985
0 0.738201 0.468757
0 0.760418 0.484871
0.298848 0.800763 0.511269
0.704005 0.870954 0.541985
0.904204 0.903822 0.555138
0.940658 0.907332 0.548867
0.948608 0.907408 0.547295
0.949508 0.907454 0.547433
0 0.723583 0.458656
0 0.742184 0.471595
0 0.762325 0.486244
0.296071 0.800534 0.511299
0.687099 0.868269 0.541512
0.897856 0.903258 0.556603
0.939467 0.907744 0.550164
0.948257 0.907988 0.548363
0.94931 0.907958 0.548089
0 0.0775311 0.531929
0.0381323 0.06392 0.538796
0.16202 0.0429847 0.567712
0.494316 0 0.610132
0.673045 0 0.602609
0.740047 0 0.595193
0.7608 0.0532235 0.590723
0.769253 0.0884718 0.588449
0.770459 0.0928969 0.588281
0 0.0970932 0.525963
0.00239567 0.0907912 0.54081
0.138903 0.081239 0.570199
0.490364 0.0473335 0.611307
0.68838 0 0.612467
0.762585 0.0752575 0.610452
0.783337 0.141619 0.605341
0.79237 0.170016 0.603433
0.793774 0.17435 0.603418
0 0.134844 0.535012
0 0.135286 0.549264
0.137896 0.143572 0.58909
0.512596 0.141527 0.629526
0.711742 0.117876 0.630808
0.792569 0.184573 0.630488
0.817441 0.246571 0.627588
0.827893 0.275303 0.626917
0.82945 0.279683 0.627008
0 0.310765 0.595407
0 0.318379 0.606729
0 0.338537 0.633005
0.578317 0.364233 0.694423
0.778088 0.355642 0.684688
0.85362 0.394522 0.673396
0.878355 0.446479 0.667323
0.888472 0.476143 0.666026
0.889815 0.481056 0.665965
0 0.609766 0.642634
0 0.626032 0.654627
0 0.653223 0.671626
0 0.7243 0.713481
0.802274 0.796414 0.751766
0.912749 0.788632 0.727047
0.932769 0.789685 0.711391
0.938903 0.797467 0.705318
0.939712 0.799558 0.704677
0 0.692042 0.652247
0 0.712963 0.664485
0 0.744137 0.679454
0 0.793317 0.708064
0.701686 0.882963 0.744671
0.907408 0.901244 0.739788
0.935653 0.900801 0.731807
0.941924 0.900649 0.728313
0.942641 0.900832 0.727871
0 0.725429 0.654276
0 0.745174 0.665995
0 0.769482 0.680674
0.00495918 0.807904 0.704158
0.652094 0.885893 0.7355
0.891951 0.917998 0.741054
0.930922 0.919127 0.735943
0.939178 0.919142 0.733669
0.940093 0.919158 0.733379
0 0.736889 0.653376
0 0.756878 0.664759
0 0.779034 0.678981
0.0640879 0.814588 0.702174
0.639399 0.884489 0.731228
0.882963 0.920913 0.741161
0.928084 0.924117 0.737865
0.937407 0.92398 0.735973
0.938384 0.92398 0.735714
0 0.7411 0.646983
0 0.760281 0.658091
0 0.780484 0.67071
0.0738994 0.813657 0.693233
0.617777 0.880034 0.720729
0.876371 0.919982 0.733959
0.927016 0.924178 0.731563
0.937346 0.924132 0.729824
0.938491 0.924071 0.729595
0.010193 0.139116 0.587106
0.0877546 0.132799 0.596658
0.211322 0.12842 0.624247
0.513756 0.0914931 0.674678
0.707774 0.0156405 0.692592
0.75169 0.00288396 0.689311
0.768612 0.0197147 0.688289
0.776425 0.0558785 0.690181
0.777554 0.0614176 0.690547
0 0.165438 0.586145
0.0324712 0.167666 0.605417
0.189364 0.172045 0.63621
0.52105 0.160143 0.691447
0.725307 0.115465 0.709499
0.770809 0.0934005 0.704189
0.789456 0.131228 0.703532
0.797726 0.159487 0.705913
0.798962 0.163577 0.706371
0 0.222004 0.6038
0 0.231266 0.623377
0.183825 0.250843 0.667567
0.542779 0.248569 0.718044
0.750362 0.222538 0.729839
0.795987 0.207187 0.724254
0.819913 0.239628 0.726528
0.829496 0.267155 0.730419
0.830884 0.271336 0.731075
0 0.341421 0.645411
0 0.352132 0.664164
0 0.375525 0.695705
0.582071 0.402457 0.761349
0.791379 0.385473 0.765179
0.839689 0.373266 0.760693
0.869017 0.41651 0.76611
0.880507 0.448798 0.770932
0.882109 0.454017 0.771756
0 0.582528 0.706538
0 0.599527 0.723491
0 0.629923 0.747539
0.325444 0.707683 0.802487
0.841306 0.738689 0.831662
0.90013 0.722271 0.824781
0.923293 0.736095 0.82153
0.9308 0.751232 0.821134
0.931807 0.754879 0.821271
0 0.682399 0.725246
0 0.702739 0.739544
0 0.735637 0.760922
0 0.781796 0.78938
0.663096 0.876631 0.834073
0.896544 0.899809 0.844175
0.929213 0.900847 0.839994
0.935927 0.901823 0.837598
0.936751 0.902205 0.837293
0 0.721157 0.744732
0 0.740627 0.757641
0 0.7691 0.774594
0 0.808362 0.796948
0.602747 0.886122 0.832135
0.879362 0.922179 0.845182
0.923934 0.923995 0.842268
0.933349 0.924392 0.840345
0.934295 0.924468 0.840085
0 0.736202 0.752071
0 0.755459 0.764233
0 0.78027 0.779019
0 0.816831 0.799374
0.58851 0.887419 0.830915
0.868223 0.92578 0.84387
0.920974 0.929488 0.842832
0.931853 0.929564 0.841093
0.932815 0.92958 0.840818
0 0.741634 0.753017
0 0.760906 0.765057
0 0.782574 0.777829
0 0.816968 0.796994
0.565759 0.884062 0.827405
0.859785 0.92546 0.841184
0.919524 0.930144 0.840452
0.931685 0.930159 0.838437
0.932845 0.930129 0.838148
0.0688334 0.177676 0.62092
0.152178 0.174426 0.634302
0.297154 0.175631 0.663966
0.579705 0.149035 0.702953
0.736294 0.0978866 0.715572
0.768444 0.0620432 0.715785
0.777386 0.0578012 0.71635
0.781033 0.0669871 0.716564
0.781628 0.0693065 0.716655
0 0.217029 0.626734
0.109529 0.223194 0.64918
0.287755 0.234592 0.683268
0.596674 0.22327 0.723552
0.755673 0.188891 0.733852
0.788312 0.168246 0.733364
0.797803 0.164279 0.732677
0.802029 0.16994 0.732677
0.80264 0.171511 0.732799
0 0.291386 0.650339
0 0.304936 0.671458
0.291783 0.328862 0.715908
0.62002 0.321004 0.75169
0.783017 0.292622 0.75996
0.816007 0.272099 0.757763
0.825849 0.266758 0.755764
0.831342 0.271778 0.755825
0.832013 0.273426 0.756024
0 0.415763 0.689281
0 0.430381 0.707988
0.0903334 0.456382 0.740093
0.653788 0.469123 0.790845
0.818494 0.442374 0.796124
0.853651 0.42118 0.791424
0.865354 0.419059 0.789975
0.874556 0.434592 0.79234
0.876158 0.438895 0.793103
0 0.588373 0.735164
0 0.608072 0.752438
0 0.641382 0.778836
0.520562 0.69752 0.827726
0.860792 0.688533 0.841779
0.897948 0.674189 0.83714
0.910842 0.667979 0.834791
0.919539 0.685054 0.836515
0.920989 0.689891 0.837125
0 0.691859 0.751553
0 0.713695 0.767361
0 0.74313 0.787518
0 0.800259 0.82153
0.766278 0.884077 0.862348
0.907713 0.892317 0.866468
0.925734 0.889021 0.865003
0.933059 0.890684 0.86392
0.933959 0.891325 0.863798
0 0.712306 0.758053
0 0.732021 0.771267
0 0.761364 0.789837
0 0.801312 0.813611
0.564843 0.879301 0.850477
0.872877 0.919844 0.867109
0.920348 0.922362 0.866957
0.930449 0.923064 0.8663
0.931411 0.923186 0.866194
0 0.726711 0.766186
0 0.7467 0.779171
0 0.77258 0.795377
0 0.811002 0.817319
0.549996 0.881987 0.850248
0.860807 0.924239 0.866728
0.917067 0.928939 0.867658
0.928542 0.929152 0.867079
0.929732 0.929229 0.866987
0 0.732204 0.769238
0 0.751934 0.781888
0 0.775204 0.796323
0 0.811246 0.816846
0.524651 0.878874 0.848341
0.851072 0.923995 0.865888
0.915312 0.929671 0.867292
0.928023 0.929946 0.866667
0.929595 0.929976 0.866575
0.117525 0.19501 0.638132
0.212238 0.194522 0.655589
0.380209 0.196277 0.687129
0.645167 0.166354 0.717479
0.754864 0.126528 0.724407
0.777722 0.100374 0.723888
0.783719 0.0911727 0.723384
0.785306 0.0911879 0.723507
0.785779 0.0927291 0.723705
0.00729381 0.242023 0.647135
0.186709 0.252583 0.674235
0.38323 0.264118 0.709911
0.665461 0.244266 0.738903
0.775967 0.213748 0.743664
0.798886 0.195666 0.742275
0.805371 0.189181 0.741558
0.807401 0.188663 0.741573
0.807919 0.189822 0.741817
0 0.326101 0.673014
0.0332952 0.341802 0.696651
0.396841 0.367254 0.742184
0.690898 0.347982 0.767163
0.803754 0.318273 0.769802
0.826978 0.299229 0.767361
0.833463 0.292058 0.766094
0.836194 0.291066 0.765667
0.836896 0.292165 0.765911
0 0.454658 0.710597
0 0.471351 0.729854
0.239338 0.502098 0.765087
0.724422 0.500572 0.804898
0.839124 0.470054 0.805783
0.863691 0.448295 0.802304
0.870893 0.440177 0.799939
0.874449 0.440543 0.799588
0.875608 0.442756 0.799939
0 0.605554 0.748898
0 0.626368 0.766415
0 0.661814 0.7944
0.62533 0.707103 0.838224
0.875151 0.687999 0.846189
0.901961 0.673961 0.842329
0.91136 0.667567 0.84062
0.915084 0.66627 0.840131
0.91632 0.669154 0.840497
0 0.702342 0.764141
0 0.724514 0.780499
0 0.755703 0.801328
0.30248 0.822614 0.839857
0.826261 0.88481 0.869902
0.914855 0.885756 0.87097
0.92755 0.882902 0.870054
0.931823 0.881453 0.869322
0.932738 0.882246 0.869261
0 0.72079 0.768551
0 0.742107 0.782803
0 0.769406 0.800336
0 0.814267 0.826337
0.67332 0.894041 0.862257
0.892653 0.920409 0.873457
0.923552 0.921569 0.873182
0.929503 0.92163 0.872877
0.930465 0.921736 0.872786
0 0.723583 0.769009
0 0.743465 0.782116
0 0.769604 0.798566
0 0.808377 0.820981
0.532647 0.878904 0.854231
0.857603 0.92311 0.872114
0.915709 0.928176 0.873503
0.927459 0.928512 0.873152
0.928771 0.928588 0.873091
0 0.728496 0.772061
0 0.748425 0.784939
0 0.771786 0.799634
0 0.80853 0.820768
0.504662 0.875502 0.852552
0.847135 0.922637 0.871427
0.913832 0.928862 0.873472
0.926833 0.929274 0.873091
0.928466 0.929305 0.87303
0.128862 0.197345 0.641184
0.22504 0.197223 0.659449
0.400839 0.198535 0.691371
0.659953 0.167498 0.719844
0.758114 0.128801 0.725475
0.779187 0.104875 0.724895
0.784604 0.0957504 0.724315
0.786114 0.0955215 0.724392
0.786236 0.0954757 0.724376
0.0104219 0.245518 0.650401
0.203357 0.25713 0.678935
0.406378 0.268193 0.714656
0.680247 0.246052 0.741238
0.779385 0.216068 0.744808
0.800534 0.198978 0.743404
0.806531 0.192508 0.742641
0.808392 0.192004 0.742641
0.808515 0.191959 0.742611
0 0.330983 0.676509
0.0628214 0.347234 0.701015
0.421332 0.372396 0.746563
0.706157 0.350652 0.76939
0.807172 0.320668 0.770886
0.828641 0.302495 0.768505
0.834623 0.295399 0.767224
0.837125 0.294469 0.766873
0.837354 0.294331 0.766827
0 0.459968 0.713771
0 0.477226 0.733349
0.270893 0.509117 0.769497
0.739361 0.503853 0.806775
0.842481 0.47277 0.806806
0.865293 0.451835 0.803677
0.871931 0.443641 0.801343
0.875212 0.443793 0.800961
0.875608 0.443641 0.80087
0 0.608545 0.751232
0 0.629648 0.768887
0 0.665812 0.797238
0.647166 0.708324 0.839918
0.877791 0.687633 0.846616
0.902953 0.674052 0.842969
0.911681 0.667994 0.841337
0.915175 0.666789 0.840864
0.915724 0.666636 0.840803
0 0.70454 0.766171
0 0.726482 0.782269
0 0.758648 0.803677
0.351888 0.827955 0.843061
0.835782 0.884642 0.870787
0.916274 0.884672 0.871427
0.927947 0.88191 0.870512
0.931975 0.880613 0.869932
0.932601 0.880446 0.869825
0 0.722683 0.770352
0 0.744167 0.784741
0 0.771221 0.802121
0 0.817594 0.82884
0.695476 0.897002 0.864134
0.895766 0.920439 0.874159
0.924285 0.921477 0.873945
0.929717 0.921508 0.873671
0.930373 0.921477 0.87361
0 0.725093 0.770581
0 0.74522 0.78381
0 0.771664 0.800427
0 0.811032 0.823102
0.55935 0.882673 0.856397
0.864012 0.92369 0.87303
0.916869 0.928145 0.87425
0.927779 0.92845 0.873915
0.928664 0.928466 0.873884
0 0.728222 0.772488
0 0.748089 0.785397
0 0.771405 0.800092
0 0.808209 0.821317
0.501915 0.875059 0.853132
0.846555 0.922454 0.872099
0.913634 0.928771 0.874327
0.926665 0.929198 0.873945
0.928313 0.929244 0.873899
