film-luts/Frontier luts/ClassicPrint 16mm DWG LUT v3 Technicolor.cube
TITLE "John Razalo - ClassicPrint 16mm v3"
# © Copyright 2025 - John Razalo Visuals
LUT_3D_SIZE 33
0.0260014 0.0294194 0.032578
0.0430762 0.0313115 0.0309758
0.0667277 0.0340124 0.0292515
0.100847 0.0374456 0.0276341
0.137819 0.0420233 0.0267185
0.171221 0.0451209 0.0258793
0.209384 0.0476997 0.0247654
0.254536 0.0491951 0.0231479
0.31162 0.0495918 0.0196994
0.368765 0.0471656 0.0152438
0.42005 0.0435798 0.011368
0.472831 0.0382086 0.00730907
0.517891 0.0350042 0.00408942
0.559792 0.0321965 0.00218204
0.593683 0.0352483 0.00141909
0.621363 0.045304 0.00149538
0.645167 0.0590219 0.00192264
0.665553 0.0746014 0.00381476
0.68365 0.0900282 0.00578317
0.698512 0.105425 0.0117952
0.710887 0.118608 0.0172885
0.721355 0.129595 0.0223087
0.730007 0.138949 0.0271153
0.737087 0.146944 0.0314336
0.743008 0.153735 0.03505
0.747829 0.159319 0.0379492
0.75172 0.163882 0.0403143
0.754726 0.167895 0.0424964
0.757198 0.171237 0.0445258
0.759075 0.173831 0.0462501
0.759594 0.174563 0.0467231
0.759594 0.174563 0.0467231
0.759594 0.174563 0.0467231
0.0203861 0.0367742 0.0385443
0.0314946 0.0361028 0.0348058
0.0527199 0.0379339 0.0332036
0.0796063 0.0406806 0.0314641
0.117327 0.0439765 0.0298161
0.153292 0.048127 0.0294347
0.189075 0.0508125 0.0280613
0.233661 0.0531624 0.0263981
0.287083 0.0547494 0.0236973
0.350668 0.0546578 0.0191043
0.40676 0.0522011 0.0145876
0.460548 0.0476997 0.0107424
0.509941 0.0435187 0.00767529
0.553567 0.0419928 0.00460822
0.591928 0.0448005 0.00256352
0.620691 0.0539406 0.0033875
0.64535 0.0674449 0.00361639
0.666651 0.0823072 0.00604257
0.685222 0.0975814 0.00955215
0.70071 0.112779 0.0156252
0.713497 0.126314 0.0215
0.72433 0.137316 0.0267643
0.73344 0.14699 0.0317082
0.740993 0.15552 0.0363165
0.747143 0.1626 0.0400854
0.752316 0.168734 0.0433051
0.756649 0.174105 0.0466926
0.760037 0.178653 0.0497139
0.762737 0.18233 0.0521401
0.764767 0.185168 0.0540169
0.765332 0.185946 0.0545357
0.765332 0.185946 0.0545357
0.765332 0.185946 0.0545357
0.0145113 0.0465553 0.0464485
0.024094 0.0460517 0.0428321
0.0405737 0.045182 0.038117
0.0661173 0.0476234 0.0367742
0.0987411 0.0510719 0.0347601
0.14197 0.0541238 0.0345617
0.178759 0.057084 0.0331121
0.220569 0.0595712 0.0310979
0.270069 0.0614328 0.0290074
0.332784 0.0623789 0.0248417
0.392584 0.0610361 0.0198825
0.448173 0.0573281 0.015671
0.502846 0.0529335 0.0116732
0.54786 0.052781 0.00834669
0.590219 0.0551156 0.00546273
0.620554 0.0643626 0.00526436
0.646174 0.0766918 0.00671397
0.668391 0.0906691 0.00901808
0.687388 0.106096 0.013962
0.703487 0.121141 0.0198825
0.71667 0.134569 0.0262913
0.727871 0.145876 0.0317998
0.737575 0.156069 0.0370031
0.745388 0.164874 0.0417182
0.752117 0.1729 0.0462501
0.757809 0.179782 0.050782
0.762325 0.185565 0.0546273
0.765911 0.190372 0.0578317
0.768795 0.194293 0.0604257
0.770993 0.197314 0.0624552
0.771588 0.198138 0.0630045
0.771588 0.198138 0.0630045
0.771588 0.198138 0.0630045
0.0071107 0.0598611 0.0569619
0.0164034 0.0589914 0.0528878
0.0292973 0.0587015 0.0487984
0.0521706 0.0568856 0.0432746
0.0825971 0.059617 0.0411383
0.121981 0.0628061 0.0389563
0.169314 0.0643015 0.0394293
0.213779 0.067277 0.0371252
0.261494 0.0692912 0.0347295
0.318608 0.0703136 0.0314183
0.379553 0.0703288 0.0260471
0.437705 0.0686656 0.02121
0.496056 0.0645151 0.016495
0.542916 0.0641947 0.0126192
0.588632 0.0664073 0.00888075
0.620737 0.0752117 0.00875868
0.6477 0.0870527 0.0101778
0.670848 0.100237 0.0136416
0.690135 0.115312 0.0188449
0.706889 0.130083 0.0247959
0.720363 0.143542 0.0313726
0.73228 0.155474 0.0375067
0.74229 0.165988 0.0428779
0.750866 0.176043 0.0489052
0.758022 0.18468 0.0546273
0.763958 0.191959 0.0592966
0.768704 0.198093 0.0633097
0.772457 0.203098 0.0666819
0.775464 0.207218 0.0694896
0.777752 0.210391 0.0716716
0.778363 0.211276 0.072282
0.778363 0.211276 0.072282
0.778363 0.211276 0.072282
0.000381476 0.0758679 0.0659953
0.00686656 0.0744488 0.0646525
0.0176547 0.07364 0.0613413
0.0378882 0.0732891 0.0560159
0.0655985 0.0717021 0.0508125
0.101503 0.074815 0.0477607
0.149477 0.0766155 0.0449683
0.204318 0.0768749 0.0444648
0.258335 0.0794995 0.0413672
0.314427 0.0804303 0.0379187
0.372137 0.0811322 0.0328222
0.430442 0.0809339 0.0273136
0.489372 0.0792859 0.0224308
0.538979 0.0783703 0.0177615
0.586633 0.0801556 0.0137331
0.621942 0.0873121 0.0133822
0.650034 0.0985885 0.0149233
0.674006 0.111269 0.0188602
0.693782 0.125963 0.0244907
0.710948 0.140352 0.0306401
0.725216 0.154253 0.0377661
0.737453 0.166461 0.0440986
0.748425 0.178439 0.0512245
0.757458 0.189075 0.0580301
0.764858 0.198123 0.0639048
0.770886 0.205661 0.0690013
0.775738 0.212085 0.0733959
0.779644 0.217243 0.0767376
0.782727 0.221378 0.0794232
0.784955 0.224567 0.0815137
0.78555 0.225452 0.0820935
0.78555 0.225452 0.0820935
0.78555 0.225452 0.0820935
0 0.0963302 0.0767834
0.00062562 0.0950179 0.0753796
0.00630198 0.0933394 0.0740978
0.0192416 0.0920119 0.0719615
0.0455329 0.0916762 0.0661936
0.0800793 0.0899977 0.0605783
0.125612 0.0931563 0.0565652
0.185245 0.0925002 0.0531319
0.251575 0.0937362 0.0508888
0.313558 0.0951858 0.0462196
0.371878 0.0953536 0.0408331
0.428229 0.0955062 0.0348516
0.484489 0.0950484 0.0299535
0.536873 0.0945144 0.0252689
0.584772 0.0962387 0.0212711
0.624231 0.102022 0.0197299
0.653437 0.111528 0.021622
0.678004 0.124437 0.025391
0.698497 0.138506 0.0310369
0.716381 0.152544 0.038056
0.73106 0.166567 0.0454108
0.74435 0.180209 0.0533761
0.755627 0.192706 0.0613413
0.764858 0.203662 0.0684672
0.772396 0.212955 0.0745556
0.778531 0.220691 0.0795148
0.78349 0.2271 0.0836652
0.787411 0.232273 0.087068
0.790402 0.23653 0.0900435
0.792554 0.240009 0.0926223
0.793149 0.241001 0.0933394
0.793149 0.241001 0.0933394
0.793149 0.241001 0.0933394
0 0.122011 0.09337
0 0.120302 0.0896162
0 0.118654 0.0876783
0.00370794 0.117128 0.0863508
0.02121 0.115694 0.0845045
0.0556191 0.115969 0.0796979
0.101183 0.113252 0.0725414
0.159884 0.115465 0.0664225
0.233661 0.113817 0.0629587
0.308537 0.113787 0.0589151
0.372976 0.113954 0.0526131
0.431067 0.113252 0.0457771
0.485328 0.114076 0.0406043
0.538369 0.114427 0.0357214
0.584772 0.116075 0.0323033
0.628107 0.120302 0.0294804
0.658366 0.128435 0.030045
0.683574 0.140002 0.0335088
0.704936 0.153979 0.0399023
0.723415 0.168185 0.047715
0.739361 0.183124 0.0572519
0.75288 0.197024 0.065507
0.764202 0.209827 0.0736706
0.773571 0.22089 0.0806134
0.781064 0.23003 0.0865187
0.78706 0.237812 0.0917983
0.79202 0.244694 0.0966049
0.795926 0.250324 0.100572
0.798825 0.254932 0.103975
0.801007 0.258473 0.1066
0.801602 0.259449 0.107332
0.801602 0.259449 0.107332
0.801602 0.259449 0.107332
0 0.155444 0.114046
0 0.153429 0.110521
0 0.151537 0.106508
0 0.149966 0.103944
0 0.14844 0.102647
0.0187686 0.146334 0.100557
0.0666361 0.14699 0.0957961
0.129534 0.144015 0.0870527
0.204135 0.145083 0.0771801
0.29604 0.139712 0.0740063
0.371817 0.13872 0.06804
0.433448 0.137118 0.0608835
0.490105 0.137697 0.0543526
0.544244 0.138216 0.0491493
0.58938 0.140108 0.0454414
0.63476 0.144488 0.0424811
0.666117 0.15201 0.0433051
0.692119 0.161563 0.0463874
0.714076 0.173953 0.0529183
0.733547 0.188495 0.0627604
0.749462 0.203464 0.0721599
0.762997 0.217334 0.0802777
0.774212 0.229694 0.0875563
0.783322 0.240833 0.0948653
0.790722 0.250584 0.101595
0.796719 0.258625 0.107271
0.801602 0.265431 0.111788
0.805264 0.271077 0.115526
0.808148 0.275685 0.118593
0.810422 0.279438 0.121096
0.811048 0.280491 0.121798
0.811048 0.280491 0.121798
0.811048 0.280491 0.121798
0 0.193057 0.141405
0 0.190326 0.137987
0 0.187884 0.133761
0 0.186053 0.129183
0 0.184726 0.124895
0 0.183291 0.123568
0.0170291 0.184009 0.122942
0.0856489 0.188159 0.119265
0.171023 0.185046 0.10518
0.267109 0.185733 0.0930953
0.364248 0.17612 0.0902266
0.439979 0.172076 0.0841993
0.496834 0.170199 0.0764935
0.554437 0.170916 0.0702983
0.601526 0.173022 0.0667124
0.647166 0.177264 0.0646525
0.679881 0.1841 0.065568
0.706386 0.192981 0.0693523
0.728389 0.204028 0.0758068
0.747265 0.216342 0.0840467
0.762341 0.229664 0.0915084
0.775433 0.243259 0.0990463
0.786435 0.255848 0.106783
0.795193 0.266865 0.113817
0.802289 0.276173 0.119677
0.80824 0.284276 0.12488
0.813031 0.291386 0.129549
0.81677 0.29723 0.13341
0.819776 0.302037 0.136584
0.822049 0.305776 0.139055
0.822675 0.306828 0.139757
0.822675 0.306828 0.139757
0.822675 0.306828 0.139757
0 0.240909 0.172137
0 0.237613 0.168765
0 0.234562 0.165606
0 0.232136 0.162692
0 0.230488 0.159701
0 0.228946 0.15494
0 0.228412 0.152483
0.00769055 0.23534 0.154284
0.114748 0.242206 0.148791
0.22649 0.241062 0.132464
0.339742 0.240986 0.116014
0.441718 0.228931 0.112764
0.516655 0.220279 0.110216
0.574624 0.219013 0.103349
0.625589 0.221302 0.100359
0.672511 0.225116 0.0986343
0.702251 0.230549 0.0998093
0.727047 0.237552 0.102937
0.748196 0.246921 0.108232
0.765606 0.25716 0.114366
0.779492 0.267887 0.119356
0.791226 0.278859 0.124819
0.80145 0.289967 0.130953
0.809903 0.300267 0.137011
0.816922 0.30959 0.142779
0.822614 0.317952 0.147951
0.827314 0.325414 0.152651
0.831205 0.331807 0.156741
0.834333 0.337133 0.160174
0.836683 0.341421 0.16289
0.837324 0.342626 0.163653
0.837324 0.342626 0.163653
0.837324 0.342626 0.163653
0 0.289677 0.20528
0 0.286824 0.202182
0 0.284291 0.199252
0 0.282353 0.196689
0 0.280797 0.194247
0 0.279683 0.191638
0 0.279774 0.18883
0 0.285237 0.188891
0.0107271 0.298604 0.193454
0.16144 0.308797 0.185245
0.298878 0.3122 0.166827
0.418448 0.310979 0.148318
0.517891 0.297978 0.144549
0.599222 0.284367 0.147738
0.650431 0.283742 0.144366
0.698497 0.286671 0.142351
0.728969 0.28983 0.141772
0.752132 0.294682 0.14406
0.771298 0.301076 0.148119
0.787945 0.30959 0.152117
0.801053 0.319142 0.155612
0.812039 0.328939 0.159991
0.821118 0.338369 0.164721
0.828916 0.347341 0.169406
0.835431 0.355749 0.174121
0.840787 0.363165 0.178439
0.845228 0.369696 0.182467
0.84889 0.375814 0.186404
0.851774 0.38117 0.189975
0.854017 0.385504 0.192859
0.854643 0.386725 0.193683
0.854643 0.386725 0.193683
0.854643 0.386725 0.193683
0 0.340963 0.244572
0 0.338155 0.24065
0 0.335729 0.237079
0 0.333379 0.233783
0 0.331731 0.230961
0 0.330922 0.228473
0 0.331121 0.226596
0 0.335256 0.22739
0 0.348943 0.233478
0.0315099 0.369039 0.24152
0.226551 0.383474 0.231083
0.377478 0.388052 0.209339
0.500786 0.391318 0.191379
0.593118 0.383612 0.183429
0.668986 0.371695 0.189349
0.726055 0.361456 0.193652
0.757275 0.363638 0.192233
0.780865 0.366659 0.192844
0.799283 0.371283 0.195865
0.814725 0.377722 0.198581
0.82681 0.385077 0.201053
0.836896 0.392676 0.204105
0.845151 0.400153 0.20795
0.852003 0.407568 0.212451
0.857588 0.414176 0.216632
0.862287 0.420264 0.2206
0.86595 0.425956 0.22443
0.868986 0.431159 0.228092
0.871595 0.436088 0.231952
0.873671 0.440208 0.235187
0.874266 0.441398 0.236149
0.874266 0.441398 0.236149
0.874266 0.441398 0.236149
0 0.391836 0.287938
0 0.389166 0.284031
0 0.386938 0.280659
0 0.385611 0.277836
0 0.385031 0.275517
0 0.385229 0.273793
0 0.386084 0.272282
0 0.391287 0.273457
0 0.404349 0.280201
0 0.424811 0.290745
0.0857557 0.451347 0.303136
0.308095 0.469062 0.286259
0.463355 0.474784 0.262089
0.576867 0.476204 0.244129
0.667552 0.470497 0.228199
0.733516 0.460731 0.237476
0.778683 0.449577 0.245106
0.807767 0.442451 0.252598
0.826123 0.44564 0.253941
0.840986 0.450217 0.254398
0.851804 0.455482 0.256825
0.860883 0.461204 0.259998
0.867826 0.466835 0.263691
0.87396 0.473014 0.267613
0.878981 0.478843 0.271595
0.88275 0.484169 0.275517
0.886 0.489265 0.279377
0.888685 0.494057 0.28307
0.890929 0.49865 0.286687
0.892714 0.502571 0.28983
0.893217 0.503731 0.290776
0.893217 0.503731 0.290776
0.893217 0.503731 0.290776
0 0.443809 0.331746
0 0.441688 0.328206
0 0.440009 0.325063
0 0.438911 0.322408
0 0.438499 0.320394
0 0.438743 0.319112
0 0.440909 0.319188
0 0.447288 0.322072
0 0.459907 0.328923
0 0.479393 0.339239
0 0.504143 0.351614
0.199527 0.533852 0.359533
0.39353 0.551751 0.345312
0.543526 0.557656 0.321218
0.649454 0.560235 0.303471
0.727749 0.556588 0.286564
0.786221 0.550332 0.289235
0.818982 0.542092 0.298283
0.841901 0.536583 0.305898
0.859678 0.53518 0.3093
0.871687 0.535744 0.311772
0.88098 0.537942 0.315282
0.887816 0.540841 0.318807
0.893309 0.544518 0.322423
0.897642 0.548669 0.325582
0.901106 0.553399 0.328588
0.903899 0.558282 0.331258
0.906111 0.563104 0.333639
0.907988 0.567819 0.335927
0.909483 0.572 0.337926
0.909911 0.573266 0.338521
0.909911 0.573266 0.338521
0.909911 0.573266 0.338521
0 0.49041 0.375067
0 0.489815 0.372503
0 0.489372 0.370169
0 0.489372 0.368231
0 0.490196 0.366827
0 0.491615 0.365759
0 0.494469 0.365743
0 0.501701 0.369238
0 0.513664 0.376349
0 0.530877 0.385901
0 0.554269 0.398505
0.0203098 0.58381 0.41294
0.303151 0.611688 0.412695
0.483818 0.629602 0.397696
0.615198 0.634379 0.377859
0.711772 0.637629 0.364218
0.78143 0.635264 0.349844
0.822675 0.631067 0.338003
0.849546 0.625711 0.345556
0.868162 0.622339 0.350713
0.881636 0.620798 0.353491
0.891371 0.621073 0.355779
0.898924 0.622751 0.357946
0.904845 0.625513 0.36051
0.909316 0.628656 0.362936
0.912688 0.632136 0.365347
0.91548 0.635859 0.367758
0.917723 0.639826 0.370214
0.919539 0.643763 0.37258
0.920806 0.647288 0.374517
0.921157 0.648356 0.375067
0.921157 0.648356 0.375067
0.921157 0.648356 0.375067
0 0.531487 0.416663
0 0.532021 0.414725
0 0.533074 0.413245
0 0.534997 0.41236
0 0.537469 0.411963
0 0.540688 0.4121
0 0.54548 0.413947
0 0.552224 0.41709
0 0.56199 0.422782
0 0.576822 0.432135
0 0.597147 0.444129
0 0.623392 0.458488
0.194202 0.653315 0.473198
0.411536 0.679042 0.46569
0.564752 0.694545 0.449592
0.685649 0.700587 0.428031
0.763546 0.703426 0.415686
0.818082 0.702815 0.405631
0.84863 0.699504 0.398764
0.871489 0.697276 0.394446
0.886946 0.696406 0.39118
0.897826 0.695598 0.392248
0.905303 0.695644 0.394369
0.911223 0.696666 0.396521
0.915801 0.698711 0.398825
0.918959 0.701198 0.400961
0.921553 0.70428 0.403082
0.923644 0.707683 0.405188
0.92517 0.710643 0.407218
0.926284 0.713268 0.409018
0.926589 0.714061 0.409552
0.926589 0.714061 0.409552
0.926589 0.714061 0.409552
0 0.568063 0.456199
0 0.569879 0.45565
0 0.572152 0.455512
0 0.57499 0.455894
0 0.578042 0.456123
0 0.582193 0.457328
0 0.587411 0.459815
0 0.594354 0.463737
0 0.603037 0.468635
0 0.615412 0.475624
0 0.633143 0.486671
0 0.657282 0.500648
0.0792706 0.686336 0.515969
0.325414 0.714061 0.523857
0.510079 0.736156 0.513359
0.639231 0.74728 0.4981
0.737377 0.750423 0.479698
0.805203 0.75227 0.467262
0.842283 0.751217 0.458778
0.867521 0.749844 0.453544
0.884596 0.748882 0.450202
0.897597 0.748531 0.447425
0.906218 0.748882 0.447135
0.912459 0.749645 0.44802
0.917357 0.750698 0.449363
0.920806 0.752346 0.451728
0.923171 0.754314 0.454475
0.924971 0.75642 0.457374
0.926345 0.758572 0.460273
0.927321 0.76054 0.462882
0.927581 0.761151 0.463676
0.927581 0.761151 0.463676
0.927581 0.761151 0.463676
0 0.601404 0.491478
0 0.604868 0.4925
0 0.608423 0.493797
0 0.611719 0.495216
0 0.615763 0.497261
0 0.620493 0.499947
0 0.626245 0.503151
0 0.633082 0.507027
0 0.641489 0.511757
0 0.652979 0.518456
0 0.667109 0.527123
0 0.687022 0.539498
0.00479133 0.711513 0.553567
0.260731 0.738048 0.568276
0.451453 0.762798 0.565667
0.593881 0.780179 0.554253
0.704601 0.789532 0.53782
0.785733 0.792004 0.522972
0.831434 0.792081 0.514107
0.860624 0.791333 0.508583
0.880735 0.790494 0.505196
0.894011 0.789639 0.502266
0.903655 0.789395 0.500862
0.910445 0.789532 0.500328
0.915648 0.790341 0.500938
0.919341 0.791669 0.502846
0.922103 0.793179 0.505013
0.923934 0.794842 0.507469
0.925292 0.796551 0.509896
0.926238 0.798138 0.512108
0.926497 0.798627 0.512779
0.926497 0.798627 0.512779
0.926497 0.798627 0.512779
0 0.629007 0.526558
0 0.633265 0.528649
0 0.637522 0.530571
0 0.64181 0.532692
0 0.646372 0.535286
0 0.651209 0.538186
0 0.656519 0.541497
0 0.662852 0.545434
0 0.67039 0.549935
0 0.680079 0.555764
0 0.692653 0.563333
0 0.709712 0.573526
0 0.731044 0.586282
0.204593 0.755154 0.600305
0.397284 0.780804 0.608103
0.550652 0.800534 0.60032
0.671763 0.813703 0.587869
0.75761 0.819821 0.572473
0.818265 0.820386 0.557504
0.851392 0.820401 0.550408
0.874464 0.820768 0.547005
0.889723 0.820554 0.544121
0.900557 0.820432 0.542428
0.907866 0.820447 0.541878
0.912993 0.820783 0.542199
0.916793 0.82153 0.543282
0.919631 0.822522 0.544762
0.921752 0.823621 0.546426
0.923278 0.82472 0.548104
0.924208 0.825727 0.549676
0.924453 0.826032 0.550179
0.924453 0.826032 0.550179
0.924453 0.826032 0.550179
0 0.652232 0.557748
0 0.656626 0.559869
0 0.661097 0.562325
0 0.665553 0.565225
0 0.670161 0.568154
0 0.675074 0.571298
0 0.6804 0.574517
0 0.686366 0.578134
0 0.693446 0.582483
0 0.702266 0.587686
0 0.713573 0.594339
0 0.728801 0.603403
0 0.748058 0.615412
0.18146 0.769879 0.628489
0.349752 0.793561 0.640757
0.512642 0.814679 0.635721
0.638468 0.830335 0.626581
0.729274 0.83888 0.615641
0.802106 0.843641 0.601877
0.841047 0.842405 0.588876
0.866453 0.842191 0.582727
0.884001 0.842496 0.579492
0.896071 0.842298 0.576532
0.904418 0.842283 0.575204
0.910185 0.842634 0.575219
0.914122 0.843153 0.575936
0.917021 0.843854 0.577066
0.919173 0.844694 0.578454
0.920775 0.845548 0.579843
0.921889 0.846357 0.581155
0.922194 0.846601 0.581567
0.922194 0.846601 0.581567
0.922194 0.846601 0.581567
0 0.671595 0.583017
0 0.676051 0.585412
0 0.680537 0.58819
0 0.684947 0.591012
0 0.68957 0.594049
0 0.694469 0.597223
0 0.699763 0.600397
0 0.705501 0.603876
0 0.712184 0.607858
0 0.720455 0.612634
0 0.730785 0.618387
0 0.744488 0.625925
0 0.760845 0.635813
0.145953 0.779828 0.646891
0.326299 0.801038 0.658488
0.482017 0.82327 0.661601
0.607126 0.840131 0.656092
0.707164 0.85185 0.646601
0.781704 0.858763 0.636057
0.828321 0.860868 0.6262
0.857862 0.859754 0.616495
0.877516 0.859266 0.611154
0.890715 0.859373 0.60795
0.900175 0.859327 0.605722
0.906554 0.859373 0.604685
0.910948 0.859709 0.604807
0.914153 0.860182 0.60531
0.916396 0.860822 0.606409
0.918059 0.861509 0.607599
0.919219 0.86215 0.608713
0.919524 0.862348 0.609064
0.919524 0.862348 0.609064
0.919524 0.862348 0.609064
0 0.686458 0.601434
0 0.690822 0.604166
0 0.695094 0.606897
0 0.699458 0.60972
0 0.703899 0.61265
0 0.70869 0.615732
0 0.713832 0.619074
0 0.719463 0.622614
0 0.725963 0.626581
0 0.733791 0.630976
0 0.743282 0.636194
0 0.755184 0.642985
0 0.769909 0.651911
0.143771 0.787762 0.662654
0.313329 0.807401 0.673884
0.456672 0.828534 0.680247
0.583307 0.846143 0.676661
0.687663 0.859632 0.670756
0.76379 0.867857 0.662303
0.816297 0.872084 0.652232
0.848783 0.873289 0.643977
0.871061 0.873198 0.637675
0.885374 0.873152 0.634058
0.895705 0.873259 0.631724
0.902846 0.873442 0.630426
0.907683 0.873671 0.629984
0.911086 0.873884 0.629892
0.913497 0.874205 0.630335
0.915282 0.874571 0.63093
0.916518 0.874998 0.631632
0.916838 0.87512 0.631861
0.916838 0.87512 0.631861
0.916838 0.87512 0.631861
0 0.697795 0.616983
0 0.702037 0.619669
0 0.706264 0.622415
0 0.710506 0.625193
0 0.71487 0.628046
0 0.719524 0.631098
0 0.724483 0.634379
0 0.730083 0.638056
0 0.736522 0.642008
0 0.744183 0.646326
0 0.753323 0.651392
0 0.764492 0.658
0 0.777722 0.666133
0.14342 0.793957 0.676265
0.30396 0.81268 0.687266
0.435065 0.831891 0.695766
0.565194 0.850156 0.692866
0.671275 0.864561 0.687999
0.749081 0.873869 0.681437
0.805432 0.879393 0.673167
0.840345 0.881514 0.665354
0.8645 0.881987 0.658503
0.880644 0.881651 0.653101
0.891463 0.881712 0.650278
0.899351 0.881804 0.648539
0.904509 0.882063 0.647654
0.908354 0.882353 0.647379
0.910933 0.882704 0.647608
0.91281 0.88304 0.647944
0.914107 0.883314 0.648264
0.914458 0.883391 0.648386
0.914458 0.883391 0.648386
0.914458 0.883391 0.648386
0 0.7066 0.629541
0 0.710704 0.632212
0 0.71487 0.635019
0 0.719081 0.637781
0 0.72343 0.64065
0 0.728023 0.643671
0 0.732982 0.646952
0 0.738552 0.650599
0 0.745022 0.654673
0 0.75259 0.659098
0 0.761242 0.664073
0 0.771527 0.67042
0 0.783734 0.678096
0.137652 0.799054 0.687709
0.301991 0.816724 0.698558
0.420874 0.834638 0.708537
0.550896 0.852766 0.705852
0.658122 0.86775 0.701457
0.736492 0.877607 0.695445
0.797604 0.884428 0.688487
0.832593 0.887266 0.681346
0.858289 0.888518 0.6748
0.875822 0.888579 0.669642
0.887739 0.888075 0.664973
0.896223 0.888106 0.662623
0.901747 0.888075 0.661051
0.905699 0.888212 0.660304
0.908568 0.888426 0.659983
0.910567 0.888655 0.659922
0.911986 0.888884 0.660029
0.912352 0.88896 0.660105
0.912352 0.88896 0.660105
0.912352 0.88896 0.660105
0 0.713558 0.639735
0 0.717662 0.642527
0 0.721798 0.645289
0 0.726024 0.648127
0 0.730388 0.65098
0 0.734859 0.653986
0 0.739712 0.657237
0 0.745144 0.660868
0 0.751354 0.664988
0 0.75877 0.66949
0 0.76733 0.674495
0 0.777173 0.680613
0.00471504 0.7888 0.68809
0.133013 0.80325 0.697169
0.301183 0.820142 0.707668
0.414282 0.837293 0.717754
0.540383 0.854963 0.716442
0.649073 0.870192 0.712291
0.726497 0.880171 0.70663
0.790463 0.887572 0.700191
0.826383 0.890639 0.693202
0.85272 0.892378 0.687282
0.871824 0.893187 0.682216
0.884123 0.893111 0.677821
0.893233 0.892866 0.674189
0.899504 0.892958 0.672496
0.903563 0.892927 0.671168
0.906538 0.892973 0.670527
0.908522 0.893111 0.670253
0.909972 0.893263 0.670176
0.910353 0.893309 0.670176
0.910353 0.893309 0.670176
0.910353 0.893309 0.670176
0 0.719051 0.647883
0 0.723049 0.650721
0 0.727077 0.653498
0 0.731212 0.656352
0 0.735439 0.65922
0 0.739925 0.662226
0 0.744747 0.665461
0 0.750195 0.669062
0 0.756344 0.673136
0 0.763745 0.67776
0 0.772107 0.68278
0 0.781674 0.688807
0.00167849 0.792874 0.696056
0.131777 0.806592 0.704616
0.297719 0.822782 0.714687
0.410941 0.839536 0.724712
0.532372 0.85658 0.724681
0.640284 0.871717 0.720882
0.718639 0.882078 0.715419
0.785138 0.890028 0.709361
0.821759 0.893309 0.702602
0.848402 0.895293 0.696834
0.868544 0.896406 0.691768
0.881285 0.896666 0.687816
0.89041 0.896544 0.68423
0.897459 0.896406 0.681468
0.901778 0.896483 0.68014
0.904799 0.896498 0.679225
0.906996 0.896513 0.678645
0.908476 0.89659 0.678355
0.908843 0.89662 0.678309
0.908843 0.89662 0.678309
0.908843 0.89662 0.678309
0 0.722942 0.654032
0 0.726879 0.65687
0 0.730907 0.659709
0 0.735027 0.662547
0 0.739254 0.665461
0 0.74374 0.668467
0 0.748562 0.671656
0 0.753994 0.675227
0 0.760113 0.679255
0 0.767452 0.683955
0 0.775662 0.688975
0 0.785016 0.694942
0.00712596 0.795956 0.701991
0.133639 0.809171 0.710246
0.295766 0.824826 0.719814
0.409339 0.840818 0.729015
0.526406 0.857618 0.730739
0.634028 0.872831 0.727398
0.712764 0.883436 0.722072
0.779751 0.891691 0.716289
0.818265 0.895369 0.709834
0.844938 0.897444 0.704219
0.865415 0.898665 0.699184
0.879011 0.899199 0.695323
0.888197 0.899214 0.691814
0.895262 0.899214 0.689158
0.900328 0.899123 0.687099
0.903456 0.899199 0.686152
0.905699 0.899229 0.685481
0.90724 0.899245 0.684993
0.907637 0.899245 0.684886
0.907637 0.899245 0.684886
0.907637 0.899245 0.684886
0 0.725978 0.658793
0 0.729854 0.661631
0 0.733883 0.6645
0 0.737987 0.667338
0 0.742229 0.670253
0 0.7467 0.673243
0 0.751522 0.676402
0 0.756939 0.679957
0 0.763073 0.683986
