film-luts/Frontier luts/ClassicPrint_16mm_250D_CORRECTED.cube
TITLE "250D Corrected - More Accurate Color Science"
# Based on John Razalo ClassicPrint v3
# Corrections: Blue-lifted shadows, reduced green cast, warmer highlights
# More accurate to Kodak Vision3 250D characteristics
LUT_3D_SIZE 5
0.023126 0.010349 0.058091
0.271135 0.006431 0.030475
0.590094 0.000000 0.012108
0.663203 0.002084 0.029859
0.667515 0.005833 0.032778
0.000000 0.117947 0.038187
0.205938 0.187374 0.000000
0.628902 0.098091 0.000000
0.749645 0.135664 0.000000
0.762888 0.146954 0.000000
0.000000 0.359780 0.000000
0.000000 0.433856 0.000000
0.779552 0.672721 0.000000
0.901417 0.603538 0.000000
0.908066 0.593161 0.000000
0.000000 0.409403 0.000000
0.000000 0.488138 0.000000
0.554306 0.723501 0.000000
0.896156 0.780730 0.000000
0.910587 0.780121 0.000000
0.000000 0.417831 0.000000
0.000000 0.494873 0.000000
0.512495 0.715547 0.000000
0.888525 0.788334 0.000000
0.906769 0.788781 0.000000
0.007347 0.003986 0.204460
0.279030 0.043116 0.236984
0.606512 0.000000 0.112837
0.665124 0.000000 0.132719
0.703425 0.000000 0.131618
0.000000 0.101887 0.142756
0.181958 0.179018 0.187374
0.659542 0.076938 0.062603
0.756867 0.126673 0.107345
0.766828 0.137864 0.119102
0.000000 0.362401 0.035651
0.000000 0.426729 0.041295
0.774950 0.688924 0.000000
0.924287 0.636728 0.000000
0.928018 0.620613 0.000000
0.000000 0.417150 0.067330
0.000000 0.493740 0.076495
0.531749 0.738665 0.000000
0.900826 0.803678 0.000000
0.915871 0.803688 0.000000
0.000000 0.425649 0.080570
0.000000 0.503859 0.090901
0.482711 0.730800 0.000000
0.891895 0.811573 0.000000
0.911377 0.812948 0.000000
0.000995 0.000000 0.440036
0.181752 0.000000 0.521428
0.663852 0.007226 0.588880
0.748777 0.000000 0.550835
0.752347 0.004867 0.540122
0.000000 0.051192 0.425612
0.144373 0.070504 0.546697
0.691584 0.125994 0.613434
0.787583 0.147759 0.572063
0.793110 0.154646 0.560046
0.000000 0.411840 0.477549
0.000000 0.446953 0.536422
0.733259 0.740770 0.701760
0.884463 0.672681 0.630351
0.901457 0.643811 0.602978
0.000000 0.455786 0.407564
0.000000 0.556908 0.481625
0.418018 0.809432 0.566056
0.894014 0.874676 0.564158
0.911299 0.872587 0.547037
0.000000 0.457314 0.389994
0.000000 0.562229 0.459590
0.354264 0.792494 0.526577
0.884009 0.877394 0.535903
0.905775 0.879234 0.532363
0.059638 0.000000 0.557195
0.239506 0.000000 0.606784
0.684175 0.019231 0.704546
0.761796 0.000000 0.700942
0.768020 0.000000 0.698408
0.000000 0.150997 0.571295
0.202152 0.148807 0.685546
0.716290 0.178694 0.747106
0.796794 0.157555 0.736811
0.802277 0.153118 0.732584
0.000000 0.387515 0.619150
0.000000 0.458865 0.754243
0.779680 0.599064 0.843859
0.877424 0.578569 0.826676
0.883390 0.559540 0.819841
0.000000 0.488271 0.600906
0.000000 0.580151 0.693611
0.314802 0.816412 0.821176
0.890781 0.895026 0.809929
0.906638 0.893831 0.806553
0.000000 0.499142 0.605452
0.000000 0.602579 0.706269
0.121510 0.818604 0.830392
0.881458 0.904200 0.805672
0.902745 0.905910 0.803214
0.090311 0.000094 0.574009
0.292570 0.000000 0.630254
0.702902 0.026319 0.714660
0.764475 0.000000 0.711547
0.768894 0.000000 0.710623
0.000000 0.163130 0.630550
0.273537 0.167754 0.712601
0.737035 0.189387 0.759130
0.801113 0.168242 0.749992
0.805331 0.165652 0.748302
0.000000 0.400077 0.661789
0.000000 0.470428 0.781602
0.796602 0.584504 0.847647
0.875258 0.559837 0.833926
0.880291 0.551243 0.831427
0.000000 0.491287 0.613489
0.000000 0.601331 0.724543
0.456770 0.833328 0.830970
0.894927 0.891938 0.821596
0.905762 0.891955 0.820391
0.000000 0.497262 0.612814
0.000000 0.596073 0.711395
0.016959 0.806175 0.844640
0.879844 0.903500 0.819353
0.901944 0.905461 0.817466
