film-luts/Frontier luts/ClassicPrint 16mm DWG LUT v3 Ektachrome.cube
TITLE "John Razalo - ClassicPrint 16mm v3"
# © Copyright 2025 - John Razalo Visuals
LUT_3D_SIZE 33
0.0254368 0.0376593 0.0390021
0.0361944 0.0373999 0.037232
0.0545815 0.0384833 0.0365606
0.0799268 0.0402686 0.0362554
0.116213 0.0436713 0.0361181
0.167437 0.0471962 0.0347448
0.226688 0.0477455 0.031754
0.304616 0.0447089 0.0270542
0.380484 0.0344396 0.0201114
0.454398 0.0154879 0.0125124
0.515038 0 0.00610361
0.561883 0 0.0018616
0.593378 0 3.0518e-05
0.6215 0 0
0.643183 0 0.000167849
0.658686 0 0
0.670649 0.000488289 0.000701915
0.682719 0.0103609 0.00242618
0.693675 0.0290074 0.00321965
0.703761 0.048249 0.00810254
0.712886 0.0657511 0.0126497
0.720638 0.0808728 0.0178225
0.727062 0.0932631 0.0222629
0.732296 0.103426 0.0260777
0.736584 0.11075 0.0295567
0.740047 0.116655 0.0323644
0.742718 0.12137 0.0345464
0.744793 0.125048 0.0361944
0.74641 0.127901 0.0374456
0.7476 0.129992 0.0383154
0.747814 0.130388 0.038468
0.747814 0.130388 0.038468
0.747814 0.130388 0.038468
0.0226902 0.0478981 0.0372473
0.0309453 0.0456855 0.0360113
0.045243 0.0448768 0.0350042
0.0671397 0.0465705 0.0347753
0.097261 0.0485695 0.0342718
0.138064 0.0513619 0.0337377
0.193042 0.0525673 0.0314946
0.262318 0.0518654 0.028336
0.348028 0.0457313 0.0217899
0.42652 0.0301976 0.0139773
0.499092 0.00762951 0.00665293
0.554437 0 0.00128176
0.588724 0 0.000503548
0.618708 0 0
0.642603 0 4.57771e-05
0.660578 0 0
0.67332 0.00480659 0
0.685542 0.0180972 0.000915541
0.696803 0.0376593 0.00134279
0.70721 0.057496 0.00437934
0.71667 0.0755474 0.0087129
0.724681 0.090898 0.0136873
0.731411 0.103853 0.0183871
0.736934 0.113237 0.0228275
0.741451 0.120882 0.0265965
0.745129 0.127138 0.0297856
0.748043 0.132235 0.0323339
0.750347 0.136294 0.0342718
0.752148 0.139513 0.0357519
0.753491 0.141909 0.0367895
0.75375 0.142351 0.0369726
0.75375 0.142351 0.0369726
0.75375 0.142351 0.0369726
0.0190433 0.0615396 0.0367132
0.027512 0.0589914 0.0357214
0.0398413 0.0560922 0.034699
0.0569924 0.0547799 0.0336004
0.0839094 0.0561685 0.0329595
0.121355 0.0579995 0.0330205
0.171801 0.06009 0.0316014
0.236652 0.0602884 0.0287175
0.317082 0.0565042 0.0234379
0.401679 0.0448463 0.0153964
0.481773 0.0231174 0.00756847
0.542443 0.00354009 0.00062562
0.584634 0 0.000183108
0.616175 0 0
0.6421 0 0
0.662379 0.00109865 0
0.676524 0.0093843 0
0.68893 0.0274052 0.00030518
0.700587 0.0476234 0
0.711254 0.067628 0.00157168
0.720928 0.0860151 0.00611887
0.729213 0.101823 0.00999466
0.736278 0.114061 0.0153964
0.742107 0.123964 0.0200809
0.74696 0.132143 0.0243381
0.750973 0.138994 0.0278477
0.754116 0.144503 0.0306249
0.756664 0.149111 0.0328374
0.758709 0.152834 0.0345464
0.760204 0.155596 0.0357824
0.760494 0.156115 0.035996
0.760494 0.156115 0.035996
0.760494 0.156115 0.035996
0.0131685 0.0775769 0.0366979
0.0219577 0.0747692 0.0356603
0.0341955 0.0711223 0.0345769
0.0509346 0.0673533 0.0332647
0.0737469 0.0671855 0.0326085
0.108919 0.0686809 0.0326085
0.154604 0.0696269 0.0316472
0.220203 0.0698558 0.0287633
0.293263 0.0672465 0.0247959
0.379217 0.0597391 0.0172122
0.46038 0.0425727 0.00921645
0.528649 0.0206607 0.00180056
0.579385 0.00207523 0
0.613794 0 0
0.642008 0 0
0.664332 0.00646983 0
0.680461 0.0190433 0
0.693202 0.0384527 0
0.705104 0.0588388 0
0.715999 0.0792401 0
0.725872 0.0978561 0.00404364
0.734554 0.113191 0.00704967
0.741878 0.125673 0.0128786
0.748074 0.136141 0.0182193
0.753262 0.144976 0.0227817
0.757565 0.152422 0.0265049
0.760998 0.158587 0.0295109
0.763714 0.163531 0.0317845
0.765988 0.167727 0.0335393
0.767697 0.170886 0.0347448
0.768017 0.171481 0.0349584
0.768017 0.171481 0.0349584
0.768017 0.171481 0.0349584
0.00497444 0.098497 0.0372015
0.0145113 0.0936446 0.0358434
0.0257725 0.090425 0.0348821
0.0432136 0.0866712 0.0339208
0.0655222 0.0831311 0.0329442
0.0959487 0.0824903 0.0323949
0.14136 0.0830701 0.0319677
0.199557 0.0825055 0.0294194
0.282567 0.080705 0.0256657
0.362493 0.0738537 0.0190585
0.441962 0.0614633 0.0110933
0.51548 0.0414282 0.00311284
0.573327 0.0194247 0
0.611597 0.00671397 0
0.642756 0.00941482 0
0.666819 0.0172122 0
0.684947 0.0319219 0
0.698421 0.0512856 0
0.710613 0.0721599 0
0.72163 0.0926833 0
0.731792 0.110994 0.00280766
0.74081 0.126345 0.00552377
0.748592 0.139452 0.0108034
0.755215 0.150729 0.0162661
0.760693 0.160174 0.0209201
0.765393 0.168368 0.0247196
0.769238 0.175341 0.027863
0.772213 0.180804 0.0302281
0.774548 0.185092 0.0320134
0.776242 0.188235 0.0332494
0.776577 0.18883 0.0334783
0.776577 0.18883 0.0334783
0.776577 0.18883 0.0334783
0 0.122576 0.0370336
0.00408942 0.117174 0.0357366
0.0141146 0.114443 0.0351568
0.028748 0.112078 0.0345769
0.0528725 0.108248 0.0335699
0.0819409 0.104692 0.0328374
0.122911 0.102373 0.032517
0.182345 0.102037 0.0306706
0.267079 0.0988022 0.0267948
0.354864 0.0924239 0.019791
0.433539 0.0813611 0.0117647
0.507607 0.0643015 0.00306706
0.567254 0.045182 0
0.611231 0.0307469 0
0.644587 0.0280156 0
0.670344 0.0355993 0
0.690455 0.0492561 0
0.704982 0.0676127 0
0.717327 0.0885023 0
0.72871 0.108934 0
0.739178 0.126574 0.00201419
0.748669 0.142382 0.00332647
0.756848 0.156146 0.00859083
0.763714 0.167895 0.0143435
0.769711 0.178378 0.0193637
0.774563 0.186923 0.0233005
0.778347 0.193774 0.0265049
0.781292 0.199176 0.0289616
0.783673 0.203571 0.0307774
0.785458 0.206851 0.0320287
0.785779 0.207477 0.0322423
0.785779 0.207477 0.0322423
0.785779 0.207477 0.0322423
0 0.152102 0.0365148
0 0.14699 0.0352331
0.000579843 0.14432 0.0345159
0.00970474 0.142702 0.0340276
0.0298009 0.141985 0.0336004
0.0620737 0.1393 0.0329747
0.103853 0.132998 0.0328222
0.160876 0.12874 0.0321355
0.241779 0.124453 0.0280461
0.341161 0.118914 0.0207828
0.428656 0.10631 0.0119478
0.505013 0.0920272 0.00309758
0.56318 0.0764477 0
0.612924 0.0637675 0
0.648585 0.0567636 0
0.676036 0.0604868 0
0.697215 0.0718395 0
0.713497 0.088777 0
0.726055 0.108965 0
0.737682 0.127932 0
0.748501 0.145495 0.00129702
0.758083 0.161288 0.00146487
0.766613 0.175814 0.00683604
0.773816 0.188281 0.0131533
0.779782 0.198718 0.0180819
0.784726 0.207462 0.0220493
0.788739 0.214801 0.0251621
0.791852 0.220569 0.0275578
0.794293 0.225101 0.0293278
0.796078 0.228443 0.0305638
0.796414 0.229068 0.0307927
0.796414 0.229068 0.0307927
0.796414 0.229068 0.0307927
0 0.193744 0.0345617
0 0.183093 0.0339666
0 0.177584 0.0334325
0 0.176425 0.0330358
0.00332647 0.176257 0.0324712
0.0278935 0.176776 0.0318456
0.0741131 0.177966 0.0310826
0.137423 0.168719 0.0311284
0.217258 0.162737 0.0279088
0.31725 0.153735 0.0214237
0.417533 0.141955 0.0111086
0.501717 0.127337 0.00209049
0.564797 0.112184 0
0.618341 0.101289 0
0.65568 0.0946212 0
0.685222 0.0941787 0
0.706828 0.102953 0
0.724269 0.115938 0
0.737514 0.132952 0
0.749096 0.150927 0
0.759777 0.168109 0.000503548
0.770016 0.185275 0.000534066
0.778561 0.199832 0.00584421
0.785809 0.21239 0.0117952
0.791836 0.223102 0.0156558
0.79675 0.231861 0.0194247
0.800519 0.239185 0.0224308
0.803418 0.244968 0.0247654
0.805829 0.249821 0.0264591
0.807599 0.253407 0.0276036
0.80795 0.254093 0.0278019
0.80795 0.254093 0.0278019
0.80795 0.254093 0.0278019
0 0.257206 0.0281834
0 0.247135 0.028397
0 0.238544 0.028397
0 0.230793 0.0285039
0 0.225437 0.0283207
0 0.225391 0.0275273
0.0209049 0.228351 0.0262608
0.098436 0.225696 0.0251011
0.190036 0.214313 0.0239719
0.298604 0.207965 0.0168917
0.40412 0.193851 0.00675975
0.49366 0.175067 0.000701915
0.568948 0.160174 0
0.627634 0.146288 0
0.667582 0.141192 0
0.698604 0.139178 0
0.721462 0.143999 0
0.738811 0.15288 0
0.752712 0.164935 0
0.764233 0.181308 0
0.774945 0.198535 0
0.784802 0.214984 0
0.79324 0.229435 0.00425727
0.800092 0.242023 0.00796521
0.805783 0.252827 0.0105745
0.810575 0.26215 0.014725
0.814435 0.269764 0.0179446
0.817441 0.275776 0.0203708
0.819821 0.280583 0.0222477
0.821561 0.28423 0.0238346
0.821897 0.284932 0.0241245
0.821897 0.284932 0.0241245
0.821897 0.284932 0.0241245
0 0.327596 0.0139162
0 0.319539 0.0147707
0 0.311315 0.0155795
0 0.304952 0.0160372
0 0.298421 0.0163272
0 0.291478 0.0162509
0 0.284169 0.0165103
0.0131228 0.288975 0.013611
0.141344 0.286259 0.0108034
0.265126 0.281376 0.0043183
0.388663 0.27042 0
0.498299 0.252216 0
0.578759 0.230243 0
0.641794 0.213123 0
0.68748 0.202029 0
0.720958 0.199908 0
0.744183 0.201389 0
0.760922 0.206424 0
0.774685 0.215534 0
0.785977 0.22707 0
0.795438 0.240543 0
0.803708 0.25481 0
0.811383 0.268727 0.00167849
0.81799 0.281086 0.00344854
0.823438 0.291814 0.00280766
0.827909 0.30074 0.00772107
0.831785 0.309041 0.011429
0.834867 0.315801 0.0142824
0.837324 0.321248 0.0163424
0.839155 0.325307 0.0178988
0.839521 0.326101 0.018204
0.839521 0.326101 0.018204
0.839521 0.326101 0.018204
0 0.378286 0.000411994
0 0.374334 0.000335698
0 0.371054 0.000747692
0 0.3691 0.0011902
0 0.366033 0.00125124
0 0.361654 0.00114443
0 0.356802 0.0010071
0 0.352361 0.000503548
0.0470436 0.353231 0
0.212787 0.357153 0
0.359731 0.355581 0
0.493614 0.350225 0
0.590616 0.331395 0
0.664057 0.3093 0
0.719234 0.293797 0
0.751675 0.283299 0
0.775647 0.280537 0
0.791562 0.28249 0
0.80351 0.287022 0
0.813428 0.294469 0
0.821363 0.303029 0
0.828534 0.313008 0
0.835203 0.32398 0
0.840787 0.334447 0
0.845808 0.344747 0
0.850019 0.353414 0.0034638
0.853529 0.361364 0.00521859
0.856489 0.368399 0.00614939
0.8589 0.374136 0.0068513
0.860716 0.3785 0.00759899
0.861067 0.379355 0.00772107
0.861067 0.379355 0.00772107
0.861067 0.379355 0.00772107
0 0.418616 0
0 0.416434 0
0 0.414939 0
0 0.414588 0
0 0.415015 0
0 0.41622 0
0 0.41799 0
0 0.417197 0
0 0.419883 0
0.134051 0.428122 0
0.309194 0.441382 0
0.46894 0.443122 0
0.592767 0.436164 0
0.682841 0.420691 0
0.750301 0.404425 0
0.785626 0.391501 0
0.811322 0.382849 0
0.827436 0.379812 0
0.839139 0.381582 0
0.847837 0.385489 0
0.854917 0.391089 0
0.860792 0.398047 0
0.865904 0.405371 0
0.870146 0.412314 0
0.873808 0.419242 0
0.877089 0.425727 0
0.879728 0.431525 0
0.882124 0.437491 0
0.884016 0.442481 0
0.885496 0.446418 0
0.885786 0.447211 0
0.885786 0.447211 0
0.885786 0.447211 0
0 0.455528 0
0 0.454139 0
0 0.452949 0
0 0.453178 0
0 0.454154 0
0 0.456321 0
0 0.460029 0
0 0.465705 0
0 0.476066 0
0.0116884 0.491447 0
0.238621 0.512688 0
0.421683 0.528222 0
0.575463 0.530861 0
0.685817 0.52813 0
0.764233 0.516106 0
0.810147 0.502083 0
0.839597 0.489219 0
0.858763 0.483497 0
0.870848 0.481422 0
0.879362 0.482597 0
0.886107 0.485725 0
0.891142 0.490181 0
0.895033 0.495155 0
0.898344 0.500282 0
0.901198 0.505379 0
0.903853 0.510658 0
0.906081 0.515557 0
0.907835 0.520012 0
0.909346 0.524102 0
0.910552 0.527474 0
0.910796 0.528176 0
0.910796 0.528176 0
0.910796 0.528176 0
0 0.490181 0
0 0.490135 0
0 0.49044 0
0 0.491951 0
0 0.494667 0
0 0.498207 0
0 0.502846 0
0 0.509377 0
0 0.520531 0
0 0.537591 0
0.162158 0.559564 0
0.36466 0.587655 0
0.540002 0.608652 0
0.671214 0.613916 0
0.765469 0.610712 0
0.826307 0.602686 0
0.859709 0.590723 0
0.879728 0.581384 0
0.893294 0.57763 0
0.902678 0.576822 0
0.909377 0.578088 0
0.914656 0.580346 0
0.918151 0.583398 0
0.921004 0.586954 0
0.923445 0.590524 0
0.925612 0.594247 0
0.927443 0.597833 0
0.928878 0.601267 0
0.930098 0.604593 0
0.93106 0.607401 0
0.931258 0.607996 0
0.931258 0.607996 0
0.931258 0.607996 0
0 0.521355 0
0 0.522423 0
0 0.523919 0
0 0.526223 0
0 0.529641 0
0 0.533928 0
0 0.539757 0
0 0.547906 0
0 0.558862 0
0 0.575296 0
0.0637217 0.596735 0
0.311223 0.628168 0
0.491554 0.65771 0
0.64033 0.674586 0
0.752392 0.678904 0
0.83154 0.680613 0
0.869795 0.674128 0
0.895308 0.66862 0
0.910079 0.664179 0
0.91928 0.660914 0
0.92578 0.660349 0
0.930953 0.660975 0
0.934676 0.662684 0
0.937423 0.664866 0
0.939605 0.66743 0
0.941451 0.670024 0
0.942992 0.672572 0
0.944228 0.67509 0
0.94522 0.677592 0
0.946014 0.679835 0
0.946166 0.680323 0
0.946166 0.680323 0
0.946166 0.680323 0
0 0.545602 0.00416571
0 0.548501 0.00228885
0 0.55198 0.00117494
0 0.556054 0
0 0.56112 0
0 0.566903 0
0 0.573678 0
0 0.58175 0
0 0.592813 0
0 0.608698 0
0.0298161 0.629404 0
0.264866 0.658228 0
0.443458 0.68986 0
0.603738 0.715633 0
0.730083 0.730709 0
0.82266 0.734386 0
0.870176 0.734447 0
0.900832 0.73019 0
0.918242 0.72636 0
0.928618 0.723857 0
0.935683 0.72256 0
0.940688 0.722057 0
0.944457 0.72224 0
0.947173 0.72285 0
0.948943 0.72401 0
0.950332 0.725429 0
0.951507 0.726986 0
0.952499 0.728695 0
0.953262 0.730434 0
0.953841 0.731975 0
0.953948 0.732311 0
0.953948 0.732311 0
0.953948 0.732311 0
0 0.564004 0.0225223
0 0.567315 0.0195468
0 0.571603 0.0175479
0 0.576455 0.0147402
0 0.582208 0.012604
0 0.588663 0.011841
0 0.596124 0.010956
0 0.604883 0.00933852
0 0.615564 0.00494392
0 0.630121 0.000762951
0.00975052 0.649531 0
0.240711 0.677501 0
0.404425 0.708598 0
0.564401 0.738643 0
0.698146 0.760708 0
0.800931 0.77322 0
0.864073 0.77467 0
0.901183 0.774945 0
0.922042 0.772198 0
0.933639 0.769558 0
0.941665 0.768612 0
0.946868 0.768338 0
0.950774 0.768536 0
0.953628 0.768978 0
0.95555 0.769665 0
0.956847 0.770459 0
0.957931 0.771557 0
0.958801 0.772778 0
0.959472 0.773922 0
0.95993 0.774975 0
0.960021 0.775204 0
0.960021 0.775204 0
0.960021 0.775204 0
0 0.581445 0.0510567
0 0.585763 0.0500191
0 0.590524 0.0495613
0 0.595651 0.0469062
0 0.601358 0.045182
0 0.607874 0.0446326
0 0.615366 0.0463874
0 0.624094 0.0476692
0 0.63415 0.0422827
0 0.647181 0.03505
0.0358282 0.664164 0.0256046
0.223285 0.688579 0.0188144
0.376318 0.718074 0.000656138
0.532219 0.751369 0
0.665156 0.775158 0
0.773556 0.792798 0
0.852979 0.802121 0
0.894453 0.804074 0
0.920607 0.804562 0
0.935012 0.80325 0
0.944152 0.802106 0
0.949813 0.801114 0
0.954009 0.801038 0
0.957015 0.801358 0
0.959167 0.801877 0
0.960494 0.802518 0
0.961532 0.803357 0
0.962341 0.804227 0
0.962966 0.805112 0
0.963378 0.805936 0
0.963455 0.806119 0
0.963455 0.806119 0
0.963455 0.806119 0
0 0.59617 0.0780804
0 0.60087 0.0778973
0 0.605707 0.0770428
0 0.610864 0.0756542
0 0.616495 0.0749065
0 0.622995 0.0763714
0 0.630304 0.0785534
0 0.638483 0.0822461
0 0.648264 0.0864118
0 0.660304 0.0839551
0.037644 0.675425 0.0796979
0.204562 0.697002 0.075227
0.351705 0.723278 0.0557259
0.500557 0.755352 0.0196689
0.632273 0.782254 0.0021973
0.748104 0.803922 0
0.837903 0.816861 0
0.884245 0.822202 0
0.915816 0.824094 0
0.933547 0.824567 0
0.944152 0.82446 0
0.950759 0.824323 0.00015259
0.9552 0.824506 0
0.958343 0.824735 0
0.960815 0.825132 0.002121
0.96231 0.825666 0.00862135
0.963409 0.826261 0.014023
0.964218 0.826932 0.0187381
0.964843 0.827573 0.0223087
0.96527 0.828138 0.0251774
0.965347 0.82826 0.0259556
0.965347 0.82826 0.0259556
0.965347 0.82826 0.0259556
0 0.609262 0.103166
0 0.614359 0.10399
0 0.619577 0.10396
0 0.624674 0.10396
0 0.630259 0.103471
0 0.636652 0.104738
0 0.643748 0.106508
0 0.65153 0.110826
0 0.660975 0.117327
0 0.672633 0.120302
0.0317693 0.68632 0.117403
0.211627 0.705486 0.116487
0.336263 0.729122 0.121874
0.476448 0.758694 0.097734
0.60354 0.785595 0.0739452
0.722454 0.808759 0.0296178
0.816953 0.826139 0.0301366
0.872724 0.833677 0.0342718
0.908873 0.83769 0.0303197
0.92987 0.838666 0.00988785
0.942092 0.839292 0.00949111
0.949844 0.83978 0.029221
0.95491 0.840101 0.047837
0.958404 0.840467 0.0525368
0.961074 0.840986 0.0665141
0.962905 0.841459 0.0789502
0.964019 0.841886 0.0885634
0.964843 0.842329 0.0969558
0.965454 0.842756 0.103182
0.965881 0.843137 0.107698
0.965957 0.843229 0.108629
0.965957 0.843229 0.108629
0.965957 0.843229 0.108629
0 0.621225 0.125429
0 0.626902 0.127352
0 0.632227 0.128374
0 0.637598 0.128817
0 0.643107 0.128313
0 0.649409 0.12903
0 0.656031 0.13257
0 0.6636 0.137865
0 0.672801 0.144503
0 0.684077 0.150942
0.0409552 0.696895 0.151537
0.223056 0.714199 0.154559
0.328832 0.735485 0.164446
0.459251 0.762646 0.158206
0.581903 0.789136 0.155184
0.699397 0.812055 0.137896
0.794537 0.830076 0.126207
0.861463 0.842023 0.128817
0.900877 0.847059 0.126879
0.924743 0.849256 0.115602
0.939132 0.849897 0.115373
0.947997 0.850355 0.124041
0.953704 0.850813 0.130968
0.957595 0.851255 0.138811
0.960342 0.851591 0.145312
0.962432 0.852018 0.151629
0.963699 0.85243 0.158862
0.964553 0.852842 0.162799
0.965179 0.853223 0.166186
0.965621 0.853559 0.168917
0.965698 0.853635 0.169467
0.965698 0.853635 0.169467
0.965698 0.853635 0.169467
0 0.632273 0.146441
0 0.637949 0.148775
0 0.643748 0.150729
0 0.649134 0.151415
0 0.654627 0.151568
0 0.660471 0.153521
0 0.666957 0.157748
0 0.674327 0.163012
0 0.683314 0.169512
0.000686656 0.694194 0.177478
0.0663462 0.706523 0.180392
0.232837 0.722286 0.184283
0.328923 0.741802 0.193606
0.447608 0.766812 0.195575
0.566629 0.792416 0.195621
0.680247 0.814923 0.186618
0.775723 0.832746 0.174426
0.850782 0.846479 0.172747
0.892149 0.854032 0.17969
0.919341 0.856977 0.180163
0.935393 0.858061 0.177859
0.945739 0.858442 0.176318
0.951934 0.858839 0.178912
0.956146 0.859236 0.182544
0.959121 0.859693 0.186999
0.961349 0.860121 0.19086
0.962921 0.860502 0.194583
0.963821 0.860807 0.197436
0.964492 0.861097 0.199878
0.964965 0.861357 0.201816
0.965042 0.861418 0.202213
0.965042 0.861418 0.202213
0.965042 0.861418 0.202213
0 0.642023 0.164691
0 0.647852 0.167163
0 0.653758 0.169314
0 0.659159 0.170596
0 0.664591 0.171817
0 0.670146 0.174395
0 0.676463 0.178515
0 0.683818 0.183474
0 0.692622 0.189715
0.00527962 0.703227 0.198047
0.109972 0.715206 0.20325
0.241413 0.729595 0.207813
0.333639 0.747921 0.217517
0.443015 0.771267 0.225071
0.556695 0.795377 0.22652
0.665522 0.817288 0.22359
0.762036 0.835157 0.214878
0.841398 0.849027 0.206302
0.883986 0.857053 0.213657
0.913771 0.862104 0.218753
0.932006 0.864256 0.217411
0.942946 0.86508 0.216129
0.950042 0.865293 0.215122
0.95462 0.865599 0.216983
0.957763 0.865904 0.21976
0.960052 0.866178 0.222354
0.961761 0.866545 0.225452
0.962921 0.866835 0.228031
0.963638 0.867079 0.229938
0.964141 0.867277 0.231434
0.964218 0.867323 0.231785
0.964218 0.867323 0.231785
0.964218 0.867323 0.231785
0 0.650217 0.179904
0 0.656092 0.182361
0 0.661906 0.184817
0 0.667506 0.186587
0 0.672648 0.188983
0 0.67805 0.191455
0 0.684306 0.195499
0 0.691615 0.200458
0 0.700343 0.206928
0.0166781 0.710765 0.215152
0.149187 0.722423 0.221805
0.251194 0.736034 0.227543
0.339788 0.753201 0.237263
0.441016 0.775143 0.247578
0.550362 0.798001 0.249928
0.655253 0.819394 0.25156
0.751736 0.837293 0.246052
0.833951 0.851637 0.23859
0.876967 0.85919 0.240009
0.908705 0.865049 0.246311
0.928435 0.868269 0.248295
0.940475 0.869978 0.249012
0.948089 0.870451 0.247837
0.953079 0.870588 0.247105
0.956512 0.870848 0.248371
0.958877 0.871077 0.25008
0.960647 0.87129 0.25153
0.961959 0.871489 0.252888
0.962798 0.871672 0.254383
0.963302 0.871839 0.255619
0.963394 0.871885 0.255879
0.963394 0.871885 0.255879
0.963394 0.871885 0.255879
0 0.657023 0.192081
0 0.662898 0.194568
0 0.668666 0.197375
0 0.674083 0.200015
0 0.67921 0.202579
0 0.684428 0.205005
0 0.6907 0.209049
0 0.697917 0.214176
0 0.706584 0.220905
0.0469368 0.716884 0.229053
0.18294 0.728298 0.236271
0.26009 0.74136 0.243458
0.345739 0.757656 0.253391
0.441459 0.778653 0.264546
0.54696 0.800504 0.267979
0.648447 0.821271 0.272114
0.743984 0.839002 0.267567
0.82501 0.853162 0.263035
0.871153 0.860868 0.260227
0.904494 0.866941 0.265766
0.92517 0.87042 0.268803
0.938033 0.872435 0.270222
0.946395 0.873564 0.270283
0.951476 0.874037 0.269627
0.9552 0.874357 0.269688
0.957824 0.874693 0.270878
0.959701 0.874907 0.27187
0.961028 0.87512 0.273136
0.962005 0.875319 0.274235
0.96257 0.875441 0.27509
0.962661 0.875471 0.275273
0.962661 0.875471 0.275273
0.962661 0.875471 0.275273
0 0.662196 0.201816
0 0.668009 0.204608
0 0.673793 0.207446
0 0.678859 0.210391
0 0.683848 0.213031
0 0.689052 0.215488
0 0.695293 0.219409
0 0.702464 0.224704
0 0.71104 0.23151
0.0724804 0.721263 0.239673
0.197818 0.732433 0.247303
0.267521 0.745129 0.254673
0.3505 0.760937 0.264561
0.441718 0.781064 0.276265
0.543694 0.802106 0.279942
0.642344 0.822431 0.285603
0.737301 0.84007 0.282445
0.81796 0.854292 0.279286
0.866377 0.862226 0.275608
0.900908 0.868391 0.280171
0.922576 0.872023 0.282719
0.935851 0.874083 0.283589
0.944991 0.875456 0.284153
0.950195 0.876081 0.28397
0.953964 0.876554 0.284047
0.956786 0.876783 0.284276
0.958755 0.877119 0.285405
0.960159 0.877302 0.286213
0.961212 0.87744 0.2869
0.961898 0.877577 0.287663
0.962005 0.877607 0.287816
0.962005 0.877607 0.287816
0.962005 0.877607 0.287816
0 0.6663 0.209537
0 0.672084 0.212604
0 0.677592 0.215595
0 0.682689 0.218585
0 0.687541 0.221286
0 0.69276 0.223835
0 0.698924 0.227832
0 0.706081 0.233204
0 0.71458 0.239948
0.0934768 0.724773 0.248127
0.204685 0.735653 0.256214
0.274144 0.748226 0.2636
0.354452 0.763638 0.273381
0.443015 0.783078 0.284977
0.541665 0.803479 0.289448
0.638239 0.823423 0.29575
0.732387 0.840986 0.294163
0.812345 0.855116 0.291417
0.862486 0.863432 0.288411
0.897612 0.869383 0.290074
0.920241 0.873243 0.293248
0.934081 0.875395 0.294133
0.943511 0.876829 0.294759
0.949126 0.877623 0.295048
0.952987 0.878141 0.295293
0.95584 0.878508 0.295598
0.957916 0.878721 0.295888
0.959396 0.878996 0.296788
0.960464 0.879194 0.297353
0.961196 0.879286 0.297719
0.961334 0.879301 0.297795
0.961334 0.879301 0.297795
0.961334 0.879301 0.297795
0 0.669657 0.216052
0 0.675456 0.21915
0 0.68072 0.222293
0 0.685771 0.225345
0 0.690562 0.228061
0 0.695811 0.230655
0 0.70193 0.23476
0 0.709072 0.240192
0 0.717571 0.246967
