film-luts/Frontier luts/ClassicPrint 16mm DWG LUT v3 800T.cube
TITLE "John Razalo - ClassicPrint 16mm v3"
# © Copyright 2025 - John Razalo Visuals
LUT_3D_SIZE 5
0.0243687 0.0393988 0.0673686
0.34815 0.0341344 0.0608225
0.610437 0.0315862 0.0590829
0.674037 0.0400702 0.0595865
0.690822 0.0595712 0.0647135
0.0180667 0.210727 0.0668193
0.194614 0.210529 0.0607156
0.683528 0.113909 0.0590829
0.755444 0.170245 0.0590829
0.774792 0.200656 0.0590829
0.0180667 0.511513 0.0590829
0.0328069 0.581292 0.0590829
0.819745 0.706127 0.0590829
0.924453 0.668864 0.0590829
0.928115 0.660655 0.0590829
0.0180667 0.604089 0.140047
0.0931258 0.668025 0.15729
0.684108 0.767849 0.155703
0.943191 0.806867 0.153918
0.954421 0.805829 0.155016
0.0180667 0.628305 0.177111
0.16936 0.688304 0.201846
0.662165 0.775097 0.219059
0.937285 0.817533 0.198016
0.951461 0.818189 0.198016
0.0180667 0.032517 0.270344
0.254322 0.0374914 0.218692
0.631251 0.0315862 0.111254
0.687327 0.0403754 0.123919
0.703304 0.0601968 0.135546
0.0180667 0.195621 0.23714
0.161166 0.187518 0.196902
0.6851 0.106676 0.12015
0.764172 0.170748 0.135073
0.783413 0.203845 0.147921
0.0180667 0.546929 0.179065
0.0180667 0.604547 0.172519
0.802167 0.722759 0.10367
0.923415 0.682261 0.152346
0.928313 0.675044 0.165927
0.0180667 0.64535 0.304295
0.0559548 0.702159 0.329046
0.677974 0.795453 0.339651
0.937972 0.827176 0.275151
0.949569 0.826337 0.274998
0.0180667 0.668772 0.351705
0.099443 0.721019 0.378759
0.658915 0.801709 0.399329
0.931105 0.839597 0.347585
0.945846 0.839307 0.334844
0.0180667 0.0409705 0.456107
0.0407568 0.0407721 0.493111
0.635569 0.0315862 0.536797
0.719814 0.0315862 0.492393
0.730449 0.035462 0.483101
0.0180667 0.136294 0.523369
0.0180667 0.143404 0.554177
0.67837 0.121172 0.572763
0.786267 0.19324 0.54284
0.799908 0.227176 0.534844
0.0180667 0.583261 0.612436
0.0180667 0.63566 0.637613
0.746822 0.744366 0.675364
0.903563 0.688624 0.611444
0.910872 0.6804 0.594598
0.0180667 0.682185 0.600717
0.0180667 0.736812 0.624674
0.581338 0.82446 0.652522
0.915785 0.865415 0.640955
0.930282 0.8636 0.634424
0.0180667 0.699428 0.59707
0.0183413 0.749767 0.621897
0.57789 0.824445 0.64715
0.911162 0.872602 0.645212
0.928191 0.871931 0.639994
0.0180667 0.110506 0.540993
0.0494392 0.123476 0.575586
0.538506 0.108461 0.644099
0.74226 0.0323644 0.648173
0.746792 0.0328222 0.646632
0.0180667 0.29073 0.613245
0.0180667 0.317861 0.645151
0.593866 0.328328 0.702785
0.800824 0.241077 0.696849
0.80856 0.244984 0.694987
0.0180667 0.555077 0.678981
0.0180667 0.603555 0.716136
0.649302 0.661692 0.767544
0.876585 0.610071 0.758129
0.888701 0.617288 0.756725
0.0180667 0.676341 0.708888
0.0180667 0.733898 0.740444
0.468711 0.823407 0.778439
0.900298 0.876081 0.79089
0.917662 0.875349 0.788067
0.0180667 0.696025 0.718639
0.0180667 0.751324 0.747494
0.465339 0.828336 0.778729
0.894606 0.885161 0.791577
0.915602 0.885252 0.789151
0.0180667 0.134859 0.562142
0.0649882 0.15053 0.595666
0.520638 0.149538 0.655924
0.749706 0.0517128 0.660426
0.754391 0.0428321 0.659037
0.0180667 0.347433 0.636393
0.0180667 0.378546 0.667277
0.576593 0.404562 0.718868
0.810834 0.29752 0.714366
0.817624 0.283528 0.711574
0.0180667 0.577966 0.692699
0.0180667 0.624811 0.72723
0.622293 0.678904 0.7729
0.875303 0.627955 0.77052
0.885801 0.617121 0.767407
0.0180667 0.680552 0.71725
0.0180667 0.735378 0.748394
0.448981 0.820462 0.785794
0.897307 0.875227 0.801602
0.915404 0.874311 0.800183
0.0180667 0.691447 0.72224
0.0180667 0.746288 0.75172
0.421393 0.823209 0.78439
0.891814 0.884459 0.801587
0.913573 0.884916 0.800366
