film-luts/Frontier luts/ClassicPrint 16mm DWG LUT v3 Ektachrome.cube
TITLE "John Razalo - ClassicPrint 16mm v3"
# © Copyright 2025 - John Razalo Visuals
LUT_3D_SIZE 5
0.0254368 0.0376593 0.0390021
0.380484 0.0344396 0.0201114
0.670649 0.000488289 0.000701915
0.736584 0.11075 0.0295567
0.747814 0.130388 0.038468
0 0.257206 0.0281834
0.190036 0.214313 0.0239719
0.721462 0.143999 0
0.805783 0.252827 0.0105745
0.821897 0.284932 0.0241245
0 0.564004 0.0225223
0 0.615564 0.00494392
0.864073 0.77467 0
0.95555 0.769665 0
0.960021 0.775204 0
0 0.657023 0.192081
0 0.706584 0.220905
0.743984 0.839002 0.267567
0.9552 0.874357 0.269688
0.962661 0.875471 0.275273
0 0.678218 0.227344
0.00437934 0.722515 0.257588
0.707942 0.840131 0.316686
0.950256 0.880705 0.314626
0.959823 0.881987 0.315282
0.00723278 0.0167391 0.298009
0.292714 0.0320134 0.236805
0.666896 0 0.0954299
0.734936 0.0962234 0.131899
0.748028 0.122087 0.145342
0 0.198245 0.206546
0.147936 0.172778 0.169604
0.717357 0.134936 0.0975052
0.808164 0.253025 0.148196
0.824186 0.286381 0.164202
0 0.583825 0.169802
0 0.632349 0.172717
0.853437 0.785534 0.0769055
0.953109 0.782101 0.200015
0.957443 0.787961 0.226032
0 0.685557 0.321752
0 0.73164 0.349096
0.740932 0.856016 0.396307
0.951568 0.886336 0.380316
0.958968 0.887343 0.38645
0 0.706722 0.35819
0 0.747234 0.383551
0.706462 0.856764 0.43592
0.946273 0.893828 0.425483
0.956024 0.894423 0.422049
0 0.0775311 0.531929
0.16202 0.0429847 0.567712
0.673045 0 0.602609
0.7608 0.0532235 0.590723
0.770459 0.0928969 0.588281
0 0.134844 0.535012
0.137896 0.143572 0.58909
0.711742 0.117876 0.630808
0.817441 0.246571 0.627588
0.82945 0.279683 0.627008
0 0.609766 0.642634
0 0.653223 0.671626
0.802274 0.796414 0.751766
0.932769 0.789685 0.711391
0.939712 0.799558 0.704677
0 0.725429 0.654276
0 0.769482 0.680674
0.652094 0.885893 0.7355
0.930922 0.919127 0.735943
0.940093 0.919158 0.733379
0 0.7411 0.646983
0 0.780484 0.67071
0.617777 0.880034 0.720729
0.927016 0.924178 0.731563
0.938491 0.924071 0.729595
0.0688334 0.177676 0.62092
0.297154 0.175631 0.663966
0.736294 0.0978866 0.715572
0.777386 0.0578012 0.71635
0.781628 0.0693065 0.716655
0 0.291386 0.650339
0.291783 0.328862 0.715908
0.783017 0.292622 0.75996
0.825849 0.266758 0.755764
0.832013 0.273426 0.756024
0 0.588373 0.735164
0 0.641382 0.778836
0.860792 0.688533 0.841779
0.910842 0.667979 0.834791
0.920989 0.689891 0.837125
0 0.712306 0.758053
0 0.761364 0.789837
0.564843 0.879301 0.850477
0.920348 0.922362 0.866957
0.931411 0.923186 0.866194
0 0.732204 0.769238
0 0.775204 0.796323
0.524651 0.878874 0.848341
0.915312 0.929671 0.867292
0.929595 0.929976 0.866575
0.128862 0.197345 0.641184
0.400839 0.198535 0.691371
0.758114 0.128801 0.725475
0.784604 0.0957504 0.724315
0.786236 0.0954757 0.724376
0 0.330983 0.676509
0.421332 0.372396 0.746563
0.807172 0.320668 0.770886
0.834623 0.295399 0.767224
0.837354 0.294331 0.766827
0 0.608545 0.751232
0 0.665812 0.797238
0.877791 0.687633 0.846616
0.911681 0.667994 0.841337
0.915724 0.666636 0.840803
0 0.722683 0.770352
0 0.771221 0.802121
0.695476 0.897002 0.864134
0.924285 0.921477 0.873945
0.930373 0.921477 0.87361
0 0.728222 0.772488
0 0.771405 0.800092
0.501915 0.875059 0.853132
0.913634 0.928771 0.874327
0.928313 0.929244 0.873899
