film-luts/Frontier luts/ClassicPrint 16mm DWG LUT v3 500T.cube
TITLE "John Razalo - ClassicPrint 16mm v3"
# © Copyright 2025 - John Razalo Visuals
LUT_3D_SIZE 5
0.0244144 0.018967 0.032929
0.271122 0.0145724 0.0260929
0.602777 0.0284428 0.0333867
0.662318 0.0467384 0.0456245
0.669917 0.0493477 0.0476081
0.0105287 0.182712 0.0341039
0.159167 0.189212 0.0411536
0.641855 0.0699626 0.0349432
0.719188 0.149538 0.0473487
0.730205 0.171557 0.0495308
0.00770581 0.473564 0.0420691
0.0458534 0.486061 0.0427558
0.724376 0.696574 0.0642252
0.882902 0.672206 0.0585946
0.887907 0.668391 0.059968
0.0264286 0.522423 0.0666972
0.0571756 0.550866 0.0569772
0.546349 0.73608 0.0789197
0.854932 0.780179 0.0791638
0.87071 0.778408 0.077821
0.0299077 0.529229 0.0824903
0.0597238 0.56231 0.0595407
0.532296 0.737469 0.0798962
0.846235 0.78854 0.0824445
0.86363 0.787366 0.081239
0.0164645 0.0171817 0.252644
0.215244 0.0175784 0.187884
0.616144 0.0274205 0.0647746
0.674998 0.0449836 0.0742809
0.683085 0.047776 0.080293
0.0074464 0.199878 0.262287
0.168414 0.191409 0.22002
0.65597 0.0602731 0.0647135
0.730892 0.13814 0.0716259
0.742 0.162951 0.0733654
0.0074464 0.502556 0.150713
0.0448615 0.509453 0.10985
0.72578 0.723415 0.084184
0.890135 0.696391 0.0813306
0.894667 0.692729 0.0826276
0.0204776 0.555032 0.241276
0.0574655 0.583108 0.207477
0.570611 0.764569 0.269352
0.857664 0.807141 0.22266
0.873091 0.806516 0.203647
0.024918 0.561746 0.258228
0.0602426 0.596521 0.228336
0.558572 0.767269 0.28632
0.849042 0.814923 0.272892
0.866041 0.814618 0.255116
0.00883497 0.0468757 0.499138
0.107668 0.0382849 0.495247
0.618616 0.0363012 0.491066
0.699046 0.0464942 0.47985
0.705852 0.0488441 0.479774
0.0074464 0.178363 0.548852
0.0643015 0.15845 0.548653
0.663355 0.0626078 0.545907
0.752468 0.158282 0.536568
0.761471 0.183032 0.536767
0.0074464 0.571008 0.623896
0.0289464 0.574563 0.624109
0.754513 0.764019 0.679332
0.877714 0.721355 0.624781
0.882246 0.716045 0.618372
0.0074464 0.616526 0.605158
0.0436408 0.63003 0.597055
0.543206 0.812207 0.639796
0.864118 0.854536 0.648173
0.875547 0.854231 0.645121
0.0074464 0.618936 0.601892
0.0472419 0.636011 0.591379
0.518334 0.810605 0.63154
0.857832 0.858213 0.646204
0.871168 0.85864 0.644602
0.0378271 0.125673 0.561608
0.165927 0.108522 0.588846
0.649073 0.0523995 0.60058
0.704662 0.0512093 0.585351
0.709499 0.0513313 0.583566
0.0274205 0.294682 0.618723
0.0772259 0.307378 0.657191
0.704906 0.24831 0.668986
0.757687 0.195056 0.648478
0.762295 0.191135 0.646113
0.00753796 0.549615 0.680568
0.0619974 0.582879 0.705501
0.790524 0.678492 0.760922
0.856519 0.647654 0.744549
0.862028 0.644831 0.742336
0.0074464 0.620615 0.683726
0.0310674 0.625208 0.685054
0.433219 0.807431 0.766644
0.867521 0.860548 0.768719
0.876219 0.860151 0.767514
0.0074464 0.624155 0.683726
0.0352026 0.632074 0.686336
0.390509 0.805875 0.763577
0.863996 0.866316 0.768246
0.874052 0.866545 0.767437
0.0435035 0.137758 0.571435
0.212863 0.127001 0.604883
0.663554 0.0548867 0.610727
0.709026 0.0533455 0.59649
0.712566 0.0534371 0.59527
0.0347906 0.315526 0.630076
0.140337 0.337087 0.67541
0.721706 0.271794 0.680613
0.763958 0.222034 0.661234
0.767147 0.218769 0.659373
0.0184024 0.547372 0.682048
0.0702831 0.60119 0.720378
0.802274 0.670542 0.764355
0.854795 0.6365 0.749615
0.858473 0.632197 0.747723
0.0074464 0.62092 0.688258
0.0370794 0.63035 0.692439
0.546792 0.823682 0.777447
0.869505 0.859724 0.775418
0.875807 0.859434 0.774639
0.0074464 0.623804 0.687388
0.0340124 0.630884 0.690227
0.368841 0.803052 0.769909
0.863233 0.866056 0.775448
0.873762 0.8663 0.774716
