film-luts/Frontier luts/ClassicPrint 16mm DWG LUT v3 800T.cube
TITLE "John Razalo - ClassicPrint 16mm v3"
# © Copyright 2025 - John Razalo Visuals
LUT_3D_SIZE 9
0.0243687 0.0393988 0.0673686
0.0700999 0.0434577 0.068101
0.34815 0.0341344 0.0608225
0.544839 0.0315862 0.0590829
0.610437 0.0315862 0.0590829
0.645808 0.0315862 0.0590829
0.674037 0.0400702 0.0595865
0.688365 0.0566567 0.0635996
0.690822 0.0595712 0.0647135
0.0207828 0.0710307 0.070222
0.0546426 0.0727092 0.0699168
0.242512 0.0731365 0.066041
0.538903 0.0382239 0.0590829
0.64416 0.0335546 0.0590829
0.684749 0.0648814 0.0590829
0.714015 0.0983597 0.0590829
0.729091 0.119341 0.0590829
0.731655 0.123217 0.0590829
0.0180667 0.210727 0.0668193
0.018143 0.213977 0.0653239
0.194614 0.210529 0.0607156
0.552453 0.149523 0.0590829
0.683528 0.113909 0.0590829
0.725841 0.130297 0.0590829
0.755444 0.170245 0.0590829
0.771923 0.195895 0.0590829
0.774792 0.200656 0.0590829
0.0180667 0.406561 0.0590829
0.0180667 0.429511 0.0590829
0.0407111 0.463371 0.0590829
0.567742 0.505348 0.0590829
0.784726 0.412192 0.0590829
0.824826 0.360616 0.0590829
0.837049 0.357839 0.0590829
0.843732 0.367788 0.0590829
0.845136 0.370901 0.0590829
0.0180667 0.511513 0.0590829
0.0180667 0.546441 0.0590829
0.0328069 0.581292 0.0590829
0.420996 0.655482 0.0590829
0.819745 0.706127 0.0590829
0.910155 0.684749 0.0590829
0.924453 0.668864 0.0590829
0.927718 0.661692 0.0590829
0.928115 0.660655 0.0590829
0.0180667 0.566491 0.0823072
0.0185855 0.604608 0.0800183
0.0564736 0.634333 0.0873732
0.340002 0.682445 0.0804913
0.745449 0.75787 0.0590829
0.917861 0.778836 0.0590829
0.946288 0.775189 0.0590829
0.952605 0.773068 0.0590829
0.953368 0.77261 0.0590829
0.0180667 0.604089 0.140047
0.0287022 0.6421 0.147387
0.0931258 0.668025 0.15729
0.350698 0.704646 0.16733
0.684108 0.767849 0.155703
0.897734 0.803067 0.152499
0.943191 0.806867 0.153918
0.95314 0.805982 0.154742
0.954421 0.805829 0.155016
0.0180667 0.624689 0.171527
0.0431983 0.660914 0.182864
0.155856 0.685374 0.195346
0.377874 0.718868 0.208194
0.66392 0.773938 0.210819
0.88249 0.809766 0.18938
0.938308 0.816144 0.192706
0.950393 0.816663 0.192615
0.952102 0.816724 0.192767
0.0180667 0.628305 0.177111
0.0467842 0.664073 0.189059
0.16936 0.688304 0.201846
0.383352 0.721325 0.215
0.662165 0.775097 0.219059
0.879683 0.810819 0.195331
0.937285 0.817533 0.198016
0.949737 0.818128 0.197879
0.951461 0.818189 0.198016
0.0213321 0.0409247 0.0965896
0.0551156 0.0436866 0.0925765
0.358831 0.0346685 0.0799725
0.56202 0.0315862 0.0679179
0.618341 0.0315862 0.0665904
0.653269 0.0315862 0.0758373
0.681178 0.0406958 0.0897536
0.695232 0.0574044 0.0991989
0.697627 0.0602426 0.100908
0.0193179 0.0667887 0.0898604
0.0473182 0.0669871 0.0878004
0.239078 0.0699931 0.0813458
0.543664 0.0361639 0.0678721
0.646403 0.0327916 0.0650645
0.690837 0.0644999 0.0754101
0.720378 0.09897 0.0904402
0.735241 0.120516 0.100862
0.737713 0.124407 0.102678
0.0180667 0.206409 0.0931716
0.0180667 0.186755 0.0887617
0.190997 0.195621 0.0829328
0.5411 0.145983 0.067689
0.682734 0.110719 0.0603799
0.729793 0.127581 0.0728923
0.760616 0.170886 0.0901045
0.777188 0.197864 0.102419
0.780072 0.20293 0.104707
0.0180667 0.418219 0.0709697
0.0180667 0.430579 0.0645151
0.0276188 0.455421 0.0590829
0.549752 0.494652 0.0590829
0.779507 0.410788 0.0590829
0.823133 0.356588 0.0590829
0.838285 0.356573 0.0764172
0.846311 0.368841 0.0947433
0.847868 0.372595 0.0971084
0.0180667 0.532555 0.109712
0.0180667 0.564508 0.10248
0.0196994 0.596674 0.082414
0.400092 0.665797 0.0590829
0.814145 0.713039 0.0590829
0.909148 0.689082 0.0590829
0.924331 0.673533 0.0590829
0.928573 0.667918 0.0753185
0.929152 0.66717 0.0784924
0.0180667 0.589715 0.170977
0.0180667 0.625071 0.174319
0.0385901 0.653315 0.18265
0.321248 0.69987 0.183505
0.739162 0.772351 0.142458
0.915007 0.790249 0.132906
0.944732 0.786221 0.139055
0.9514 0.783383 0.149004
0.952209 0.782879 0.150057
0.0180667 0.627359 0.224247
0.0222782 0.663554 0.236225
0.0716716 0.687526 0.249271
0.336263 0.723033 0.264652
0.681437 0.783795 0.25774
0.894835 0.815015 0.215991
0.940856 0.817777 0.2112
0.951064 0.816861 0.211337
0.952346 0.816754 0.211734
0.0180667 0.647532 0.261265
0.0318456 0.681941 0.277653
0.131472 0.704479 0.291737
0.366232 0.73698 0.309071
0.66186 0.789471 0.311559
0.879332 0.822797 0.276768
0.935729 0.827237 0.254093
0.948013 0.827649 0.249226
0.949737 0.827665 0.248402
0.0180667 0.651133 0.268528
0.0339971 0.685039 0.28542
0.146365 0.707347 0.299535
0.372229 0.739361 0.316258
0.660151 0.790478 0.319417
0.876448 0.824048 0.287327
0.934661 0.828687 0.262837
0.947311 0.82916 0.257496
0.949035 0.829175 0.256809
0.0180667 0.032517 0.270344
0.0281376 0.0325628 0.26949
0.254322 0.0374914 0.218692
0.564462 0.0315862 0.147524
0.631251 0.0315862 0.111254
0.661158 0.0315862 0.109758
0.687327 0.0403754 0.123919
0.700969 0.0573281 0.133745
0.703304 0.0601968 0.135546
0.0180667 0.0598611 0.267628
0.0242466 0.0614481 0.229419
0.23006 0.06981 0.193225
0.556176 0.0371862 0.138949
0.655909 0.0343328 0.114137
0.697063 0.0640421 0.114534
0.7252 0.0988022 0.129564
0.739635 0.120562 0.140154
0.742031 0.124529 0.142
0.0180667 0.195621 0.23714
0.0180667 0.18996 0.2121
0.161166 0.187518 0.196902
0.528283 0.140841 0.144564
0.6851 0.106676 0.12015
0.73373 0.125643 0.11928
0.764172 0.170748 0.135073
0.780545 0.19852 0.145907
0.783413 0.203845 0.147921
0.0180667 0.438193 0.178073
0.0180667 0.447227 0.167666
0.0180667 0.4589 0.162432
0.533837 0.491432 0.138766
0.773175 0.40708 0.118257
0.82359 0.358282 0.12462
0.838819 0.353948 0.140261
0.847059 0.367895 0.150729
0.84863 0.371908 0.152636
0.0180667 0.546929 0.179065
0.0180667 0.576257 0.177432
0.0180667 0.604547 0.172519
0.34728 0.669932 0.139834
0.802167 0.722759 0.10367
0.90695 0.698497 0.118486
0.923415 0.682261 0.152346
0.927749 0.675944 0.16376
0.928313 0.675044 0.165927
0.0180667 0.60676 0.239185
0.0180667 0.641184 0.245579
0.0274968 0.667079 0.254124
0.287724 0.7122 0.262623
0.729809 0.784558 0.227817
0.911498 0.8009 0.196902
0.942489 0.796368 0.201068
0.949187 0.793408 0.210742
0.950042 0.79295 0.212528
0.0180667 0.64535 0.304295
0.0183261 0.680125 0.317723
0.0559548 0.702159 0.329046
0.319844 0.735912 0.344335
0.677974 0.795453 0.339651
0.891203 0.826673 0.302403
0.937972 0.827176 0.275151
0.948272 0.826413 0.274052
0.949569 0.826337 0.274998
0.0180667 0.665309 0.344579
0.0220645 0.697658 0.359899
0.0922713 0.718364 0.371252
0.355932 0.749493 0.386892
0.660334 0.800641 0.391058
0.876646 0.834226 0.365637
0.932326 0.837964 0.335775
0.9449 0.837674 0.325475
0.946609 0.837552 0.324147
0.0180667 0.668772 0.351705
0.0234989 0.700526 0.36733
0.099443 0.721019 0.378759
0.362966 0.751842 0.394232
0.658915 0.801709 0.399329
0.873823 0.835447 0.376928
0.931105 0.839597 0.347585
0.944121 0.839429 0.336339
0.945846 0.839307 0.334844
0.0180667 0.0321202 0.389364
0.0224002 0.0319219 0.39498
0.0920119 0.0316167 0.421134
0.498787 0.0315862 0.402991
0.649241 0.0315862 0.291493
0.680171 0.0315862 0.236866
0.699016 0.0354009 0.223545
0.709651 0.0527047 0.224079
0.711635 0.0557107 0.225238
0.0180667 0.050782 0.416037
0.0180667 0.050248 0.411795
0.0920424 0.0523537 0.411475
0.482689 0.0366827 0.37847
0.667124 0.0323796 0.29366
0.715419 0.0698253 0.249897
0.735866 0.103487 0.238239
0.747066 0.122896 0.238529
0.749203 0.126879 0.239796
0.0180667 0.124804 0.449516
0.0180667 0.127108 0.446067
0.0847486 0.132235 0.435828
0.514061 0.126131 0.396704
0.69633 0.106508 0.313191
0.747219 0.136141 0.263951
0.770779 0.174563 0.25066
0.784314 0.200046 0.250599
0.78677 0.205066 0.251759
0.0180667 0.457755 0.487785
0.0180667 0.457679 0.474952
0.0180667 0.459342 0.464256
0.487053 0.494545 0.462013
0.759213 0.39649 0.362646
0.818021 0.344289 0.294087
0.833906 0.33872 0.266224
0.842542 0.356909 0.263111
0.844343 0.361898 0.263874
0.0180667 0.577523 0.411017
0.0180667 0.604623 0.407889
0.0180667 0.627878 0.396201
0.199893 0.687816 0.403006
0.781247 0.740536 0.374441
0.898238 0.71046 0.317082
0.918929 0.694072 0.294224
0.92459 0.687251 0.288609
0.925246 0.685969 0.28835
0.0180667 0.627207 0.372183
0.0180667 0.660273 0.379431
0.0180667 0.68481 0.388312
0.144183 0.724163 0.399664
0.692729 0.799588 0.391165
0.900099 0.819852 0.360128
0.935286 0.813428 0.347692
0.942702 0.809201 0.352255
0.943679 0.808591 0.354025
0.0180667 0.6598 0.403403
0.0180667 0.694118 0.417685
0.0274052 0.714717 0.431205
0.244221 0.745647 0.446372
0.648402 0.805844 0.452842
0.880552 0.842191 0.438544
0.930541 0.842527 0.414481
0.941512 0.841749 0.414908
0.94284 0.841672 0.416281
0.0180667 0.679438 0.437781
0.018555 0.711315 0.454307
0.0548257 0.730739 0.46743
0.307225 0.75964 0.48246
0.638621 0.81059 0.491096
0.866911 0.847547 0.485222
0.925597 0.852186 0.463676
0.938491 0.851713 0.455268
0.9402 0.851545 0.454047
0.0180667 0.682918 0.444663
0.0193332 0.714183 0.461311
0.0588998 0.733379 0.474342
0.317098 0.762219 0.489281
0.638392 0.811734 0.498146
0.864561 0.848508 0.493858
0.924529 0.853635 0.472877
0.937819 0.853391 0.46424
0.939559 0.853208 0.462882
0.0180667 0.0409705 0.456107
0.0180667 0.0411078 0.470939
0.0407568 0.0407721 0.493111
0.284596 0.0337072 0.546441
0.635569 0.0315862 0.536797
0.700603 0.0315862 0.506508
0.719814 0.0315862 0.492393
0.728923 0.0339971 0.484504
0.730449 0.035462 0.483101
0.0180667 0.0879988 0.493568
0.0180667 0.0896468 0.508461
0.0246281 0.0901198 0.528923
0.301808 0.0826581 0.560891
0.65275 0.0351568 0.549218
0.733303 0.0575723 0.531868
0.75407 0.105882 0.519112
0.764096 0.131609 0.512169
0.765774 0.136141 0.510948
0.0180667 0.136294 0.523369
0.0180667 0.139971 0.538628
0.0180667 0.143404 0.554177
0.329885 0.150027 0.584009
0.67837 0.121172 0.572763
0.759823 0.145006 0.553841
0.786267 0.19324 0.54284
0.797879 0.221897 0.535943
0.799908 0.227176 0.534844
0.0180667 0.330861 0.583017
0.0180667 0.342229 0.593866
0.0180667 0.355718 0.605737
0.360067 0.38204 0.641718
0.738094 0.343587 0.628489
0.810101 0.319982 0.59147
0.835218 0.354879 0.574243
0.845655 0.384695 0.564904
0.847272 0.389899 0.563241
0.0180667 0.583261 0.612436
0.0180667 0.610056 0.62623
0.0180667 0.63566 0.637613
0.0251316 0.691859 0.662074
0.746822 0.744366 0.675364
0.879652 0.712016 0.63949
0.903563 0.688624 0.611444
0.91017 0.681361 0.59707
0.910872 0.6804 0.594598
0.0180667 0.651453 0.609369
0.0180667 0.684398 0.622354
0.0180667 0.71075 0.632059
0.0209506 0.749935 0.646326
0.638865 0.823514 0.662135
0.880507 0.844831 0.65005
0.920134 0.837125 0.633173
0.929198 0.831189 0.622171
0.930556 0.830289 0.620081
0.0180667 0.682185 0.600717
0.0180667 0.715007 0.614481
0.0180667 0.736812 0.624674
0.039292 0.764523 0.638437
0.581338 0.82446 0.652522
0.855283 0.863874 0.652079
0.915785 0.865415 0.640955
0.928664 0.863966 0.635416
0.930282 0.8636 0.634424
0.0180667 0.696773 0.597284
0.0180667 0.728664 0.610925
0.018143 0.74789 0.622049
0.142367 0.773114 0.635142
0.575891 0.824002 0.647578
0.840726 0.865751 0.651957
0.911971 0.871748 0.644282
0.926711 0.871107 0.639612
0.928542 0.870909 0.638865
0.0180667 0.699428 0.59707
0.0180667 0.730785 0.610651
0.0183413 0.749767 0.621897
0.163943 0.774868 0.634791
0.57789 0.824445 0.64715
0.838666 0.865827 0.652079
0.911162 0.872602 0.645212
0.92636 0.872129 0.640696
0.928191 0.871931 0.639994
0.0180667 0.0744182 0.505852
0.0180667 0.0783856 0.523705
0.0378119 0.0826734 0.542412
0.16936 0.0827955 0.581216
0.597299 0.0357671 0.623392
0.71223 0.0315862 0.617884
0.731685 0.0315862 0.61326
0.740887 0.0318914 0.614008
0.742443 0.0319524 0.614252
0.0180667 0.139834 0.543679
0.0180667 0.145129 0.559884
0.0180667 0.153841 0.578408
0.176715 0.163073 0.615412
0.622477 0.128511 0.651804
0.74078 0.0860761 0.642634
0.763622 0.105592 0.638346
0.773419 0.133944 0.6392
0.775097 0.138918 0.639521
0.0180667 0.20824 0.574212
0.0180667 0.216739 0.590784
0.0180667 0.228336 0.608164
0.17911 0.246204 0.644724
0.645457 0.218265 0.673091
0.764355 0.178637 0.662211
0.792966 0.20209 0.660456
0.80444 0.232364 0.662455
0.806531 0.238499 0.662989
0.0180667 0.327565 0.610162
0.0180667 0.341176 0.62945
0.0180667 0.359197 0.647425
0.177874 0.390799 0.681208
0.679591 0.36939 0.702403
0.800961 0.326635 0.69099
0.832044 0.353979 0.689677
0.845487 0.391638 0.691447
0.847471 0.399191 0.691783
0.0180667 0.557595 0.661189
0.0180667 0.582544 0.680232
0.0180667 0.607019 0.69662
0.0188907 0.654749 0.72636
0.702525 0.695384 0.755673
0.863783 0.670726 0.745953
0.890791 0.655558 0.7346
0.898405 0.653941 0.729107
0.89926 0.654505 0.728252
0.0180667 0.64538 0.677546
0.0180667 0.677745 0.696025
0.0180667 0.707378 0.711299
0.0180667 0.743389 0.728969
0.591257 0.821012 0.757153
0.86537 0.848325 0.763088
0.91014 0.841306 0.754742
0.920241 0.836362 0.749157
0.921752 0.835523 0.748028
0.0180667 0.684337 0.692668
0.0180667 0.715923 0.709316
0.0180667 0.741527 0.721263
0.0187381 0.770443 0.734173
0.527001 0.830655 0.755261
0.836118 0.872724 0.762539
0.905791 0.876036 0.757595
0.920043 0.875029 0.753704
0.921736 0.874693 0.752911
0.0180667 0.701656 0.698283
0.0180667 0.733211 0.714107
0.0180667 0.75433 0.723888
0.0314946 0.780133 0.735302
0.519615 0.831998 0.753399
0.817151 0.875883 0.760967
0.901442 0.882918 0.758083
0.918379 0.882628 0.754742
0.920165 0.882429 0.753964
0.0180667 0.704463 0.699031
0.0180667 0.735729 0.714626
0.0180667 0.756619 0.724285
0.0346075 0.781857 0.7355
0.520348 0.832303 0.753079
0.813993 0.876188 0.760754
0.900374 0.883879 0.758206
0.918029 0.883741 0.755001
0.919875 0.883558 0.754299
0.0180667 0.110506 0.540993
0.0180667 0.117968 0.560037
0.0494392 0.123476 0.575586
0.168963 0.131121 0.605615
0.538506 0.108461 0.644099
0.718502 0.0406806 0.650797
0.74226 0.0323644 0.648173
0.745983 0.0325628 0.646784
0.746792 0.0328222 0.646632
0.0180667 0.191928 0.580301
0.0180667 0.20238 0.597879
0.018616 0.212573 0.613214
0.168307 0.228351 0.641917
0.569299 0.214832 0.675837
0.748211 0.163195 0.678981
0.773617 0.142992 0.67454
0.777951 0.143297 0.672053
0.779019 0.145602 0.672084
0.0180667 0.29073 0.613245
0.0180667 0.304891 0.6309
0.0180667 0.317861 0.645151
0.155764 0.340169 0.672602
0.593866 0.328328 0.702785
0.775525 0.269688 0.703853
0.800824 0.241077 0.696849
0.80679 0.24036 0.694469
0.80856 0.244984 0.694987
0.0180667 0.408957 0.643977
0.0180667 0.426535 0.662226
0.0180667 0.44358 0.677745
0.14139 0.470588 0.703655
0.621241 0.468208 0.731319
0.804013 0.408438 0.729198
0.832486 0.379294 0.722499
0.843168 0.391653 0.722454
0.845426 0.397452 0.722988
0.0180667 0.555077 0.678981
0.0180667 0.581521 0.699992
0.0180667 0.603555 0.716136
0.0546731 0.6392 0.74136
0.649302 0.661692 0.767544
0.845792 0.632013 0.765637
0.876585 0.610071 0.758129
0.886763 0.614221 0.756664
0.888701 0.617288 0.756725
0.0180667 0.647089 0.697627
0.0180667 0.678676 0.717678
0.0180667 0.705592 0.733333
0.0181277 0.743069 0.752819
0.55169 0.811063 0.781415
0.854871 0.839567 0.792523
0.904204 0.83328 0.788296
0.915938 0.828824 0.785046
0.917571 0.828077 0.784421
0.0180667 0.676341 0.708888
0.0180667 0.706523 0.726146
0.0180667 0.733898 0.740444
0.0180972 0.763561 0.754894
0.468711 0.823407 0.778439
0.824231 0.87129 0.792126
0.900298 0.876081 0.79089
0.915846 0.875563 0.788571
0.917662 0.875349 0.788067
0.0180667 0.692912 0.717128
0.0180667 0.724681 0.734447
0.0180667 0.74873 0.746456
0.0196689 0.775418 0.758892
0.463508 0.827649 0.778622
0.802838 0.87538 0.791272
0.895659 0.884123 0.791547
0.913985 0.884199 0.789456
0.915892 0.884092 0.788998
0.0180667 0.696025 0.718639
0.0180667 0.727901 0.735897
0.0180667 0.751324 0.747494
0.0201877 0.777371 0.759579
0.465339 0.828336 0.778729
0.799283 0.875761 0.791012
0.894606 0.885161 0.791577
0.913405 0.885313 0.789578
0.915602 0.885252 0.789151
0.0180667 0.131121 0.559075
0.0194095 0.140047 0.578408
0.0623331 0.146334 0.592721
0.18468 0.155474 0.619623
0.522377 0.143969 0.654185
0.720729 0.0830091 0.66247
0.748608 0.0436561 0.658503
0.752804 0.0377356 0.657603
0.753185 0.0374914 0.657465
0.0180667 0.22771 0.599786
0.0180667 0.241154 0.617716
0.0194705 0.252186 0.631724
0.182315 0.2692 0.657374
0.553567 0.262806 0.687892
0.752743 0.209537 0.692454
0.781155 0.179202 0.687602
0.786648 0.172351 0.686091
0.787045 0.171817 0.685863
0.0180667 0.338949 0.633051
0.0180667 0.356298 0.651041
0.0180667 0.369482 0.664118
0.164187 0.393515 0.688624
0.578515 0.39353 0.716533
0.77969 0.328283 0.717906
0.809323 0.288212 0.712093
0.815427 0.277348 0.709636
0.816083 0.27628 0.7093
0.0180667 0.461173 0.66302
0.0180667 0.482246 0.681315
0.0180667 0.498116 0.695308
0.144625 0.524117 0.718486
0.603174 0.530495 0.744076
0.808423 0.47689 0.745174
0.839155 0.42977 0.737972
0.84622 0.416587 0.734859
0.847471 0.416464 0.734646
0.0180667 0.573968 0.690532
0.0180667 0.600336 0.710384
0.0180667 0.620874 0.725399
0.0982376 0.651743 0.74757
0.62475 0.675578 0.772122
0.839841 0.649638 0.775113
0.875257 0.623941 0.76875
0.884321 0.615061 0.766094
0.885725 0.614267 0.765743
0.0180667 0.653651 0.706859
0.0180667 0.685512 0.727687
0.0180667 0.711208 0.743023
0.020676 0.747753 0.762264
0.570916 0.807294 0.787945
0.848478 0.831037 0.798672
0.900893 0.824903 0.796307
0.912902 0.820554 0.794079
0.914565 0.819776 0.793652
0.0180667 0.679759 0.716121
0.0180667 0.710506 0.734051
0.0180667 0.734798 0.747158
0.0180667 0.76495 0.76202
0.446738 0.820294 0.784665
0.817456 0.869612 0.800183
0.897734 0.875395 0.800427
0.913893 0.874861 0.798978
0.915709 0.874525 0.798627
0.0180667 0.689342 0.72047
0.0180667 0.720211 0.737636
0.0180667 0.744503 0.750179
0.0184787 0.772122 0.763348
0.426551 0.823102 0.783612
0.795224 0.873732 0.798627
0.893324 0.883543 0.800336
0.911986 0.883833 0.79913
0.914137 0.883757 0.798825
0.0180667 0.691691 0.72163
0.0180667 0.722881 0.738827
0.0180667 0.7467 0.751049
0.0188144 0.773953 0.763943
0.428504 0.824002 0.783688
0.791196 0.874174 0.798398
0.892226 0.884565 0.800305
0.911376 0.885008 0.799161
0.913848 0.884978 0.798886
0.0180667 0.134859 0.562142
0.0205234 0.144045 0.581491
0.0649882 0.15053 0.595666
0.188602 0.159884 0.62211
0.520638 0.149538 0.655924
0.720623 0.0904402 0.664286
0.749706 0.0517128 0.660426
0.753994 0.0430304 0.659113
0.754391 0.0428321 0.659037
0.0180667 0.234302 0.603159
0.0180667 0.248295 0.621134
0.018967 0.259434 0.634974
0.185992 0.276509 0.660151
0.551934 0.271168 0.689952
0.753063 0.218173 0.694774
0.782589 0.186374 0.689723
0.788174 0.17789 0.687968
0.788617 0.177432 0.687816
0.0180667 0.347433 0.636393
0.0180667 0.365301 0.654368
0.0180667 0.378546 0.667277
0.167788 0.402564 0.691325
0.576593 0.404562 0.718868
0.780026 0.339422 0.720333
0.810834 0.29752 0.714366
0.816876 0.284489 0.711818
0.817624 0.283528 0.711574
0.0180667 0.469413 0.666133
0.0180667 0.490791 0.684367
0.0180667 0.506615 0.698177
0.148226 0.532494 0.720882
0.600595 0.540703 0.746166
0.808652 0.488365 0.747509
0.840772 0.441398 0.740826
0.847471 0.424887 0.737301
0.848539 0.423529 0.736904
0.0180667 0.577966 0.692699
0.0180667 0.604273 0.712291
0.0180667 0.624811 0.72723
0.109865 0.654994 0.748867
0.622293 0.678904 0.7729
0.838773 0.653986 0.776654
0.875303 0.627955 0.77052
0.884398 0.618082 0.767758
0.885801 0.617121 0.767407
0.0180667 0.655329 0.708705
0.0180667 0.686976 0.729381
0.0180667 0.712459 0.744656
0.0225681 0.748867 0.763836
0.577646 0.806897 0.789044
0.847562 0.829221 0.799512
0.900252 0.823011 0.797253
0.912291 0.818631 0.795254
0.913939 0.817914 0.794873
0.0180667 0.680552 0.71725
0.0180667 0.711528 0.73547
0.0180667 0.735378 0.748394
0.0180667 0.765591 0.763302
0.448981 0.820462 0.785794
0.816312 0.869291 0.801251
0.897307 0.875227 0.801602
0.913603 0.874662 0.800488
0.915404 0.874311 0.800183
0.0180667 0.689632 0.721386
0.0180667 0.720684 0.73875
0.0180667 0.744945 0.751278
0.0182193 0.772473 0.764446
0.422415 0.822614 0.784421
0.793927 0.873426 0.799573
0.892943 0.883406 0.801572
0.91165 0.883757 0.80061
0.913878 0.883711 0.80032
0.0180667 0.691447 0.72224
0.0180667 0.722515 0.739483
0.0180667 0.746288 0.75172
0.0184634 0.773632 0.764736
0.421393 0.823209 0.78439
0.789914 0.873884 0.799359
0.891814 0.884459 0.801587
0.91104 0.884932 0.800626
0.913573 0.884916 0.800366
