film-luts/Frontier luts/Frontier_FUJI_400H.cube
TITLE "Fuji Pro 400H Emulation"
# Based on ClassicPrint 16mm structure
# Characteristics: Pastel/muted colors, green-cyan shift, magenta skin tones
# Lifted blacks, soft milky highlights, lower contrast
# Classic Fuji Pro 400H look
LUT_3D_SIZE 5
0.123039 0.133765 0.151088
0.336740 0.110454 0.114096
0.604764 0.069994 0.072919
0.659117 0.055277 0.073396
0.658373 0.053162 0.070758
0.079319 0.221480 0.111817
0.212251 0.212621 0.071745
0.529679 0.175027 0.098673
0.625129 0.219297 0.112187
0.636147 0.230621 0.114351
0.067583 0.345500 0.069579
0.074593 0.399450 0.076706
0.689232 0.654946 0.155505
0.777358 0.612773 0.160309
0.781660 0.605883 0.160171
0.071388 0.391405 0.073861
0.078921 0.449198 0.081590
0.520436 0.680487 0.141939
0.778949 0.726023 0.203948
0.789920 0.727362 0.205649
0.072034 0.399296 0.074594
0.079458 0.455446 0.082201
0.487771 0.673554 0.138301
0.774621 0.731692 0.204549
0.788738 0.734451 0.206950
0.107780 0.125854 0.265915
0.327890 0.129225 0.260294
0.613196 0.061212 0.145476
0.560104 0.106384 0.198233
0.589383 0.109606 0.200683
0.080778 0.205898 0.195939
0.207591 0.219345 0.218593
0.556347 0.165029 0.149515
0.638206 0.221546 0.199184
0.647602 0.233528 0.210847
0.070517 0.351173 0.098762
0.077317 0.396737 0.110633
0.686946 0.665615 0.156150
0.797436 0.636359 0.163985
0.799061 0.625583 0.163299
0.078629 0.390434 0.131511
0.085467 0.461515 0.146827
0.504305 0.689784 0.141216
0.787184 0.746726 0.209267
0.798753 0.748687 0.211173
0.080363 0.399320 0.143439
0.087422 0.472309 0.160075
0.466106 0.682711 0.137045
0.781916 0.752482 0.209763
0.797173 0.756214 0.212512
0.098279 0.116696 0.448139
0.250462 0.098122 0.497616
0.594655 0.150810 0.564471
0.656293 0.149067 0.541407
0.658582 0.152640 0.533882
0.086327 0.157958 0.425167
0.197744 0.150830 0.498341
0.626904 0.259818 0.607186
0.725360 0.275784 0.597875
0.729358 0.281336 0.589468
0.110914 0.422941 0.476236
0.118408 0.460816 0.531731
0.718005 0.744728 0.704776
0.813106 0.697101 0.655984
0.826704 0.680086 0.634250
0.108838 0.457034 0.423285
0.122806 0.549733 0.495525
0.475541 0.749488 0.576605
0.854511 0.868184 0.648844
0.865612 0.866771 0.637678
0.107559 0.456819 0.408554
0.121473 0.552003 0.477105
0.412731 0.753222 0.544874
0.844455 0.866253 0.626812
0.861197 0.870311 0.627273
0.145891 0.108353 0.534022
0.296734 0.089091 0.557832
0.620024 0.172901 0.662375
0.677782 0.163146 0.664511
0.682360 0.163498 0.663132
0.042778 0.209404 0.494535
0.258950 0.238384 0.617409
0.684939 0.311596 0.744064
0.746621 0.299953 0.740586
0.750302 0.296180 0.736772
0.120265 0.413660 0.592312
0.136725 0.492427 0.720407
0.748379 0.662022 0.817072
0.820427 0.650890 0.808749
0.823018 0.637865 0.804506
0.126844 0.505731 0.593758
0.141561 0.581694 0.672721
0.423914 0.769415 0.757541
0.881496 0.911796 0.838129
0.893097 0.912447 0.837341
0.128073 0.516300 0.599348
0.144359 0.598445 0.682910
0.259581 0.782275 0.769080
0.875746 0.918167 0.835626
0.892205 0.922164 0.836817
0.171609 0.105164 0.544678
0.340156 0.081988 0.570706
0.635700 0.181653 0.673928
0.680649 0.164306 0.673429
0.683966 0.164633 0.673164
0.100849 0.226681 0.554133
0.317206 0.264493 0.650413
0.703291 0.324357 0.758809
0.751968 0.311102 0.754393
0.754990 0.309062 0.752941
0.124666 0.429066 0.630664
0.139829 0.505964 0.746174
0.760526 0.653166 0.821397
0.817886 0.638694 0.815134
0.820894 0.632902 0.813778
0.128087 0.509792 0.605098
0.145716 0.598850 0.698063
0.537497 0.803694 0.786382
0.885262 0.910873 0.846824
0.893471 0.912166 0.847289
0.128510 0.515415 0.605537
0.144249 0.594226 0.687258
0.179564 0.772141 0.776027
0.875775 0.918803 0.845604
0.892968 0.923187 0.847380
