film-luts/Frontier luts/Frontier_FUJI_400H.cube
TITLE "Fuji Pro 400H Emulation"
# Based on ClassicPrint 16mm structure
# Characteristics: Pastel/muted colors, green-cyan shift, magenta skin tones
# Lifted blacks, soft milky highlights, lower contrast
# Classic Fuji Pro 400H look
LUT_3D_SIZE 9
0.123039 0.133765 0.151088
0.209417 0.126088 0.135875
0.336740 0.110454 0.114096
0.484915 0.088441 0.093977
0.604764 0.069994 0.072919
0.646350 0.060241 0.070261
0.659117 0.055277 0.073396
0.658508 0.053418 0.070984
0.658373 0.053162 0.070758
0.099400 0.152535 0.137233
0.166819 0.152134 0.126587
0.307834 0.134776 0.101999
0.467700 0.100418 0.089200
0.592210 0.075164 0.071821
0.558500 0.107189 0.094944
0.587696 0.133511 0.100297
0.598098 0.147979 0.102700
0.598808 0.149174 0.102884
0.079319 0.221480 0.111817
0.081240 0.215953 0.114733
0.212251 0.212621 0.071745
0.420182 0.193237 0.089830
0.529679 0.175027 0.098673
0.595335 0.195504 0.106998
0.625129 0.219297 0.112187
0.635370 0.229770 0.114193
0.636147 0.230621 0.114351
0.062967 0.279722 0.074654
0.062761 0.277493 0.074288
0.067627 0.337189 0.077414
0.487007 0.433228 0.119656
0.662717 0.404974 0.134064
0.705888 0.377903 0.135884
0.719997 0.368015 0.136294
0.725021 0.365554 0.136545
0.725410 0.365411 0.136569
0.067583 0.345500 0.069579
0.068598 0.357649 0.070715
0.074593 0.399450 0.076706
0.267782 0.513369 0.105658
0.689232 0.654946 0.155505
0.763291 0.627544 0.160163
0.777358 0.612773 0.160309
0.781338 0.606367 0.160179
0.781660 0.605883 0.160171
0.070127 0.376088 0.072435
0.072118 0.400328 0.074690
0.077629 0.434231 0.080124
0.083825 0.506890 0.087217
0.593525 0.691632 0.149653
0.747028 0.699629 0.194384
0.778101 0.700124 0.198524
0.783518 0.697344 0.198658
0.783857 0.697039 0.198639
0.071388 0.391405 0.073861
0.075595 0.410873 0.077830
0.078921 0.449198 0.081590
0.084429 0.514089 0.087916
0.520436 0.680487 0.141939
0.728312 0.714788 0.195062
0.778949 0.726023 0.203948
0.789314 0.727318 0.205561
0.789920 0.727362 0.205649
0.071984 0.398685 0.074537
0.076632 0.422752 0.078997
0.079419 0.454994 0.082157
0.084831 0.518273 0.088339
0.490230 0.674107 0.138579
0.716299 0.716678 0.193889
0.775029 0.731385 0.204539
0.788068 0.733910 0.206752
0.788909 0.734024 0.206884
0.072034 0.399296 0.074594
0.076717 0.423724 0.079093
0.079458 0.455446 0.082201
0.084867 0.518608 0.088374
0.487771 0.673554 0.138301
0.715235 0.716722 0.193760
0.774621 0.731692 0.204549
0.787878 0.734309 0.206809
0.788738 0.734451 0.206950
0.115048 0.129573 0.203154
0.196553 0.127537 0.196651
0.346811 0.109343 0.151800
0.489637 0.086992 0.108002
0.606943 0.068730 0.082637
0.647530 0.056943 0.093627
0.658365 0.050854 0.102448
0.558591 0.104860 0.153642
0.558878 0.105216 0.154160
0.099670 0.147495 0.165861
0.146269 0.147191 0.170125
0.303116 0.129801 0.132256
0.468391 0.096979 0.094654
0.600777 0.071075 0.073837
0.673335 0.046552 0.054260
0.593218 0.132736 0.130970
0.603003 0.148035 0.141943
0.603783 0.149297 0.142829
0.083127 0.209392 0.123991
0.084293 0.205667 0.126472
0.211153 0.208115 0.086998
0.421324 0.190884 0.089721
0.536353 0.169373 0.098781
0.605641 0.192433 0.107709
0.629493 0.217818 0.121951
0.638527 0.228878 0.133485
0.639251 0.229791 0.134424
0.062713 0.272088 0.078601
0.062905 0.274063 0.079030
0.068059 0.334113 0.085140
0.483252 0.433252 0.119298
0.674456 0.410959 0.135673
0.723632 0.385015 0.138216
0.734214 0.372479 0.138148
0.736443 0.368366 0.137957
0.736586 0.368069 0.137941
0.067935 0.346000 0.073234
0.068758 0.357859 0.072402
0.074499 0.398389 0.076601
0.253815 0.511921 0.104178
0.689391 0.657662 0.155738
0.779311 0.643609 0.162889
0.792468 0.627307 0.162827
0.794576 0.618761 0.162359
0.794615 0.617945 0.162299
0.070273 0.377857 0.072600
0.073512 0.387197 0.075498
0.077788 0.436069 0.080304
0.083991 0.508865 0.087408
0.589822 0.694225 0.149525
0.749902 0.705604 0.195984
0.782353 0.707709 0.200633
0.788212 0.705295 0.200899
0.788595 0.705024 0.200893
0.072799 0.395606 0.086780
0.076447 0.413295 0.085471
0.079158 0.451958 0.081860
0.084785 0.517849 0.088295
0.513111 0.683461 0.141505
0.730052 0.721676 0.196702
0.782732 0.734219 0.206122
0.793356 0.735732 0.207813
0.793980 0.735792 0.207906
0.075352 0.389180 0.094876
0.078304 0.426287 0.095174
0.079782 0.458230 0.083469
0.085260 0.522275 0.088759
0.480817 0.677198 0.137957
0.717208 0.723588 0.195425
0.778641 0.740262 0.206830
0.792195 0.743222 0.209199
0.793075 0.743355 0.209341
0.075465 0.389858 0.095563
0.078462 0.427355 0.096038
0.079918 0.458806 0.084533
0.085302 0.522662 0.088800
0.478114 0.676646 0.137657
0.716032 0.723598 0.195274
0.778209 0.740603 0.206844
0.792001 0.743685 0.209269
0.792900 0.743848 0.209419
0.107780 0.125854 0.265915
0.167100 0.120715 0.290310
0.327890 0.129225 0.260294
0.516704 0.077454 0.199546
0.613196 0.061212 0.145476
0.644418 0.050299 0.140134
0.560104 0.106384 0.198233
0.588827 0.109478 0.199940
0.589383 0.109606 0.200683
0.099914 0.134448 0.252693
0.138971 0.132176 0.270199
0.295932 0.136432 0.240724
0.498339 0.091620 0.173427
0.614739 0.062180 0.132792
0.577506 0.105419 0.169391
0.601611 0.133325 0.193224
0.610644 0.147958 0.203649
0.611414 0.149289 0.204517
0.080778 0.205898 0.195939
0.081216 0.204513 0.197351
0.207591 0.219345 0.218593
0.447667 0.197563 0.181335
0.556347 0.165029 0.149515
0.612924 0.192814 0.173563
0.638206 0.221546 0.199184
0.646907 0.232610 0.209959
0.647602 0.233528 0.210847
0.066545 0.277139 0.118124
0.066974 0.282354 0.118412
0.073570 0.339097 0.144824
0.481162 0.438199 0.135569
0.691501 0.421582 0.138163
0.729524 0.386224 0.138874
0.737378 0.370669 0.160615
0.740986 0.368411 0.184295
0.741278 0.368361 0.185981
0.070517 0.351173 0.098762
0.071385 0.361172 0.100151
0.077317 0.396737 0.110633
0.206720 0.508000 0.099259
0.686946 0.665615 0.156150
0.784077 0.653818 0.164123
0.797436 0.636359 0.163985
0.799066 0.626492 0.163370
0.799061 0.625583 0.163299
0.074158 0.385677 0.111300
0.077560 0.393569 0.116322
0.082042 0.442881 0.123598
0.085663 0.515970 0.100770
0.583465 0.700191 0.149432
0.754135 0.717378 0.198950
0.788028 0.720677 0.204031
0.794178 0.718275 0.204338
0.794585 0.718007 0.204336
0.078629 0.390434 0.131511
0.081859 0.421860 0.140392
0.085467 0.461515 0.146827
0.089497 0.528230 0.131582
0.504305 0.689784 0.141216
0.732174 0.732033 0.199103
0.787184 0.746726 0.209267
0.798106 0.748583 0.211067
0.798753 0.748687 0.211173
0.080219 0.398596 0.142441
0.084040 0.435243 0.153681
0.087269 0.471371 0.159118
0.091495 0.534499 0.147667
0.469147 0.683303 0.137380
0.718239 0.733577 0.197609
0.782404 0.752176 0.209764
0.796495 0.755605 0.212299
0.797399 0.755782 0.212452
0.080363 0.399320 0.143439
0.084229 0.436353 0.154883
0.087422 0.472309 0.160075
0.091646 0.535051 0.148781
0.466106 0.682711 0.137045
0.716827 0.733506 0.197411
0.781916 0.752482 0.209763
0.796237 0.756005 0.212347
0.797173 0.756214 0.212512
0.100315 0.120003 0.356371
0.141011 0.115245 0.377281
0.290891 0.098658 0.423987
0.452724 0.150118 0.415030
0.570306 0.125210 0.385242
0.597072 0.123792 0.341415
0.605828 0.123051 0.324165
0.609383 0.123025 0.320040
0.609667 0.123036 0.319847
0.098747 0.125862 0.346850
0.113726 0.120423 0.370038
0.254836 0.112536 0.400797
0.437977 0.160898 0.398981
0.573125 0.124883 0.378760
0.608702 0.124975 0.341229
0.622382 0.142486 0.327881
0.627887 0.153301 0.325527
0.628438 0.154411 0.325650
0.087708 0.164446 0.347725
0.087763 0.162610 0.359647
0.224322 0.165341 0.384009
0.469974 0.224922 0.428560
0.602302 0.207271 0.398804
0.640860 0.214885 0.358212
0.656035 0.232656 0.343409
0.661969 0.241366 0.341065
0.662461 0.242086 0.341044
0.085539 0.314046 0.305186
0.087044 0.322950 0.315076
0.096437 0.373695 0.382187
0.496259 0.478798 0.506380
0.712276 0.450281 0.459200
0.748029 0.401001 0.401527
0.749837 0.375279 0.371585
0.751755 0.372288 0.367147
0.751994 0.372385 0.366906
0.086306 0.388831 0.250991
0.086982 0.395218 0.253554
0.094162 0.417334 0.286955
0.109420 0.537550 0.354048
0.691175 0.696340 0.404933
0.788241 0.679763 0.363748
0.811874 0.665987 0.335126
0.812872 0.653363 0.333885
0.812793 0.652196 0.333616
0.085418 0.392671 0.207767
0.087429 0.409359 0.216076
0.093633 0.458051 0.245132
0.102406 0.539473 0.269569
0.572047 0.728566 0.324011
0.780157 0.765842 0.363450
0.815953 0.767849 0.361041
0.822491 0.764257 0.362773
0.822871 0.763823 0.362705
0.087391 0.408078 0.216778
0.090633 0.434138 0.231232
0.096855 0.486406 0.258096
0.104065 0.551591 0.274321
0.487758 0.716591 0.316875
0.756944 0.778879 0.378966
0.814906 0.794401 0.376566
0.825665 0.795220 0.372746
0.826327 0.795287 0.372848
0.088833 0.415940 0.226466
0.093000 0.448523 0.246101
0.098856 0.500434 0.269437
0.105633 0.559012 0.283588
0.452052 0.710873 0.320634
0.743548 0.780816 0.388610
0.810926 0.800393 0.387341
0.825358 0.803876 0.386785
0.826127 0.803833 0.385859
0.088951 0.416568 0.227276
0.093198 0.449683 0.247392
0.099030 0.501639 0.270440
0.105770 0.559655 0.284400
0.449171 0.710394 0.321029
0.742211 0.780786 0.389178
0.810457 0.800690 0.387864
0.825169 0.804319 0.387504
0.826085 0.804484 0.387341
0.098279 0.116696 0.448139
0.143823 0.111539 0.462607
0.250462 0.098122 0.497616
0.486173 0.054433 0.518494
0.594655 0.150810 0.564471
0.646730 0.149333 0.554660
0.656293 0.149067 0.541407
0.658434 0.152300 0.534483
0.658582 0.152640 0.533882
0.095499 0.126613 0.428854
0.106282 0.115239 0.473861
0.225943 0.101064 0.498173
0.440672 0.150547 0.548767
0.602822 0.186637 0.576376
0.659729 0.194597 0.569699
0.672922 0.210506 0.559765
0.676366 0.217735 0.553605
0.676622 0.218291 0.553025
0.086327 0.157958 0.425167
0.085947 0.154473 0.458525
0.197744 0.150830 0.498341
0.460678 0.228363 0.584326
0.626904 0.259818 0.607186
0.711114 0.263089 0.610203
0.725360 0.275784 0.597875
0.729160 0.281046 0.590311
0.729358 0.281336 0.589468
0.095896 0.287382 0.447163
0.098634 0.297215 0.470615
0.109873 0.342056 0.564507
0.532540 0.411584 0.705293
0.723894 0.443518 0.700662
0.769431 0.415001 0.667133
0.778643 0.412710 0.643870
0.780421 0.411908 0.631334
0.780462 0.411691 0.630120
0.110914 0.422941 0.476236
0.112345 0.430219 0.486699
0.118408 0.460816 0.531731
0.140882 0.594957 0.647328
0.718005 0.744728 0.704776
0.808696 0.729937 0.684200
0.813106 0.697101 0.655984
0.826752 0.681722 0.635651
0.826704 0.680086 0.634250
0.112086 0.459429 0.459140
0.114927 0.478809 0.476120
0.124544 0.539704 0.528474
0.136562 0.611149 0.576044
0.601131 0.775668 0.644866
0.827241 0.848680 0.681595
0.859694 0.844130 0.664203
0.863884 0.835403 0.649764
0.864014 0.834433 0.648208
0.108838 0.457034 0.423285
0.113057 0.486722 0.447628
0.122806 0.549733 0.495525
0.131695 0.606233 0.526359
0.475541 0.749488 0.576605
0.791090 0.850055 0.642274
0.854511 0.868184 0.648844
0.865017 0.867083 0.638884
0.865612 0.866771 0.637678
0.107645 0.456803 0.409576
0.112313 0.490625 0.435639
0.121570 0.551824 0.478464
0.129638 0.604853 0.504410
0.416420 0.754340 0.547439
0.768316 0.841905 0.616080
0.845345 0.866610 0.628741
0.860802 0.870340 0.629167
0.861571 0.870223 0.628057
0.107559 0.456819 0.408554
0.112266 0.491062 0.434723
0.121473 0.552003 0.477105
0.129477 0.604772 0.502661
0.412731 0.753222 0.544874
0.766131 0.841004 0.613722
0.844455 0.866253 0.626812
0.860237 0.870123 0.627319
0.861197 0.870311 0.627273
0.117560 0.112233 0.511961
0.174429 0.106014 0.516476
0.263414 0.094667 0.535400
0.462272 0.057933 0.554507
0.607664 0.161803 0.634697
0.658117 0.158543 0.638236
0.674067 0.160022 0.636086
0.678406 0.160300 0.634200
0.678654 0.160304 0.633961
0.090955 0.134309 0.488038
0.128232 0.116034 0.529583
0.244003 0.100726 0.549228
0.431695 0.147500 0.604852
0.621049 0.218684 0.657165
0.671783 0.208209 0.658373
0.688946 0.214159 0.657180
0.694823 0.224020 0.657557
0.695219 0.224800 0.657511
0.072708 0.187073 0.471195
0.068483 0.188494 0.520863
0.211024 0.198950 0.570094
0.452186 0.249432 0.653005
0.668443 0.286769 0.706592
0.722040 0.279549 0.706046
0.740995 0.286158 0.704907
0.747281 0.293222 0.704529
0.747659 0.293745 0.704370
0.100234 0.280629 0.502694
0.107547 0.303810 0.568173
0.113617 0.326828 0.620099
0.502856 0.373825 0.741370
0.715740 0.426271 0.768744
0.771603 0.417878 0.764203
0.789237 0.420310 0.757923
0.794732 0.425157 0.754096
0.794978 0.425328 0.753632
0.116324 0.414159 0.546284
0.119691 0.428818 0.573125
0.131783 0.488470 0.665616
0.149135 0.585231 0.755856
0.740930 0.712858 0.786669
0.813060 0.717604 0.785511
0.829675 0.684455 0.780617
0.830362 0.668615 0.773181
0.830192 0.667036 0.772401
0.122245 0.479484 0.561202
0.124854 0.496057 0.578244
0.133744 0.545359 0.628927
0.149497 0.627896 0.702433
0.597135 0.798143 0.763488
0.842184 0.871834 0.806197
0.875766 0.870318 0.801897
0.880690 0.863380 0.795650
0.880893 0.862621 0.794980
0.125119 0.508809 0.570994
0.129972 0.535538 0.597315
0.140220 0.587986 0.648873
0.150662 0.645326 0.691956
0.474589 0.776746 0.729200
0.815995 0.888722 0.794024
0.877850 0.906081 0.801125
0.888108 0.905861 0.796415
0.888749 0.905702 0.795866
0.126187 0.518696 0.574163
0.132307 0.550509 0.605529
0.141084 0.596497 0.647631
0.150828 0.650769 0.686361
0.418694 0.762233 0.711507
0.792609 0.885091 0.781986
0.872015 0.909812 0.794449
0.886638 0.912972 0.794315
0.887404 0.912959 0.793744
0.126289 0.519464 0.574387
0.132486 0.551702 0.606092
0.141123 0.597047 0.647356
0.150803 0.651043 0.685695
0.398418 0.771479 0.717367
0.790087 0.884422 0.780702
0.871340 0.909925 0.793638
0.886255 0.913190 0.793557
0.887153 0.913333 0.793437
0.145891 0.108353 0.534022
0.206490 0.101302 0.540953
0.296734 0.089091 0.557832
0.474138 0.049809 0.565445
0.620024 0.172901 0.662375
0.665624 0.161843 0.664359
0.677782 0.163146 0.664511
0.682068 0.163480 0.663265
0.682360 0.163498 0.663132
0.086224 0.142906 0.535499
0.165456 0.127006 0.551503
0.270882 0.116996 0.561027
0.462104 0.186640 0.643122
0.636425 0.244040 0.691290
0.683133 0.236489 0.692534
0.694868 0.232248 0.691008
0.698840 0.230286 0.688853
0.699105 0.230129 0.688649
0.042778 0.209404 0.494535
0.100211 0.213855 0.557469
0.258950 0.238384 0.617409
0.481238 0.282335 0.691068
0.684939 0.311596 0.744064
0.734939 0.305674 0.743732
0.746621 0.299953 0.740586
0.750092 0.296483 0.737110
0.750302 0.296180 0.736772
0.107620 0.314327 0.560562
0.113857 0.335549 0.615996
0.119104 0.356571 0.660588
0.529505 0.404194 0.777210
0.726099 0.443819 0.796881
0.778726 0.434746 0.793315
0.790806 0.427149 0.790398
0.794763 0.424105 0.787363
0.795107 0.424091 0.787127
0.120265 0.413660 0.592312
0.129719 0.452586 0.670327
0.136725 0.492427 0.720407
0.430427 0.585646 0.800397
0.748379 0.662022 0.817072
0.807627 0.661788 0.811932
0.820427 0.650890 0.808749
0.822855 0.638733 0.804861
0.823018 0.637865 0.804506
0.124436 0.480026 0.586394
0.129263 0.510013 0.618739
0.142370 0.575688 0.690024
0.155741 0.646370 0.748597
0.661308 0.810843 0.802497
0.853022 0.865829 0.834278
0.877391 0.867676 0.835215
0.882995 0.860507 0.832337
0.883262 0.859686 0.832010
0.126844 0.505731 0.593758
0.130690 0.527320 0.616170
0.141561 0.581694 0.672721
0.153022 0.641645 0.724020
0.423914 0.769415 0.757541
0.816632 0.893210 0.829040
0.881496 0.911796 0.838129
0.892445 0.912593 0.837605
0.893097 0.912447 0.837341
0.127987 0.515695 0.599096
0.133060 0.541367 0.626046
0.144174 0.597311 0.682283
0.153976 0.649506 0.724079
0.271869 0.783617 0.770112
0.791903 0.891864 0.821992
0.876475 0.917897 0.835943
0.891530 0.921529 0.837063
0.892371 0.921633 0.836914
0.128073 0.516300 0.599348
0.133259 0.542542 0.626874
0.144359 0.598445 0.682910
0.154035 0.650057 0.723991
0.259581 0.782275 0.769080
0.789326 0.891470 0.821237
0.875746 0.918167 0.835626
0.891264 0.921958 0.836804
0.892205 0.922164 0.836817
0.168974 0.105420 0.543880
0.232649 0.097636 0.552775
0.335144 0.082830 0.569639
0.490129 0.140601 0.633476
0.633848 0.180825 0.672979
0.670739 0.168662 0.673705
0.680389 0.164220 0.672813
0.683561 0.164533 0.672576
0.683862 0.164558 0.672503
0.085211 0.150312 0.546745
0.195781 0.134899 0.557555
0.298237 0.112244 0.578744
0.503892 0.214380 0.667769
0.651535 0.255716 0.703861
0.689627 0.247847 0.704180
0.699136 0.242708 0.702521
0.702141 0.241332 0.701744
0.702402 0.241053 0.701569
0.100558 0.225226 0.552015
0.103586 0.231085 0.581717
0.310323 0.262022 0.647165
0.523076 0.303731 0.713838
0.701276 0.323452 0.757765
0.742154 0.316534 0.756541
0.751532 0.310323 0.753433
0.754435 0.308482 0.752112
0.754628 0.308049 0.751801
0.113286 0.341074 0.604988
0.117308 0.355591 0.640407
0.189291 0.380238 0.690808
0.573060 0.430559 0.798236
0.742709 0.458815 0.806697
0.785732 0.447090 0.803040
0.794229 0.435111 0.799785
0.796792 0.431488 0.798343
0.796900 0.430740 0.798075
0.124134 0.427051 0.626140
0.132027 0.459553 0.691633
0.139534 0.504502 0.743865
0.501385 0.588852 0.814488
0.758796 0.653644 0.821116
0.807338 0.650618 0.817179
0.817990 0.639522 0.814684
0.820887 0.634176 0.813416
0.820891 0.632546 0.813107
0.126452 0.487222 0.604150
0.134189 0.531114 0.652394
0.145697 0.587872 0.712487
0.160591 0.666919 0.775162
0.713503 0.817224 0.818553
0.858095 0.856628 0.840180
0.876615 0.856246 0.840604
0.881121 0.853672 0.839750
0.881335 0.852698 0.839499
0.127956 0.509293 0.603957
0.133418 0.538200 0.634294
0.145426 0.597625 0.696337
0.156631 0.656916 0.744088
0.523643 0.799455 0.783267
0.834291 0.897048 0.839593
0.884899 0.911044 0.846277
0.892790 0.912353 0.846762
0.893470 0.912265 0.846725
0.128384 0.514698 0.604630
0.132966 0.538020 0.629228
0.144070 0.593408 0.686284
0.154186 0.646397 0.730783
0.198308 0.774292 0.776562
0.787672 0.891165 0.830693
0.876552 0.918493 0.845221
0.892238 0.922455 0.846818
0.893054 0.922603 0.846847
0.128471 0.515444 0.605057
0.133145 0.539074 0.629980
0.144263 0.594536 0.687005
0.154251 0.646930 0.730786
0.185323 0.772904 0.775622
0.784589 0.890655 0.829972
0.875828 0.918817 0.845025
0.892045 0.922959 0.846746
0.892935 0.923162 0.846813
0.171609 0.105164 0.544678
0.235864 0.097193 0.553806
0.340156 0.081988 0.570706
0.495500 0.141369 0.635754
0.635700 0.181653 0.673928
0.671334 0.169346 0.674385
0.680649 0.164306 0.673429
0.683726 0.164612 0.673208
0.683966 0.164633 0.673164
0.085724 0.150749 0.547839
0.199518 0.135441 0.557910
0.301717 0.109922 0.576999
0.509577 0.217450 0.670437
0.653407 0.256538 0.704834
0.690305 0.248679 0.704987
0.699533 0.243540 0.703403
0.702439 0.242107 0.702620
0.702666 0.241981 0.702531
0.100849 0.226681 0.554133
0.107670 0.232949 0.584468
0.317206 0.264493 0.650413
0.528930 0.306152 0.716315
0.703291 0.324357 0.758809
0.742868 0.317287 0.757405
0.751968 0.311102 0.754393
0.754785 0.309247 0.753073
0.754990 0.309062 0.752941
0.113667 0.342937 0.607949
0.117622 0.357333 0.642708
0.210934 0.369386 0.707841
0.579303 0.432704 0.799660
0.744758 0.459828 0.807329
0.786453 0.447932 0.803661
0.794651 0.436033 0.800522
0.797003 0.432010 0.799038
0.797199 0.431757 0.798907
0.124666 0.429066 0.630664
0.132297 0.460785 0.693803
0.139829 0.505964 0.746174
0.510160 0.589629 0.815983
0.760526 0.653166 0.821397
0.807526 0.649677 0.817491
0.817886 0.638694 0.815134
0.820709 0.633433 0.813905
0.820894 0.632902 0.813778
0.126751 0.488599 0.606540
0.135021 0.534811 0.657412
0.146154 0.589769 0.715257
0.161211 0.669804 0.778139
0.719659 0.817888 0.820085
0.858799 0.855562 0.840540
0.876433 0.854700 0.840833
0.880765 0.852150 0.839972
0.881071 0.851905 0.839884
0.128087 0.509792 0.605098
0.133782 0.539762 0.636552
0.145716 0.598850 0.698063
0.157087 0.659036 0.746325
0.537497 0.803694 0.786382
0.836346 0.897431 0.840414
0.885262 0.910873 0.846824
0.892924 0.912129 0.847286
0.893471 0.912166 0.847289
0.128490 0.515083 0.605565
0.133231 0.539127 0.630915
0.144457 0.595071 0.688547
0.154524 0.647889 0.732584
0.227950 0.778653 0.779065
0.791436 0.892320 0.831979
0.877293 0.918656 0.845878
0.892457 0.922509 0.847382
0.893075 0.922625 0.847412
0.128510 0.515415 0.605537
0.133154 0.538899 0.630307
0.144249 0.594226 0.687258
0.154274 0.646745 0.731307
0.179564 0.772141 0.776027
0.784078 0.890526 0.830535
0.875775 0.918803 0.845604
0.892069 0.922994 0.847311
0.892968 0.923187 0.847380
