film-luts/Frontier luts/Frontier_FUJI_400H.cube
TITLE "Fuji Pro 400H Emulation"
# Based on ClassicPrint 16mm structure
# Characteristics: Pastel/muted colors, green-cyan shift, magenta skin tones
# Lifted blacks, soft milky highlights, lower contrast
# Classic Fuji Pro 400H look
LUT_3D_SIZE 33
0.123039 0.133765 0.151088
0.139352 0.132047 0.148904
0.160061 0.130323 0.144714
0.184482 0.128419 0.140143
0.209417 0.126088 0.135875
0.237309 0.123007 0.131293
0.268550 0.119521 0.125922
0.301543 0.115480 0.120078
0.336740 0.110454 0.114096
0.376844 0.104075 0.107379
0.417360 0.097079 0.103358
0.451995 0.092625 0.098779
0.484915 0.088441 0.093977
0.520757 0.083557 0.088382
0.553718 0.078672 0.082798
0.582072 0.074061 0.077541
0.604764 0.069994 0.072919
0.619374 0.067131 0.069677
0.630756 0.064640 0.067826
0.639518 0.062331 0.068569
0.646350 0.060241 0.070261
0.651868 0.058330 0.072122
0.655896 0.056801 0.073510
0.658376 0.055793 0.074109
0.659117 0.055277 0.073396
0.659209 0.054822 0.072574
0.659025 0.054342 0.071896
0.658749 0.053869 0.071390
0.658508 0.053418 0.070984
0.658373 0.053162 0.070758
0.658373 0.053162 0.070758
0.658373 0.053162 0.070758
0.658373 0.053162 0.070758
0.113193 0.135812 0.146668
0.131135 0.135888 0.144374
0.148847 0.133906 0.141402
0.168973 0.131917 0.137534
0.191593 0.129613 0.133720
0.214716 0.127245 0.129908
0.243433 0.124229 0.125825
0.278634 0.120214 0.120539
0.318039 0.114994 0.114321
0.359314 0.108602 0.108138
0.402900 0.101372 0.103612
0.442867 0.094112 0.099815
0.476600 0.089522 0.095218
0.512412 0.084729 0.089724
0.547319 0.079656 0.083920
0.577090 0.074905 0.078502
0.600135 0.070857 0.073899
0.616374 0.067738 0.070364
0.628885 0.065132 0.067420
0.639183 0.062749 0.065754
0.647058 0.060441 0.066727
0.651555 0.059252 0.066860
0.653074 0.058437 0.065546
0.653416 0.057016 0.063838
0.652186 0.054160 0.061018
0.551652 0.107715 0.112523
0.686401 0.045186 0.048479
0.687024 0.043676 0.048055
0.686699 0.041774 0.047350
0.579812 0.100217 0.103156
0.579812 0.100217 0.103156
0.579812 0.100217 0.103156
0.579812 0.100217 0.103156
0.105951 0.139810 0.143271
0.119630 0.140002 0.143032
0.140073 0.139221 0.138596
0.165371 0.136822 0.134265
0.187899 0.134443 0.130596
0.209381 0.131688 0.127232
0.234421 0.128823 0.123709
0.266576 0.124945 0.119121
0.306087 0.119615 0.113249
0.347178 0.113415 0.107284
0.391758 0.105882 0.103031
0.435208 0.097843 0.098989
0.471836 0.090865 0.095397
0.507816 0.085365 0.090453
0.544923 0.080019 0.084336
0.576386 0.075023 0.078636
0.597186 0.071397 0.074513
0.614503 0.068111 0.070786
0.628022 0.065757 0.066821
0.638725 0.063330 0.064011
0.644329 0.062677 0.060514
0.646124 0.061386 0.057289
0.544506 0.107907 0.103994
0.681627 0.048334 0.044533
0.576028 0.103353 0.096253
0.579049 0.106884 0.097642
0.581526 0.109829 0.099295
0.583560 0.112342 0.100650
0.584973 0.114395 0.101771
0.585628 0.115425 0.102361
0.585628 0.115425 0.102361
0.585628 0.115425 0.102361
0.585628 0.115425 0.102361
0.101071 0.145518 0.140390
0.109193 0.144520 0.141289
0.125720 0.144379 0.137931
0.153104 0.144503 0.132918
0.180920 0.141624 0.128313
0.209305 0.138688 0.123445
0.237777 0.135535 0.118215
0.264983 0.130741 0.115066
0.301776 0.125481 0.109503
0.340869 0.119045 0.105069
0.383519 0.111415 0.101188
0.428899 0.102705 0.097066
0.468326 0.094512 0.093577
0.505830 0.087435 0.089337
0.545265 0.079967 0.084277
0.575097 0.075238 0.078881
0.595456 0.071711 0.074869
0.612402 0.069842 0.069242
0.626642 0.067231 0.064774
0.633716 0.066795 0.057831
0.636691 0.064776 0.050752
0.671500 0.051862 0.044483
0.570769 0.107242 0.096125
0.576681 0.112701 0.097222
0.581621 0.117793 0.098191
0.584858 0.121899 0.098900
0.587351 0.125057 0.099446
0.589303 0.127463 0.099867
0.590697 0.129390 0.100610
0.591339 0.130378 0.101227
0.591339 0.130378 0.101227
0.591339 0.130378 0.101227
0.591339 0.130378 0.101227
0.099400 0.152535 0.137233
0.099818 0.150731 0.138477
0.110596 0.151028 0.138592
0.133689 0.153685 0.132231
0.166819 0.152134 0.126587
0.198231 0.148662 0.120614
0.230227 0.144992 0.114334
0.267450 0.140203 0.108273
0.307834 0.134776 0.101999
0.343152 0.127182 0.099524
0.381168 0.118882 0.096757
0.426343 0.109840 0.092572
0.467700 0.100418 0.089200
0.504892 0.091927 0.085842
0.543895 0.083026 0.081851
0.573278 0.076991 0.077666
0.592210 0.075164 0.071821
0.609240 0.072984 0.065524
0.620856 0.071359 0.057554
0.622941 0.067216 0.044989
0.558500 0.107189 0.094944
0.568648 0.114961 0.096669
0.576532 0.122361 0.098143
0.582685 0.128367 0.099317
0.587696 0.133511 0.100297
0.591384 0.138583 0.101144
0.594232 0.142540 0.101801
0.596492 0.145592 0.102314
0.598098 0.147979 0.102700
0.598808 0.149174 0.102884
0.598808 0.149174 0.102884
0.598808 0.149174 0.102884
0.598808 0.149174 0.102884
0.097115 0.161750 0.133669
0.097553 0.159960 0.134710
0.097504 0.159962 0.136021
0.110463 0.162080 0.134312
0.142326 0.165263 0.126146
0.179894 0.163658 0.118021
0.216096 0.160009 0.109825
0.256518 0.154020 0.101314
0.303076 0.147222 0.095106
0.345594 0.138639 0.091257
0.383302 0.130634 0.087778
0.426674 0.120720 0.083882
0.467364 0.109892 0.081149
0.502502 0.100093 0.078964
0.538760 0.090492 0.075851
0.567400 0.083934 0.071610
0.587247 0.080557 0.065778
0.603045 0.077637 0.057507
0.515200 0.115280 0.092460
0.552277 0.113687 0.094975
0.564677 0.123251 0.097089
0.575010 0.131851 0.098914
0.583426 0.140017 0.100514
0.590285 0.147445 0.101893
0.595793 0.153659 0.103025
0.599450 0.158533 0.103849
0.602113 0.161770 0.104420
0.604251 0.164281 0.104869
0.605738 0.166187 0.105197
0.606443 0.167123 0.105355
0.606443 0.167123 0.105355
0.606443 0.167123 0.105355
0.606443 0.167123 0.105355
0.093873 0.174176 0.129380
0.094480 0.171867 0.130407
0.094784 0.170641 0.131368
0.094426 0.171750 0.132648
0.109019 0.177287 0.128731
0.147424 0.181572 0.118402
0.193008 0.181512 0.106061
0.238933 0.176168 0.091928
0.289613 0.167846 0.083502
0.339429 0.157186 0.077889
0.379456 0.146375 0.074837
0.418926 0.135213 0.071921
0.459737 0.123327 0.068774
0.494669 0.111958 0.067493
0.529364 0.100922 0.065537
0.559476 0.092155 0.061188
0.576920 0.086605 0.051503
0.524187 0.113238 0.092241
0.544181 0.122570 0.095055
0.559466 0.132314 0.097461
0.572447 0.142794 0.099721
0.583561 0.152750 0.101754
0.592047 0.160902 0.103360
0.598566 0.167191 0.104597
0.603809 0.172355 0.105603
0.607303 0.176427 0.106334
0.609961 0.179601 0.106898
0.612321 0.182485 0.107405
0.613978 0.184674 0.107777
0.614781 0.185739 0.107958
0.614781 0.185739 0.107958
0.614781 0.185739 0.107958
0.614781 0.185739 0.107958
0.088539 0.193147 0.122668
0.089487 0.189887 0.123996
0.090063 0.187849 0.125026
0.090035 0.187840 0.125754
0.088881 0.191555 0.126180
0.099990 0.202942 0.119289
0.151991 0.206692 0.104946
0.206043 0.206945 0.082297
0.260814 0.197727 0.059069
0.273546 0.171072 0.074106
0.324735 0.162505 0.077868
0.363511 0.155856 0.080938
0.399834 0.149337 0.083789
0.429320 0.142868 0.085994
0.458948 0.136909 0.088261
0.488333 0.132990 0.090699
0.511629 0.133226 0.092953
0.533840 0.138397 0.095580
0.553940 0.147259 0.098365
0.569989 0.157474 0.100895
0.582601 0.166851 0.103016
0.593025 0.175011 0.104810
0.601425 0.182563 0.106352
0.608330 0.189440 0.107684
0.613889 0.195144 0.108774
0.617675 0.199598 0.109570
0.620458 0.202928 0.110162
0.622629 0.205199 0.110592
0.624136 0.206863 0.110899
0.624863 0.207684 0.111049
0.624863 0.207684 0.111049
0.624863 0.207684 0.111049
0.624863 0.207684 0.111049
0.079319 0.221480 0.111817
0.080821 0.217256 0.113545
0.081698 0.214719 0.114562
0.082094 0.213541 0.115148
0.081240 0.215953 0.114733
0.078283 0.224020 0.112638
0.079144 0.241855 0.102954
0.134803 0.205125 0.080748
0.212251 0.212621 0.071745
0.281235 0.210618 0.078125
0.334652 0.206468 0.082849
0.378675 0.199917 0.086464
0.420182 0.193237 0.089830
0.451315 0.186317 0.092179
0.479895 0.181088 0.094441
0.508024 0.176789 0.096748
0.529679 0.175027 0.098673
0.549261 0.175766 0.100638
0.567993 0.180084 0.102866
0.583036 0.187320 0.105018
0.595335 0.195504 0.106998
0.605778 0.203440 0.108776
0.613826 0.209846 0.110176
0.620069 0.215036 0.111283
0.625129 0.219297 0.112187
0.628745 0.222873 0.112883
0.631494 0.225705 0.113424
0.633751 0.228024 0.113868
0.635370 0.229770 0.114193
0.636147 0.230621 0.114351
0.636147 0.230621 0.114351
0.636147 0.230621 0.114351
0.636147 0.230621 0.114351
0.064992 0.254005 0.092575
0.067010 0.250302 0.095692
0.068307 0.247735 0.097817
0.068902 0.246469 0.099120
0.068215 0.247776 0.098704
0.064690 0.254185 0.094607
0.048316 0.269831 0.075495
0.060088 0.235370 0.081733
0.168349 0.255296 0.087842
0.268874 0.266687 0.081993
0.340551 0.259902 0.088285
0.392447 0.253290 0.092699
0.440819 0.247156 0.096824
0.477095 0.240029 0.099688
0.507170 0.233790 0.102032
0.534803 0.228746 0.104251
0.554046 0.224580 0.105735
0.570733 0.222494 0.107167
0.587239 0.222600 0.108791
0.600253 0.224769 0.110271
0.610788 0.228547 0.111663
0.620081 0.234013 0.113096
0.627668 0.239232 0.114340
0.633476 0.243611 0.115329
0.638512 0.247785 0.116223
0.642262 0.251105 0.116909
0.644959 0.253549 0.117408
0.647027 0.255405 0.117790
0.648575 0.256846 0.118080
0.649330 0.257558 0.118222
0.649330 0.257558 0.118222
0.649330 0.257558 0.118222
0.649330 0.257558 0.118222
0.058830 0.228067 0.074037
0.058618 0.225164 0.074280
0.058483 0.223338 0.074413
0.058442 0.222497 0.074713
0.058544 0.222999 0.075407
0.059095 0.227613 0.077479
0.060205 0.238315 0.080394
0.062470 0.263773 0.083289
0.090417 0.281746 0.084266
0.219041 0.307372 0.087252
0.336805 0.325467 0.093840
0.403635 0.315961 0.099507
0.459386 0.311057 0.104522
0.521571 0.294295 0.109597
0.554627 0.286322 0.112003
0.563655 0.288121 0.112654
0.581986 0.280806 0.113776
0.596159 0.275427 0.114667
0.610293 0.272037 0.115742
0.621525 0.270826 0.116736
0.630241 0.270633 0.117579
0.637504 0.272042 0.118431
0.668142 0.265429 0.120910
0.673539 0.268401 0.121734
0.678214 0.271443 0.122496
0.681830 0.274018 0.123108
0.684404 0.275993 0.123558
0.686397 0.277540 0.123908
0.687902 0.278699 0.124172
0.688643 0.279295 0.124304
0.688643 0.279295 0.124304
0.688643 0.279295 0.124304
0.688643 0.279295 0.124304
0.060965 0.254987 0.073973
0.060767 0.252239 0.074193
0.060661 0.250599 0.074466
0.060621 0.249713 0.074807
0.060684 0.249970 0.075299
0.061102 0.253877 0.076546
0.061997 0.262572 0.078942
0.064186 0.286148 0.082927
0.065764 0.308603 0.081121
0.148101 0.333465 0.082055
0.295627 0.351055 0.093332
0.418028 0.367486 0.106680
0.485889 0.357468 0.112301
0.541716 0.353926 0.117391
0.579794 0.349158 0.120641
0.614643 0.343267 0.123468
0.635706 0.335508 0.124761
0.649692 0.327964 0.125380
0.662365 0.322227 0.126048
0.672075 0.317940 0.126570
0.679428 0.314903 0.126986
0.685442 0.313586 0.127443
0.690630 0.313022 0.127894
0.694386 0.312897 0.128250
0.697734 0.313421 0.128630
0.700627 0.314456 0.129018
0.702574 0.315142 0.129278
0.704179 0.315971 0.129519
0.705393 0.316565 0.129697
0.705990 0.316878 0.129787
0.705990 0.316878 0.129787
0.705990 0.316878 0.129787
0.705990 0.316878 0.129787
0.062967 0.279722 0.074654
0.062818 0.277947 0.074539
0.062733 0.277062 0.074352
0.062705 0.276836 0.074240
0.062761 0.277493 0.074288
0.063106 0.281657 0.074520
0.063800 0.289847 0.075180
0.065481 0.308991 0.077506
0.067627 0.337189 0.077414
0.068700 0.358880 0.070830
0.224434 0.377315 0.088968
0.370055 0.406871 0.105769
0.487007 0.433228 0.119656
0.555605 0.421746 0.125251
0.597224 0.415277 0.128683
0.636883 0.411816 0.132174
0.662717 0.404974 0.134064
0.677765 0.396826 0.134823
0.690330 0.389248 0.135396
0.699681 0.383290 0.135799
0.705888 0.377903 0.135884
0.710824 0.374076 0.135991
0.714804 0.371307 0.136109
0.717534 0.369109 0.136159
0.719997 0.368015 0.136294
0.722078 0.367354 0.136434
0.723282 0.366466 0.136464
0.724227 0.365842 0.136495
0.725021 0.365554 0.136545
0.725410 0.365411 0.136569
0.725410 0.365411 0.136569
0.725410 0.365411 0.136569
0.725410 0.365411 0.136569
0.064382 0.299609 0.073171
0.064366 0.298912 0.073604
0.064397 0.298871 0.074001
0.064483 0.299521 0.074406
0.064647 0.301130 0.074865
0.065083 0.306032 0.075533
0.065685 0.314229 0.075209
0.066943 0.331255 0.074711
0.069086 0.361721 0.072841
0.070697 0.382999 0.073079
0.123579 0.394333 0.080902
0.304258 0.430396 0.101589
0.442554 0.476769 0.119174
0.557835 0.496832 0.131860
0.616484 0.486479 0.136502
0.654781 0.476963 0.139300
0.685270 0.471771 0.141727
0.702739 0.463694 0.142695
0.716226 0.455336 0.143270
0.726044 0.447979 0.143586
0.732051 0.441519 0.143621
0.736675 0.436724 0.143663
0.739968 0.432799 0.143652
0.742120 0.429505 0.143586
0.743937 0.427170 0.143566
0.745375 0.425272 0.143547
0.746290 0.423723 0.143507
0.746825 0.422423 0.143451
0.747325 0.421628 0.143434
0.747569 0.421230 0.143424
0.747569 0.421230 0.143424
0.747569 0.421230 0.143424
0.747569 0.421230 0.143424
0.065510 0.316966 0.070750
0.065530 0.316816 0.071119
0.065593 0.317331 0.071394
0.065714 0.318611 0.071652
0.065979 0.321704 0.071982
0.066424 0.326958 0.072491
0.067135 0.335367 0.073307
0.068256 0.351110 0.072480
0.070562 0.381357 0.072926
0.073507 0.387145 0.075492
0.075447 0.409179 0.077663
0.235831 0.442811 0.096110
0.384073 0.495733 0.115248
0.517666 0.532395 0.131150
0.618282 0.547983 0.141897
0.672264 0.541659 0.146365
0.703325 0.530743 0.148322
0.723052 0.524616 0.149635
0.738274 0.518586 0.150542
0.749530 0.512255 0.151060
0.756774 0.506215 0.151232
0.761798 0.500872 0.151258
0.765142 0.496251 0.151189
0.767408 0.492379 0.151082
0.768941 0.489138 0.150959
0.769999 0.486364 0.150830
0.770735 0.484071 0.150711
0.771031 0.482073 0.150575
0.771289 0.480644 0.150482
0.771404 0.479921 0.150434
0.771404 0.479921 0.150434
0.771404 0.479921 0.150434
0.771404 0.479921 0.150434
0.066525 0.332904 0.068399
0.066577 0.333524 0.068458
0.066682 0.334769 0.068574
0.066861 0.336898 0.068774
0.067247 0.341487 0.069203
0.067707 0.346983 0.069718
0.068470 0.356118 0.070572
0.069792 0.372035 0.072057
0.072060 0.399618 0.074624
0.074963 0.403663 0.077120
0.076750 0.424113 0.079131
0.143798 0.449975 0.087887
0.325241 0.507739 0.110678
0.465127 0.551459 0.127879
0.587428 0.582472 0.142004
0.667919 0.592306 0.150259
0.696097 0.612627 0.152772
0.740874 0.576413 0.155590
0.754776 0.568734 0.156219
0.767161 0.563364 0.156904
0.775754 0.559078 0.157334
0.781636 0.555029 0.157537
0.785596 0.551345 0.157596
0.788604 0.548223 0.157614
0.790498 0.545388 0.157554
0.791858 0.543041 0.157486
0.792859 0.541021 0.157412
0.793437 0.539311 0.157324
0.793761 0.538000 0.157246
0.793903 0.537317 0.157203
0.793903 0.537317 0.157203
0.793903 0.537317 0.157203
0.793903 0.537317 0.157203
0.067583 0.345500 0.069579
0.067706 0.346973 0.069717
0.067870 0.348933 0.069900
0.068205 0.352938 0.070275
0.068598 0.357649 0.070715
0.069146 0.364237 0.071330
0.069920 0.373579 0.072201
0.071245 0.389670 0.073699
0.074593 0.399450 0.076706
0.076042 0.415985 0.078333
0.077659 0.434575 0.080158
0.079519 0.456164 0.082272
0.267782 0.513369 0.105658
0.408938 0.557541 0.123122
0.543772 0.598950 0.139402
0.619836 0.646231 0.148374
0.689232 0.654946 0.155505
0.730064 0.654247 0.159208
0.746005 0.644387 0.159894
0.755560 0.634148 0.159968
0.763291 0.627544 0.160163
0.768819 0.622672 0.160292
0.772397 0.618533 0.160299
0.775532 0.615558 0.160357
0.777358 0.612773 0.160309
0.778811 0.610569 0.160272
0.779929 0.608808 0.160238
0.780750 0.607393 0.160204
0.781338 0.606367 0.160179
0.781660 0.605883 0.160171
0.781660 0.605883 0.160171
0.781660 0.605883 0.160171
0.781660 0.605883 0.160171
0.068390 0.355158 0.070482
0.068576 0.357383 0.070690
0.068875 0.360976 0.071026
0.069236 0.365321 0.071431
0.069663 0.370483 0.071913
0.070261 0.377708 0.072586
0.071063 0.387449 0.073493
0.073838 0.390882 0.075861
0.075601 0.410946 0.077837
0.076843 0.425177 0.079235
0.078296 0.441949 0.080880
0.079993 0.461694 0.082812
0.205190 0.512845 0.099557
0.359730 0.557418 0.118452
0.498843 0.602054 0.135510
0.589693 0.658998 0.146611
0.666376 0.675410 0.155046
0.723005 0.681928 0.160763
0.751725 0.681083 0.163316
0.770512 0.678553 0.164827
0.780954 0.673433 0.165374
0.785971 0.668284 0.165427
0.789097 0.663524 0.165340
0.791690 0.660114 0.165309
0.793321 0.656987 0.165214
0.794367 0.654176 0.165090
0.795127 0.651835 0.164977
0.795785 0.650110 0.164903
0.796249 0.648786 0.164842
0.796471 0.648144 0.164813
0.796471 0.648144 0.164813
0.796471 0.648144 0.164813
0.796471 0.648144 0.164813
0.069058 0.363186 0.071232
0.069337 0.366543 0.071545
0.069699 0.370916 0.071953
0.070081 0.375532 0.072383
0.070607 0.381912 0.072978
0.071254 0.389782 0.073710
0.073496 0.387017 0.075480
0.075022 0.404332 0.077186
0.076472 0.420916 0.078817
0.077535 0.433148 0.080018
0.078824 0.448076 0.081480
0.080357 0.465942 0.083227
0.132721 0.509385 0.092186
0.319459 0.556662 0.114555
0.452515 0.599377 0.130958
0.556421 0.662652 0.143812
0.641235 0.685811 0.153576
0.708163 0.697612 0.160665
0.732705 0.683115 0.189135
0.755395 0.684555 0.192379
0.770865 0.684665 0.194412
0.780421 0.683598 0.195435
0.785617 0.681440 0.195667
0.788153 0.678311 0.195355
0.790725 0.676529 0.195323
0.792712 0.675358 0.195341
0.793107 0.673060 0.194921
0.792977 0.670714 0.194423
0.792893 0.668922 0.194044
0.792846 0.668025 0.193854
0.792846 0.668025 0.193854
0.792846 0.668025 0.193854
0.792846 0.668025 0.193854
0.069609 0.369822 0.071851
0.070026 0.374862 0.072321
0.070415 0.379575 0.072760
0.070883 0.385258 0.073289
0.071444 0.392099 0.073925
0.072119 0.400339 0.074691
0.074548 0.398945 0.076656
0.076024 0.415779 0.078312
0.077118 0.428348 0.079547
0.078122 0.439933 0.080683
0.079285 0.453435 0.082005
0.080789 0.471011 0.083722
0.084040 0.504716 0.087044
0.283879 0.555321 0.111038
0.411619 0.595370 0.126772
0.521937 0.661470 0.140490
0.617137 0.690943 0.151776
0.676989 0.685402 0.182363
0.725568 0.700253 0.191724
0.731233 0.686442 0.189626
0.748608 0.687230 0.192046
0.759919 0.687068 0.193482
0.766966 0.686270 0.194234
0.770894 0.684925 0.194469
0.773703 0.683823 0.194608
0.775399 0.682821 0.194623
0.776577 0.681843 0.194575
0.777368 0.680965 0.194498
0.777967 0.680276 0.194434
0.778247 0.679921 0.194398
0.778247 0.679921 0.194398
0.778247 0.679921 0.194398
0.778247 0.679921 0.194398
0.070127 0.376088 0.072435
0.070558 0.381315 0.072922
0.070985 0.386506 0.073405
0.071510 0.392903 0.074000
0.072118 0.400328 0.074690
0.074286 0.395965 0.076362
0.075491 0.409679 0.077713
0.076725 0.423816 0.079102
0.077629 0.434231 0.080124
0.078595 0.445417 0.081220
0.079665 0.457865 0.082438
0.081217 0.476039 0.084213
0.083825 0.506890 0.087217
0.249829 0.553003 0.107565
0.380238 0.591943 0.123515
0.490989 0.658086 0.137303
0.593525 0.691632 0.149653
0.656305 0.688445 0.180300
0.694916 0.689547 0.185543
0.725923 0.696167 0.190931
0.747028 0.699629 0.194384
0.760977 0.701043 0.196487
0.769392 0.701172 0.197607
0.774491 0.700547 0.198142
0.778101 0.700124 0.198524
0.780459 0.699515 0.198706
0.781820 0.698661 0.198707
0.782809 0.697923 0.198684
0.783518 0.697344 0.198658
0.783857 0.697039 0.198639
0.783857 0.697039 0.198639
0.783857 0.697039 0.198639
0.783857 0.697039 0.198639
0.070540 0.381101 0.072902
0.070988 0.386540 0.073408
0.071498 0.392747 0.073986
0.072059 0.399607 0.074623
0.074011 0.392851 0.076055
0.075020 0.404311 0.077184
0.076237 0.418224 0.078553
0.077290 0.430320 0.079740
0.078027 0.438828 0.080574
0.078950 0.449536 0.081623
0.079962 0.461324 0.082776
0.081557 0.480029 0.084602
0.083967 0.508587 0.087381
0.216207 0.549766 0.104036
0.355624 0.588469 0.120880
0.481717 0.629045 0.136328
0.571398 0.689274 0.147410
0.648705 0.711910 0.156394
0.683007 0.692277 0.184556
0.719176 0.701700 0.191190
0.743268 0.706802 0.195368
0.759028 0.709605 0.197991
0.769570 0.711061 0.199660
0.776142 0.711748 0.200654
0.780113 0.711403 0.201100
0.782931 0.710943 0.201372
0.784732 0.710495 0.201514
0.786052 0.710169 0.201618
0.786959 0.709809 0.201662
0.787372 0.709647 0.201683
0.787372 0.709647 0.201683
0.787372 0.709647 0.201683
0.787372 0.709647 0.201683
0.070889 0.385337 0.073296
0.071388 0.391405 0.073861
0.071924 0.397951 0.074469
0.073819 0.390669 0.075840
0.074643 0.400016 0.076761
0.075679 0.411837 0.077925
0.076815 0.424859 0.079204
0.077694 0.434988 0.080198
0.078377 0.442890 0.080972
0.079241 0.452922 0.081954
0.080214 0.464278 0.083065
0.081848 0.483462 0.084936
0.084113 0.510319 0.087550
0.189715 0.547300 0.101254
0.336572 0.585893 0.118845
0.458017 0.624688 0.133741
0.551044 0.686148 0.145262
0.633068 0.711448 0.154925
0.670931 0.692832 0.183100
0.712295 0.704803 0.190932
0.738162 0.710948 0.195555
0.755691 0.714529 0.198568
0.767960 0.716808 0.200629
0.775723 0.717894 0.201861
0.780554 0.718477 0.202609
0.783970 0.718739 0.203106
0.786205 0.718631 0.203375
0.787593 0.718423 0.203512
0.788637 0.718232 0.203609
0.789151 0.718141 0.203657
0.789151 0.718141 0.203657
0.789151 0.718141 0.203657
0.789151 0.718141 0.203657
0.071166 0.388706 0.073610
0.071731 0.395592 0.074250
0.073599 0.388176 0.075594
0.074227 0.395291 0.076296
0.075165 0.405962 0.077347
0.076228 0.418120 0.078542
0.077222 0.429538 0.079664
0.077967 0.438134 0.080506
0.078676 0.446354 0.081312
0.079493 0.455861 0.082242
0.080425 0.466747 0.083306
0.082114 0.486604 0.085243
0.084265 0.512137 0.087726
0.167928 0.545479 0.098979
0.321683 0.583928 0.117256
0.439239 0.621100 0.131673
0.534286 0.683182 0.143456
0.620311 0.710484 0.153676
0.659653 0.692183 0.181502
0.705430 0.706234 0.190334
0.733016 0.713358 0.195380
0.752514 0.717597 0.198784
0.765686 0.720524 0.201097
0.774235 0.722080 0.202527
0.779898 0.722905 0.203432
0.783712 0.723423 0.204034
0.786388 0.723682 0.204435
0.788155 0.723779 0.204684
0.789341 0.723810 0.204845
0.789878 0.723763 0.204905
0.789878 0.723763 0.204905
0.789878 0.723763 0.204905
0.789878 0.723763 0.204905
0.071388 0.391405 0.073861
0.072003 0.398918 0.074559
0.073910 0.391697 0.075942
0.074650 0.400100 0.076770
0.075595 0.410873 0.077830
0.076671 0.423203 0.079042
0.077552 0.433341 0.080037
0.078188 0.440695 0.080757
0.078921 0.449198 0.081590
0.079712 0.458406 0.082491
0.080677 0.469693 0.083593
0.082363 0.489548 0.085529
0.084429 0.514089 0.087916
0.151783 0.544468 0.097322
0.311825 0.583004 0.116237
0.425361 0.618595 0.130154
0.520436 0.680487 0.141939
0.608876 0.709046 0.152507
0.667045 0.710983 0.186320
0.699481 0.707019 0.189722
0.728312 0.714788 0.195062
0.749490 0.719854 0.198854
0.763381 0.722898 0.201284
0.772627 0.724934 0.202903
0.778949 0.726023 0.203948
0.783099 0.726575 0.204601
0.785989 0.726953 0.205054
0.788048 0.727207 0.205374
0.789314 0.727318 0.205561
0.789920 0.727362 0.205649
0.789920 0.727362 0.205649
0.789920 0.727362 0.205649
0.789920 0.727362 0.205649
0.071580 0.393752 0.074079
0.073500 0.387059 0.075484
0.074144 0.394352 0.076203
0.074980 0.403852 0.077139
0.075950 0.414933 0.078229
0.077011 0.427105 0.079425
0.077798 0.436180 0.080315
0.078355 0.442629 0.080947
0.079102 0.451300 0.081796
0.079871 0.460267 0.082673
0.080898 0.472285 0.083846
0.082552 0.491777 0.085746
0.084558 0.515634 0.088066
0.139827 0.543681 0.096089
0.304239 0.582168 0.115440
0.414646 0.616557 0.128970
0.509726 0.678306 0.140756
0.599798 0.707710 0.151561
0.657778 0.709080 0.184725
0.693439 0.707014 0.188935
0.724403 0.715811 0.194764
0.746607 0.721455 0.198808
0.761078 0.724567 0.201327
0.771121 0.726957 0.203123
0.777852 0.728263 0.204265
0.782296 0.728974 0.204989
0.785482 0.729406 0.205492
0.787635 0.729675 0.205827
0.789176 0.729849 0.206063
0.789788 0.729907 0.206154
0.789788 0.729907 0.206154
0.789788 0.729907 0.206154
0.789788 0.729907 0.206154
0.071750 0.395826 0.074272
0.073694 0.389259 0.075701
0.074332 0.396492 0.076414
0.075242 0.406837 0.077433
0.076235 0.418193 0.078550
0.077219 0.429507 0.079660
0.077987 0.438375 0.080530
0.078490 0.444200 0.081101
0.079233 0.452833 0.081946
0.079997 0.461734 0.082816
0.081087 0.474508 0.084063
0.082701 0.493545 0.085919
0.084657 0.516653 0.088169
0.132207 0.543289 0.095313
0.298475 0.581543 0.114836
0.406416 0.614918 0.128053
0.501319 0.676503 0.139818
0.592610 0.706526 0.150801
0.651129 0.707459 0.183528
0.688556 0.706749 0.188246
0.721084 0.716259 0.194425
