film-luts/Frontier luts/Fuji_Pro_400H_v3_REBUILT.cube
TITLE "Fuji Pro 400H v3 - Rebuilt from Real References"
# Built from analysis of actual Fuji Pro 400H scans
# Characteristics:
#   - Clean, not muddy
#   - Pastel but clear colors
#   - Subtle cyan in shadows (barely noticeable)
#   - Magenta bias in skin tones
#   - Soft, slightly warm highlights
#   - NOT heavily lifted shadows
#   - Split toning baked in
LUT_3D_SIZE 9
0.092678 0.082685 0.127385
0.180460 0.081078 0.113812
0.309700 0.075241 0.094572
0.461619 0.068072 0.082363
0.589189 0.068072 0.074258
0.636014 0.068072 0.079683
0.653621 0.069903 0.089527
0.657248 0.072987 0.091844
0.657496 0.073192 0.092044
0.072430 0.099427 0.113681
0.142943 0.104137 0.105631
0.286854 0.098205 0.084214
0.447984 0.080702 0.080198
0.577913 0.072948 0.073839
0.663694 0.079669 0.062922
0.695062 0.103817 0.062565
0.705800 0.117517 0.062407
0.706516 0.118658 0.062395
0.073370 0.172347 0.100434
0.073285 0.165871 0.101541
0.254479 0.231992 0.064575
0.496355 0.185821 0.063316
0.624414 0.153623 0.062699
0.698483 0.165961 0.062143
0.671938 0.203732 0.101139
0.682271 0.212240 0.102022
0.683054 0.212932 0.102091
0.075288 0.316935 0.077584
0.075253 0.314812 0.077436
0.091580 0.336013 0.088915
0.505470 0.404093 0.102890
0.681049 0.371817 0.109520
0.724764 0.344418 0.110253
0.739057 0.335326 0.110487
0.744132 0.332985 0.110622
0.744527 0.332845 0.110638
0.091542 0.343338 0.080785
0.092291 0.353464 0.081298
0.095731 0.400014 0.083662
0.285048 0.490240 0.096728
0.743397 0.624812 0.112557
0.825126 0.591592 0.114818
0.841724 0.573419 0.114747
0.846698 0.565582 0.114613
0.847096 0.564992 0.114604
0.093419 0.368723 0.082073
0.094888 0.388594 0.083082
0.097885 0.429146 0.085141
0.102279 0.488602 0.088159
0.618434 0.656427 0.150029
0.785016 0.687871 0.165225
0.816536 0.686769 0.167632
0.822292 0.684084 0.167914
0.822664 0.683801 0.167926
0.094348 0.381304 0.082712
0.096442 0.409632 0.084150
0.098801 0.441544 0.085770
0.102707 0.494395 0.088453
0.560176 0.653301 0.105384
0.764588 0.701981 0.164517
0.815051 0.709258 0.168928
0.825489 0.709874 0.169780
0.826104 0.709882 0.169829
0.094789 0.387254 0.083013
0.097178 0.419580 0.084655
0.099155 0.446325 0.086013
0.102992 0.498253 0.088649
0.528128 0.644199 0.103479
0.752206 0.704217 0.163686
0.810569 0.714116 0.168882
0.823625 0.715671 0.169997
0.824472 0.715728 0.170066
0.094825 0.387753 0.083039
0.097238 0.420392 0.084696
0.099182 0.446697 0.086032
0.103018 0.498597 0.088667
0.525517 0.643420 0.103322
0.751120 0.704308 0.163607
0.810126 0.714404 0.168866
0.823396 0.716027 0.170001
0.824259 0.716108 0.170074
0.085967 0.079399 0.184532
0.170865 0.083497 0.181477
0.322735 0.076550 0.137572
0.467444 0.068072 0.099538
0.592374 0.068072 0.086321
0.639990 0.068072 0.108852
0.654978 0.068072 0.124054
0.658923 0.071156 0.130114
0.659185 0.071455 0.130620
0.072855 0.095208 0.144902
0.122163 0.098728 0.152291
0.281869 0.093528 0.116868
0.447400 0.076522 0.084866
0.585213 0.068726 0.075071
0.674531 0.071231 0.077171
0.698914 0.099286 0.096520
0.708141 0.113078 0.105695
0.708873 0.114213 0.106429
0.073266 0.157175 0.108975
0.073237 0.153332 0.111020
0.252248 0.226000 0.082387
0.497879 0.183303 0.063322
0.632616 0.147047 0.062688
0.710652 0.161605 0.062092
0.676256 0.201852 0.110647
0.685083 0.210575 0.120934
0.685790 0.211294 0.121770
0.075247 0.309076 0.082827
0.075281 0.310952 0.083069
0.076169 0.367602 0.082811
0.501736 0.404199 0.102721
0.692545 0.377557 0.110325
0.742451 0.350683 0.111567
0.753312 0.338438 0.111476
0.755615 0.334852 0.111398
0.755763 0.334593 0.111391
0.091804 0.343602 0.084354
0.092410 0.353567 0.082944
0.095665 0.399118 0.083616
0.271206 0.488956 0.096024
0.743311 0.628321 0.112715
0.800956 0.610411 0.161518
0.855824 0.591885 0.116277
0.859102 0.581188 0.115929
0.859244 0.580169 0.115888
0.093526 0.370181 0.082147
0.094964 0.389642 0.083136
0.097998 0.430672 0.085218
0.102397 0.490194 0.088240
0.614900 0.659209 0.149933
0.787382 0.692927 0.165731
0.820173 0.693158 0.168319
0.826350 0.690770 0.168653
0.826763 0.690515 0.168669
0.095397 0.384213 0.095107
0.097050 0.411361 0.091294
0.098970 0.443822 0.085885
0.102960 0.497817 0.088627
0.552076 0.656955 0.105178
0.765706 0.707887 0.164981
0.818160 0.716203 0.169604
0.828851 0.716995 0.170486
0.829480 0.717016 0.170536
0.096281 0.390535 0.101541
0.098373 0.421884 0.099828
0.099412 0.448947 0.087088
0.103297 0.502373 0.088858
0.517763 0.647906 0.103170
0.752469 0.710183 0.164088
0.813439 0.721660 0.169578
0.826991 0.723569 0.170751
0.827876 0.723640 0.170823
0.096362 0.391084 0.102160
0.098486 0.422743 0.100591
0.099509 0.449380 0.088063
0.103326 0.502772 0.088879
0.514888 0.647119 0.103001
0.751273 0.710250 0.163998
0.812968 0.721978 0.169561
0.826751 0.723980 0.170757
0.827654 0.724078 0.170834
0.080731 0.076952 0.253755
0.143061 0.077088 0.283507
0.319988 0.106102 0.276914
0.502437 0.068609 0.211808
0.605007 0.068072 0.163607
0.642752 0.068072 0.166917
0.656712 0.068072 0.180560
0.689731 0.068072 0.178399
0.690304 0.068072 0.179153
0.074186 0.084637 0.239943
0.115659 0.085923 0.261358
0.285540 0.107975 0.250879
0.487929 0.083599 0.186058
0.605590 0.068129 0.148551
0.679521 0.068072 0.145674
0.703286 0.092678 0.165462
0.711752 0.105938 0.173769
0.712469 0.107149 0.174438
0.074631 0.158189 0.194584
0.074623 0.156610 0.195714
0.225212 0.224637 0.234009
0.520170 0.177868 0.161436
0.651877 0.135207 0.117452
0.713493 0.154632 0.133570
0.683268 0.201723 0.186271
0.691775 0.210482 0.195652
0.692453 0.211208 0.196424
0.075934 0.309645 0.125840
0.076007 0.314678 0.125467
0.096007 0.334758 0.155201
0.499125 0.408604 0.117948
0.709471 0.388190 0.111862
0.748372 0.351835 0.111978
0.756255 0.336214 0.132808
0.759638 0.333558 0.155311
0.759913 0.333462 0.156907
0.093724 0.346859 0.109183
0.094365 0.355158 0.110003
0.097684 0.396316 0.116161
0.224499 0.485660 0.093698
0.710511 0.631149 0.155652
0.806446 0.622032 0.162708
0.818411 0.603089 0.162442
0.862855 0.590988 0.116566
0.862964 0.589840 0.116517
0.096416 0.375010 0.119574
0.097860 0.393389 0.121769
0.101040 0.434581 0.125848
0.103590 0.495395 0.100381
0.608944 0.665728 0.149893
0.790594 0.702961 0.166619
0.824779 0.704160 0.169368
0.831256 0.701768 0.169725
0.831695 0.701515 0.169743
0.098628 0.390094 0.136453
0.100923 0.416316 0.143011
0.103482 0.449082 0.146703
0.106327 0.506828 0.128736
0.542142 0.664953 0.105086
0.766885 0.716792 0.165638
0.821563 0.726863 0.170533
0.832538 0.727940 0.171452
0.833189 0.727999 0.171506
0.099762 0.396586 0.146385
0.102477 0.426984 0.154795
0.104767 0.456704 0.157687
0.107753 0.512709 0.143599
0.504760 0.655448 0.102916
0.752562 0.718822 0.164646
0.816189 0.731840 0.170425
0.830260 0.734129 0.171659
0.831167 0.734239 0.171735
0.099865 0.397159 0.147292
0.102611 0.427861 0.155865
0.104876 0.457436 0.158530
0.107861 0.513241 0.144627
0.501525 0.654592 0.102726
0.751133 0.718830 0.164535
0.815664 0.732130 0.170403
0.829960 0.734490 0.171658
0.830897 0.734625 0.171739
0.076216 0.073168 0.353614
0.118861 0.072145 0.378499
0.277150 0.070474 0.452894
0.509645 0.104581 0.432759
0.650981 0.068072 0.388144
0.686014 0.068072 0.335051
0.697746 0.068072 0.314492
0.702239 0.068072 0.309349
0.702586 0.068072 0.309089
0.075730 0.078692 0.343847
0.091212 0.075039 0.369724
0.241467 0.080711 0.412129
0.493038 0.119238 0.414026
0.654846 0.068072 0.380467
0.699474 0.068072 0.332977
0.715189 0.086408 0.312345
0.720967 0.097329 0.306731
0.721514 0.098410 0.306566
0.076468 0.117901 0.351496
0.076650 0.116397 0.364531
0.244835 0.157593 0.439283
0.522969 0.178321 0.426998
0.681169 0.148438 0.379984
0.682560 0.190085 0.344311
0.698471 0.205544 0.327246
0.704626 0.212992 0.323895
0.705136 0.213600 0.323791
0.079304 0.324730 0.324635
0.079562 0.332129 0.333575
0.113021 0.353664 0.385429
0.491912 0.438255 0.476390
0.738806 0.406272 0.412620
0.763629 0.359475 0.361780
0.766214 0.334429 0.332659
0.768241 0.331914 0.328593
0.768483 0.331992 0.328344
0.105464 0.371726 0.255811
0.105964 0.376877 0.257813
0.109738 0.406502 0.282589
0.120592 0.507575 0.337385
0.724210 0.683852 0.381878
0.825167 0.665544 0.337469
0.834741 0.636302 0.324826
0.834759 0.622069 0.323433
0.834591 0.620754 0.323158
0.103490 0.388860 0.209102
0.104920 0.402678 0.215805
0.109334 0.442215 0.239717
0.115566 0.512992 0.257994
0.600410 0.697218 0.315767
0.809462 0.741110 0.322279
0.845994 0.741227 0.317456
0.852961 0.737751 0.319448
0.853389 0.737355 0.319436
0.104894 0.401565 0.216567
0.107199 0.422890 0.228367
0.111625 0.465016 0.249768
0.116745 0.525531 0.262338
0.516154 0.679253 0.308982
0.784216 0.753307 0.336844
0.842316 0.764186 0.328346
0.853373 0.764467 0.323772
0.854046 0.764492 0.323824
0.105922 0.407807 0.225201
0.108886 0.434274 0.241357
0.113050 0.475995 0.259332
0.117862 0.533006 0.271009
0.479887 0.682961 0.293000
0.770128 0.755453 0.346930
0.837483 0.769411 0.338261
0.852020 0.771786 0.336257
0.852834 0.771730 0.335297
0.106006 0.408303 0.225924
0.109028 0.435185 0.242489
0.113174 0.476934 0.260179
0.117960 0.533654 0.271770
0.476803 0.682198 0.293528
0.768750 0.755480 0.347582
0.836965 0.769684 0.338758
0.851773 0.772170 0.336905
0.852703 0.772274 0.336661
0.078267 0.072456 0.455701
0.125718 0.071361 0.473710
0.237818 0.068509 0.517748
0.495454 0.068072 0.589141
0.663719 0.076039 0.581486
0.725798 0.070192 0.563215
0.738036 0.070142 0.546927
0.740851 0.073959 0.537880
0.741047 0.074355 0.537086
0.077226 0.081780 0.435684
0.087760 0.072422 0.484737
0.212360 0.069205 0.517198
0.484053 0.092789 0.586495
0.670153 0.111714 0.583087
0.737092 0.114715 0.565106
0.713704 0.179688 0.545020
0.717316 0.186120 0.537770
0.717585 0.186617 0.537109
0.077755 0.113799 0.437228
0.078295 0.111317 0.474024
0.206541 0.130162 0.553004
0.499668 0.168452 0.600355
0.664189 0.223503 0.588896
0.725278 0.232208 0.575820
0.739498 0.243314 0.561447
0.743362 0.248036 0.553254
0.743574 0.248308 0.552390
0.081199 0.283478 0.486098
0.081673 0.290475 0.509199
0.123049 0.319438 0.568059
0.541523 0.366579 0.658035
0.741354 0.390142 0.646863
0.777986 0.366310 0.615702
0.787828 0.364537 0.593193
0.789952 0.364047 0.581133
0.790032 0.363858 0.579958
0.121734 0.403468 0.461842
0.122755 0.409158 0.470937
0.127079 0.432835 0.509935
0.133446 0.560979 0.619937
0.717237 0.719461 0.687606
0.832050 0.702648 0.652027
0.842912 0.674281 0.628497
0.850260 0.653694 0.610351
0.850085 0.651815 0.608954
0.122551 0.434640 0.441594
0.124574 0.449942 0.455471
0.131423 0.502790 0.501351
0.130014 0.580332 0.551708
0.620036 0.753046 0.614178
0.843783 0.805478 0.620948
0.877980 0.800298 0.602548
0.883343 0.792744 0.589747
0.883593 0.791920 0.588392
0.120226 0.434115 0.408002
0.123231 0.457590 0.427831
0.130171 0.514632 0.470712
0.126329 0.577212 0.502408
0.496754 0.737340 0.558690
0.807286 0.809088 0.583839
0.846546 0.814383 0.615546
0.855963 0.813097 0.606441
0.856533 0.812831 0.605304
0.119372 0.434483 0.395082
0.122695 0.461269 0.416163
0.129284 0.517522 0.454706
0.124824 0.576705 0.480794
0.447243 0.718394 0.528335
0.785161 0.803518 0.560877
0.838092 0.813004 0.596424
0.851186 0.815218 0.597641
0.851868 0.815087 0.596623
0.119310 0.434538 0.394116
0.122662 0.461664 0.415257
0.129214 0.517766 0.453430
0.124726 0.576712 0.479092
0.443562 0.716906 0.525860
0.783048 0.802877 0.558850
0.837314 0.812732 0.594565
0.850676 0.815029 0.595887
0.851491 0.815135 0.595894
0.101014 0.071506 0.527606
0.159869 0.070200 0.535171
0.253662 0.068072 0.580650
0.470714 0.068072 0.627011
0.673171 0.080147 0.655696
0.732486 0.071394 0.653075
0.751316 0.071562 0.647753
0.756541 0.071591 0.644885
0.756850 0.071591 0.644577
0.078443 0.091405 0.503321
0.114695 0.077022 0.548829
0.235960 0.073519 0.596901
0.469252 0.085078 0.653099
0.683689 0.135606 0.660519
0.743939 0.119661 0.657540
0.728773 0.179757 0.641209
0.734624 0.188235 0.639860
0.735017 0.188908 0.639681
0.079580 0.151332 0.515537
0.080616 0.156888 0.575701
0.211189 0.167743 0.632083
0.483346 0.184625 0.671578
0.679643 0.252588 0.668646
0.733202 0.244066 0.665997
0.751959 0.249220 0.662835
0.758068 0.255232 0.661098
0.758437 0.255683 0.660848
0.081990 0.270768 0.549051
0.083257 0.286205 0.613981
0.084292 0.302692 0.663222
0.511828 0.334767 0.699541
0.721585 0.375441 0.714235
0.777488 0.366569 0.708671
0.795091 0.369118 0.702781
0.800486 0.374185 0.699555
0.800736 0.374372 0.699126
0.125615 0.393185 0.529455
0.128017 0.404445 0.553076
0.137078 0.450600 0.632808
0.139813 0.546806 0.724729
0.751695 0.689099 0.770652
0.831077 0.689861 0.759724
0.853122 0.656342 0.748027
0.852577 0.638280 0.740173
0.852285 0.636482 0.739355
0.129816 0.447044 0.535430
0.131676 0.459932 0.549389
0.138704 0.505315 0.596766
0.139795 0.592727 0.678435
0.611246 0.770716 0.729036
0.814871 0.820914 0.778753
0.850902 0.819231 0.771362
0.858372 0.813550 0.764433
0.858837 0.812928 0.763720
0.131857 0.470610 0.541022
0.135449 0.495801 0.565970
0.132989 0.553794 0.620626
0.140538 0.611198 0.670477
0.489738 0.758441 0.707433
0.793341 0.833768 0.763115
0.848050 0.846216 0.769434
0.858485 0.845892 0.764334
0.859228 0.845756 0.763728
0.132616 0.479173 0.543302
0.137451 0.511456 0.574823
0.133590 0.562542 0.620416
0.140613 0.617075 0.665662
0.435178 0.748734 0.696478
0.773535 0.831236 0.750832
0.843748 0.848610 0.762147
0.856451 0.850892 0.762221
0.857179 0.850862 0.761671
0.132688 0.479955 0.543548
0.137605 0.512714 0.575444
0.133616 0.563116 0.620212
0.140590 0.617385 0.665035
0.413481 0.757654 0.701707
0.771371 0.830773 0.749565
0.843256 0.848656 0.761295
0.856203 0.851011 0.761429
0.856991 0.851112 0.761328
0.131246 0.070691 0.553449
0.194307 0.069207 0.564030
0.289945 0.068072 0.609639
0.489927 0.069878 0.647421
0.684983 0.088124 0.681376
0.739197 0.071816 0.680272
0.753410 0.071966 0.678136
0.758523 0.072003 0.675964
0.758875 0.072005 0.675764
0.079474 0.101897 0.558235
0.160964 0.094359 0.599442
0.277541 0.103411 0.624011
0.499694 0.120149 0.679329
0.672754 0.207176 0.674339
0.721267 0.198722 0.673766
0.733559 0.194592 0.672122
0.737776 0.192773 0.670004
0.738060 0.192630 0.669806
0.081246 0.200608 0.571957
0.082121 0.197505 0.630639
0.260083 0.197931 0.665098
0.509852 0.246715 0.678262
0.694505 0.272934 0.700330
0.744447 0.265717 0.697889
0.756295 0.260292 0.694995
0.759923 0.257182 0.691939
0.760148 0.256914 0.691645
0.083248 0.297184 0.602482
0.084316 0.311444 0.655997
0.129917 0.327589 0.660461
0.536759 0.358691 0.727962
0.739873 0.386814 0.740353
0.794673 0.376397 0.735264
0.795558 0.375261 0.734549
0.799674 0.372177 0.731300
0.800023 0.372167 0.731071
0.128438 0.390875 0.573288
0.135329 0.420491 0.642001
0.141356 0.452330 0.684386
0.430650 0.539458 0.767795
0.770525 0.627115 0.780928
0.829356 0.629407 0.776396
0.841265 0.617734 0.772895
0.861107 0.579046 0.780776
0.861406 0.577976 0.780353
0.131385 0.446467 0.559059
0.134870 0.469702 0.585608
0.134706 0.539648 0.659233
0.144437 0.610133 0.727028
0.668841 0.778073 0.764579
0.845094 0.816465 0.781104
0.848244 0.817778 0.806675
0.882232 0.810447 0.774608
0.882669 0.809724 0.774393
0.133094 0.467188 0.562721
0.136084 0.486621 0.583327
0.134053 0.546444 0.643139
0.142387 0.606153 0.701843
0.438727 0.753932 0.741213
0.790780 0.838038 0.798048
0.846830 0.851897 0.806593
0.857056 0.852541 0.805825
0.857772 0.852428 0.805510
0.133908 0.475087 0.566484
0.138118 0.501159 0.593726
0.135947 0.562029 0.654467
0.143050 0.614329 0.703085
0.305440 0.744088 0.740020
0.772070 0.837201 0.788809
0.842868 0.856195 0.803477
0.855896 0.858991 0.804615
0.856640 0.859068 0.804479
0.133969 0.475698 0.566752
0.138289 0.502381 0.594601
0.136081 0.563166 0.655229
0.143091 0.614907 0.703081
0.293334 0.741850 0.738909
0.770091 0.836936 0.787878
0.842278 0.856369 0.803104
0.855702 0.859283 0.804299
0.856517 0.859441 0.804320
0.155571 0.070076 0.565510
0.222133 0.068397 0.578494
0.331397 0.068072 0.626978
0.536343 0.069280 0.679393
0.699973 0.094068 0.688514
0.744101 0.077634 0.687707
0.755803 0.072102 0.686704
0.759533 0.072138 0.685843
0.759890 0.072141 0.685706
0.082024 0.110305 0.572503
0.199688 0.111052 0.614573
0.317813 0.114479 0.657464
0.545310 0.142400 0.691521
0.687796 0.216446 0.684267
0.727416 0.208094 0.683344
0.737427 0.203284 0.681840
0.740590 0.201986 0.681076
0.740872 0.201737 0.680925
0.082160 0.209791 0.620799
0.082697 0.212461 0.652238
0.316028 0.212929 0.682465
0.553273 0.262835 0.695310
0.710146 0.282313 0.710818
0.751047 0.274627 0.708206
0.760609 0.268886 0.705565
0.763577 0.267188 0.704389
0.763788 0.266808 0.704142
0.125592 0.316891 0.608034
0.128579 0.327620 0.640790
0.202084 0.342821 0.682273
0.578918 0.379967 0.743673
0.756861 0.401371 0.752219
0.801723 0.388479 0.746636
0.810562 0.376149 0.741547
0.813242 0.372443 0.739570
0.813355 0.371688 0.739192
0.131201 0.400789 0.603605
0.137322 0.425742 0.661442
0.143778 0.461640 0.704994
0.503930 0.540916 0.782375
0.791178 0.595733 0.800164
0.828226 0.616852 0.780780
0.855503 0.579508 0.791125
0.859290 0.572929 0.789423
0.859516 0.570909 0.789009
0.132826 0.451654 0.574830
0.139110 0.489593 0.618020
0.137173 0.551197 0.682759
0.147758 0.631389 0.756528
0.712265 0.780894 0.781448
0.850581 0.808089 0.789055
0.873046 0.806878 0.786133
0.878829 0.804437 0.784968
0.879194 0.803581 0.784886
0.133889 0.469672 0.571821
0.138432 0.497576 0.601344
0.136902 0.561805 0.668281
0.145026 0.621301 0.724208
0.535927 0.774971 0.753614
0.805642 0.841049 0.808483
0.849794 0.851704 0.814398
0.856594 0.852756 0.814951
0.857198 0.852696 0.814936
0.134193 0.474029 0.571764
0.138041 0.497527 0.596509
0.135895 0.557878 0.657878
0.143240 0.610838 0.709292
0.187893 0.737459 0.775700
0.769021 0.836980 0.796664
0.841890 0.857037 0.812792
0.855464 0.860126 0.814328
0.856170 0.860243 0.814364
0.134255 0.474616 0.572069
0.138195 0.498621 0.597303
0.136034 0.559004 0.658731
0.143285 0.611392 0.709377
0.174154 0.735034 0.774991
0.766644 0.836641 0.795740
0.841293 0.857256 0.812533
0.855318 0.860483 0.814190
0.856085 0.860643 0.814259
0.158362 0.070083 0.566538
0.225540 0.068291 0.579791
0.336815 0.068072 0.628723
0.542444 0.069375 0.680921
0.702031 0.094658 0.689017
0.744707 0.078230 0.688148
0.756059 0.072113 0.687328
0.759676 0.072148 0.686501
0.759960 0.072150 0.686407
0.082840 0.110880 0.573868
0.204443 0.112750 0.616017
0.324692 0.116478 0.659294
0.551613 0.144718 0.692619
0.689689 0.217063 0.685001
0.728078 0.208772 0.683987
0.737795 0.203971 0.682574
0.740859 0.202628 0.681819
0.741098 0.202512 0.681734
0.082210 0.211042 0.622711
0.087082 0.213612 0.654105
0.323738 0.214379 0.684260
0.559343 0.264599 0.697060
0.712104 0.282993 0.711570
0.751719 0.275235 0.708883
0.761001 0.269529 0.706349
0.763884 0.267821 0.705183
0.764096 0.267653 0.705070
0.125875 0.318339 0.610687
0.128812 0.328986 0.642798
0.217833 0.344410 0.684890
0.585011 0.382074 0.745210
0.758977 0.402337 0.752993
0.802458 0.389300 0.747374
0.810984 0.377053 0.742407
0.813442 0.372944 0.740326
0.813647 0.372686 0.740158
0.131582 0.402299 0.607619
0.137555 0.426714 0.663348
0.144031 0.462779 0.706980
0.513011 0.541511 0.784011
0.793049 0.595156 0.800381
0.828343 0.615808 0.781028
0.855483 0.578447 0.791546
0.859179 0.571977 0.789891
0.859448 0.571326 0.789724
0.133039 0.452685 0.576896
0.139826 0.493348 0.623080
0.137510 0.553028 0.685727
0.148118 0.634983 0.759632
0.717412 0.781156 0.783112
0.851426 0.807120 0.789589
0.872866 0.805533 0.786806
0.878438 0.803120 0.785660
0.878841 0.802894 0.785564
0.133983 0.470030 0.572826
0.138745 0.499164 0.603610
0.137117 0.562993 0.670136
0.145358 0.623433 0.726782
0.549488 0.777960 0.754845
0.807501 0.841347 0.809227
0.850154 0.851603 0.814910
0.856758 0.852615 0.815437
0.857234 0.852646 0.815450
0.134268 0.474303 0.572591
0.138269 0.498651 0.598197
0.136180 0.559492 0.660311
0.143487 0.612322 0.711314
0.262208 0.735866 0.748008
0.771972 0.837803 0.798074
0.842467 0.857190 0.813454
0.855594 0.860194 0.814895
0.856127 0.860287 0.814929
0.134283 0.474573 0.572522
0.138202 0.498426 0.597601
0.136025 0.558678 0.658938
0.143305 0.611180 0.709867
0.168033 0.733725 0.775519
0.766260 0.836568 0.796241
0.841179 0.857271 0.813119
0.855278 0.860535 0.814753
0.856052 0.860688 0.814827
