film-luts/Frontier luts/Fuji_Pro_400H_v3_REBUILT.cube
TITLE "Fuji Pro 400H v3 - Rebuilt from Real References"
# Built from analysis of actual Fuji Pro 400H scans
# Characteristics:
#   - Clean, not muddy
#   - Pastel but clear colors
#   - Subtle cyan in shadows (barely noticeable)
#   - Magenta bias in skin tones
#   - Soft, slightly warm highlights
#   - NOT heavily lifted shadows
#   - Split toning baked in
LUT_3D_SIZE 33
0.092678 0.082685 0.127385
0.109175 0.082095 0.125515
0.130194 0.081786 0.121651
0.155085 0.081603 0.117564
0.180460 0.081078 0.113812
0.208772 0.080064 0.109791
0.240539 0.078950 0.105071
0.274059 0.077474 0.099891
0.309700 0.075241 0.094572
0.350219 0.072099 0.088549
0.391296 0.068504 0.085446
0.427213 0.068072 0.084286
0.461619 0.068072 0.082363
0.499315 0.068072 0.080157
0.534263 0.068072 0.077990
0.564622 0.068072 0.075987
0.589189 0.068072 0.074258
0.605183 0.068072 0.073064
0.617846 0.068072 0.073128
0.627923 0.068072 0.075964
0.636014 0.068072 0.079683
0.642722 0.068072 0.083435
0.647718 0.068072 0.086325
0.651184 0.068442 0.088280
0.653621 0.069903 0.089527
0.655088 0.071038 0.090248
0.656076 0.071918 0.090876
0.656745 0.072550 0.091422
0.657248 0.072987 0.091844
0.657496 0.073192 0.092044
0.657496 0.073192 0.092044
0.657496 0.073192 0.092044
0.657496 0.073192 0.092044
0.082697 0.083896 0.122262
0.101392 0.085220 0.120636
0.119258 0.084460 0.117931
0.139632 0.083870 0.114371
0.162577 0.083185 0.110983
0.186074 0.082509 0.107646
0.215337 0.081670 0.104267
0.251197 0.080391 0.099825
0.291221 0.078300 0.094464
0.332998 0.075256 0.089109
0.377258 0.071702 0.085634
0.417850 0.068529 0.084693
0.452912 0.068072 0.082858
0.490512 0.068072 0.080683
0.527454 0.068072 0.078423
0.559264 0.068072 0.076351
0.584153 0.068072 0.074621
0.601885 0.068072 0.073316
0.615691 0.068072 0.072245
0.627348 0.068183 0.072548
0.636478 0.068072 0.075526
0.643338 0.069884 0.078687
0.647954 0.072658 0.080966
0.651263 0.074762 0.082612
0.653769 0.076497 0.083893
0.654170 0.079193 0.083683
0.684953 0.068072 0.068356
0.686655 0.068072 0.069220
0.687765 0.068101 0.070153
0.688338 0.068990 0.070627
0.688338 0.068990 0.070627
0.688338 0.068990 0.070627
0.688338 0.068990 0.070627
0.076038 0.087278 0.118722
0.090412 0.088468 0.119195
0.111414 0.089088 0.115199
0.137104 0.088483 0.111351
0.159961 0.087738 0.108125
0.181652 0.086563 0.105139
0.207112 0.085603 0.102202
0.239826 0.084232 0.098381
0.279952 0.082050 0.093396
0.321622 0.079208 0.088321
0.366878 0.075439 0.085148
0.410979 0.071989 0.084254
0.448239 0.069001 0.082909
0.485672 0.068072 0.080969
0.524907 0.068072 0.078583
0.558508 0.068072 0.076401
0.580952 0.068072 0.074851
0.599833 0.068072 0.073471
0.615259 0.069000 0.072037
0.627302 0.069096 0.071075
0.636288 0.072550 0.071481
0.642773 0.076704 0.073555
0.646579 0.081060 0.074776
0.679469 0.069643 0.062885
0.684278 0.073486 0.062829
0.687383 0.076800 0.063647
0.689882 0.079510 0.064893
0.691928 0.081832 0.065901
0.693309 0.083751 0.066766
0.693935 0.084715 0.067238
0.693935 0.084715 0.067238
0.693935 0.084715 0.067238
0.693935 0.084715 0.067238
0.072361 0.092567 0.116155
0.080646 0.092190 0.117426
0.097780 0.093196 0.114534
0.126391 0.095317 0.110487
0.154666 0.094487 0.106459
0.183583 0.093700 0.102213
0.212578 0.092745 0.097578
0.239858 0.090071 0.094907
0.277193 0.087782 0.090143
0.316798 0.084596 0.086621
0.360041 0.081014 0.084820
0.406047 0.077075 0.083333
0.445951 0.073085 0.082081
0.484445 0.070461 0.080487
0.525271 0.068072 0.078560
0.557123 0.068072 0.076494
0.579077 0.068072 0.074984
0.598822 0.070542 0.072911
0.615270 0.071632 0.071317
0.626563 0.076292 0.068973
0.635106 0.080939 0.067910
0.669900 0.072535 0.062928
0.677856 0.078252 0.062840
0.684194 0.083325 0.062766
0.689443 0.088102 0.062702
0.692816 0.092027 0.062655
0.695414 0.095035 0.062619
0.697453 0.097316 0.062591
0.698856 0.099116 0.063044
0.699471 0.100021 0.063551
0.699471 0.100021 0.063551
0.699471 0.100021 0.063551
0.699471 0.100021 0.063551
0.072430 0.099427 0.113681
0.072420 0.097671 0.114797
0.083843 0.098797 0.115562
0.104691 0.103144 0.111867
0.142943 0.104137 0.105631
0.174911 0.103075 0.100284
0.207521 0.101930 0.094660
0.245506 0.100202 0.089491
0.286854 0.098205 0.084214
0.322262 0.094407 0.083745
0.360417 0.089868 0.082830
0.406284 0.085724 0.081354
0.447984 0.080702 0.080198
0.485669 0.076382 0.079016
0.525456 0.072157 0.077576
0.556148 0.070306 0.076020
0.577913 0.072948 0.073839
0.598201 0.075677 0.071582
0.614514 0.080148 0.068911
0.625335 0.086562 0.065534
0.663694 0.079669 0.062922
0.674715 0.086682 0.062806
0.683159 0.093520 0.062707
0.689732 0.099063 0.062629
0.695062 0.103817 0.062565
0.698874 0.108635 0.062509
0.701814 0.112382 0.062466
0.704156 0.115255 0.062432
0.705800 0.117517 0.062407
0.706516 0.118658 0.062395
0.706516 0.118658 0.062395
0.706516 0.118658 0.062395
0.706516 0.118658 0.062395
0.072533 0.108509 0.111134
0.072519 0.106749 0.112013
0.072543 0.106788 0.113480
0.086771 0.109945 0.112693
0.116337 0.115697 0.108129
0.160311 0.117185 0.099231
0.197510 0.116528 0.091850
0.238563 0.113837 0.083902
0.286537 0.113151 0.081610
0.329697 0.109158 0.080313
0.368006 0.105347 0.079139
0.411992 0.100325 0.077835
0.452662 0.093752 0.076963
0.487659 0.087588 0.076269
0.524297 0.082219 0.075213
0.554361 0.080035 0.073712
0.577067 0.081512 0.071660
0.597596 0.085201 0.068925
0.612892 0.093387 0.064166
0.655924 0.087310 0.062923
0.669390 0.095891 0.062781
0.680558 0.103635 0.062659
0.689556 0.111094 0.062553
0.696823 0.117927 0.062462
0.702641 0.123634 0.062388
0.706438 0.128169 0.062335
0.709232 0.131143 0.062297
0.711481 0.133434 0.062268
0.713033 0.135186 0.062247
0.713766 0.136048 0.062237
0.713766 0.136048 0.062237
0.713766 0.136048 0.062237
0.713766 0.136048 0.062237
0.072684 0.120890 0.108387
0.072660 0.118585 0.109145
0.072655 0.117376 0.110014
0.072699 0.118535 0.111634
0.089778 0.125436 0.109232
0.131901 0.133281 0.101227
0.180875 0.139579 0.093019
0.228481 0.139605 0.081569
0.281123 0.137690 0.077138
0.332461 0.133364 0.075333
0.372732 0.127049 0.074393
0.412368 0.120351 0.073495
0.453428 0.113242 0.072516
0.487616 0.105170 0.072140
0.522016 0.097845 0.071528
0.553628 0.094061 0.070122
0.576888 0.096925 0.067245
0.623528 0.090226 0.063112
0.645783 0.097662 0.062921
0.662567 0.106012 0.062760
0.676631 0.115313 0.062609
0.688593 0.124208 0.062475
0.697680 0.131502 0.062370
0.704662 0.137095 0.062289
0.710270 0.141676 0.062223
0.713952 0.145351 0.062176
0.716748 0.148216 0.062139
0.719224 0.150818 0.062107
0.720950 0.152805 0.062083
0.721786 0.153772 0.062071
0.721786 0.153772 0.062071
0.721786 0.153772 0.062071
0.721786 0.153772 0.062071
0.072923 0.140107 0.104284
0.072884 0.136780 0.105159
0.072864 0.134713 0.105936
0.072877 0.134728 0.106751
0.072956 0.138576 0.107924
0.088737 0.151694 0.103485
0.147050 0.165261 0.097743
0.208706 0.176500 0.084124
0.270567 0.179748 0.069627
0.328894 0.181723 0.064767
0.388801 0.166443 0.064132
0.434174 0.154692 0.063916
0.476704 0.143392 0.063715
0.511330 0.132996 0.063559
0.546076 0.123117 0.063399
0.580360 0.115409 0.063228
0.607243 0.112807 0.063072
0.632434 0.115482 0.062892
0.654865 0.122202 0.062705
0.672504 0.130726 0.062537
0.686252 0.138730 0.062397
0.697583 0.145702 0.062279
0.706632 0.152259 0.062178
0.714016 0.158282 0.062092
0.719947 0.163269 0.062022
0.723938 0.167215 0.061971
0.726868 0.170161 0.061933
0.729183 0.172131 0.061905
0.730782 0.173583 0.061886
0.731551 0.174300 0.061876
0.731551 0.174300 0.061876
0.731551 0.174300 0.061876
0.731551 0.174300 0.061876
0.073370 0.172347 0.100434
0.073295 0.167363 0.100670
0.073251 0.164393 0.100819
0.073185 0.161226 0.099824
0.073285 0.165871 0.101541
0.073453 0.175479 0.102560
0.083289 0.199291 0.101972
0.164201 0.232701 0.084435
0.254479 0.231992 0.064575
0.334343 0.221072 0.064131
0.396409 0.210040 0.063803
0.447830 0.197828 0.063551
0.496355 0.185821 0.063316
0.532918 0.174896 0.063151
0.566384 0.166006 0.062992
0.599249 0.158119 0.062832
0.624414 0.153623 0.062699
0.646968 0.151925 0.062564
0.668231 0.153945 0.062415
0.684981 0.159332 0.062272
0.698483 0.165961 0.062143
0.709867 0.172521 0.062027
0.718617 0.177827 0.061937
0.666811 0.200303 0.100739
0.671938 0.203732 0.101139
0.675591 0.206637 0.101447
0.678363 0.208940 0.101685
0.680640 0.210822 0.101880
0.682271 0.212240 0.102022
0.683054 0.212932 0.102091
0.683054 0.212932 0.102091
0.683054 0.212932 0.102091
0.683054 0.212932 0.102091
0.073935 0.213469 0.095154
0.073874 0.208396 0.096345
0.073834 0.204985 0.097250
0.073821 0.203347 0.098037
0.073854 0.205111 0.098358
0.073984 0.213926 0.097799
0.074410 0.243490 0.095262
0.074794 0.272456 0.090714
0.198676 0.278522 0.082944
0.315266 0.277964 0.063888
0.398656 0.261952 0.063454
0.459175 0.248750 0.063150
0.515581 0.236498 0.062866
0.558095 0.224869 0.062667
0.593370 0.214912 0.062504
0.625721 0.206436 0.062350
0.648305 0.199899 0.062247
0.667759 0.195724 0.062149
0.632631 0.208649 0.099546
0.646047 0.209825 0.100225
0.656856 0.212523 0.100855
0.666336 0.216735 0.101495
0.674056 0.220811 0.102047
0.679956 0.224252 0.102484
0.685064 0.227548 0.102877
0.688863 0.230180 0.103178
0.691592 0.232116 0.103396
0.693686 0.233584 0.103563
0.695252 0.234725 0.103690
0.696016 0.235289 0.103752
0.696016 0.235289 0.103752
0.696016 0.235289 0.103752
0.696016 0.235289 0.103752
0.074570 0.265987 0.082965
0.074534 0.263037 0.083587
0.074510 0.261180 0.083957
0.074503 0.260298 0.084396
0.074521 0.260727 0.085117
0.074619 0.265146 0.086887
0.074814 0.275548 0.088855
0.075208 0.300425 0.089004
0.106253 0.314537 0.084933
0.249143 0.301915 0.092527
0.370772 0.310526 0.092203
0.440198 0.298642 0.094866
0.498037 0.291285 0.097205
0.543395 0.283542 0.098945
0.576507 0.274735 0.100067
0.606556 0.266003 0.101050
0.625715 0.258788 0.101598
0.640522 0.253437 0.102033
0.655240 0.249770 0.102543
0.666898 0.248112 0.103006
0.675926 0.247459 0.103395
0.683408 0.248243 0.103779
0.690047 0.250185 0.104180
0.695342 0.252506 0.104536
0.699916 0.254921 0.104863
0.703449 0.256981 0.105124
0.705960 0.258570 0.105316
0.707904 0.259813 0.105465
0.709372 0.260743 0.105577
0.710094 0.261223 0.105633
0.710094 0.261223 0.105633
0.710094 0.261223 0.105633
0.710094 0.261223 0.105633
0.074942 0.292811 0.079701
0.074907 0.290072 0.080268
0.074889 0.288419 0.080765
0.074882 0.287505 0.081249
0.074894 0.287704 0.081767
0.074967 0.291430 0.082693
0.075123 0.299727 0.084326
0.075504 0.322247 0.085946
0.075774 0.343971 0.081359
0.175060 0.328185 0.089672
0.317010 0.345582 0.091365
0.438449 0.352486 0.097333
0.506259 0.340020 0.099894
0.561926 0.333774 0.102184
0.599953 0.327525 0.103655
0.634794 0.320512 0.104942
0.655959 0.312697 0.105556
0.670073 0.305458 0.105868
0.682834 0.299827 0.106194
0.692609 0.295603 0.106449
0.700006 0.292581 0.106649
0.706026 0.291111 0.106859
0.711206 0.290336 0.107063
0.714947 0.290017 0.107222
0.718267 0.290280 0.107389
0.721121 0.291007 0.107556
0.723041 0.291486 0.107668
0.724619 0.292108 0.107771
0.725812 0.292549 0.107847
0.726397 0.292784 0.107885
0.726397 0.292784 0.107885
0.726397 0.292784 0.107885
0.726397 0.292784 0.107885
0.075288 0.316935 0.077584
0.075263 0.315225 0.077662
0.075248 0.314385 0.077558
0.075243 0.314178 0.077460
0.075253 0.314812 0.077436
0.075312 0.318825 0.077215
0.075433 0.326664 0.077004
0.075723 0.344735 0.077374
0.091580 0.336013 0.088915
0.092366 0.354486 0.081350
0.245467 0.372237 0.089303
0.389705 0.388512 0.096775
0.505470 0.404093 0.102890
0.574030 0.391057 0.105458
0.615611 0.383636 0.107039
0.655154 0.379269 0.108669
0.681049 0.371817 0.109520
0.696255 0.363321 0.109823
0.708975 0.355476 0.110043
0.718451 0.349336 0.110193
0.724764 0.344418 0.110253
0.729774 0.340933 0.110321
0.733804 0.338385 0.110388
0.736577 0.336385 0.110422
0.739057 0.335326 0.110487
0.741145 0.334652 0.110552
0.742366 0.333838 0.110571
0.743327 0.333265 0.110593
0.744132 0.332985 0.110622
0.744527 0.332845 0.110638
0.744527 0.332845 0.110638
0.744527 0.332845 0.110638
0.744527 0.332845 0.110638
0.075532 0.336258 0.073695
0.075529 0.335544 0.074247
0.075535 0.335460 0.074687
0.075550 0.336039 0.075057
0.075578 0.337527 0.075377
0.075653 0.342134 0.075554
0.075757 0.349957 0.074282
0.075972 0.366057 0.071853
0.092652 0.356770 0.083183
0.093839 0.374411 0.082362
0.144630 0.392725 0.085589
0.323616 0.412090 0.094820
0.459951 0.449324 0.102916
0.585819 0.469986 0.098478
0.647064 0.457389 0.100366
0.687304 0.446642 0.101734
0.719381 0.440502 0.102937
0.737648 0.431814 0.103382
0.751689 0.422964 0.103624
0.761867 0.415240 0.103739
0.768037 0.408543 0.103716
0.772786 0.403569 0.103706
0.776152 0.399517 0.103675
0.778330 0.396135 0.103620
0.762238 0.393509 0.115234
0.763719 0.391533 0.115204
0.764666 0.389925 0.115164
0.765227 0.388578 0.115117
0.765743 0.387754 0.115099
0.765997 0.387341 0.115089
0.765997 0.387341 0.115089
0.765997 0.387341 0.115089
0.765997 0.387341 0.115089
0.075724 0.353035 0.069127
0.075728 0.352853 0.069544
0.075739 0.353311 0.069787
0.075760 0.354492 0.069926
0.075805 0.357375 0.069945
0.075882 0.362265 0.069921
0.076004 0.370056 0.069885
0.092040 0.347920 0.083358
0.093739 0.373061 0.082293
0.094962 0.389598 0.083133
0.096337 0.408208 0.084078
0.255183 0.426568 0.092326
0.401220 0.469982 0.101166
0.543726 0.507335 0.098307
0.649715 0.520206 0.103388
0.706914 0.512333 0.105675
0.739708 0.500296 0.106638
0.760536 0.493484 0.107288
0.776571 0.486887 0.107727
0.788374 0.480086 0.107959
0.795912 0.473691 0.108014
0.801106 0.468075 0.107995
0.804529 0.463249 0.107931
0.806827 0.459222 0.107852
0.808362 0.455864 0.107768
0.809407 0.452999 0.107684
0.810122 0.450635 0.107608
0.810378 0.448587 0.107526
0.810611 0.447120 0.107469
0.810712 0.446379 0.107439
0.810712 0.446379 0.107439
0.810712 0.446379 0.107439
0.810712 0.446379 0.107439
0.075897 0.368285 0.064847
0.075906 0.368858 0.064843
0.075924 0.370009 0.064836
0.091009 0.336134 0.080418
0.091294 0.339981 0.080614
0.091634 0.344577 0.080847
0.092197 0.352190 0.081234
0.093171 0.365380 0.081904
0.094844 0.388016 0.083053
0.095994 0.403567 0.083842
0.097262 0.420718 0.084713
0.163376 0.438175 0.088610
0.342353 0.483453 0.099069
0.488776 0.528678 0.097140
0.615574 0.560319 0.103658
0.698228 0.574068 0.108122
0.754751 0.571785 0.110635
0.775230 0.555148 0.110816
0.790377 0.545717 0.111082
0.803732 0.539190 0.111400
0.813062 0.533981 0.111591
0.819566 0.529048 0.111665
0.824048 0.524558 0.111666
0.827486 0.520762 0.111649
0.829744 0.517315 0.111595
0.831400 0.514467 0.111540
0.832648 0.512019 0.111485
0.833426 0.509948 0.111425
0.833900 0.508362 0.111374
0.834119 0.507538 0.111346
0.834119 0.507538 0.111346
0.834119 0.507538 0.111346
0.834119 0.507538 0.111346
0.091542 0.343338 0.080785
0.091634 0.344568 0.080847
0.091754 0.346205 0.080930
0.092001 0.349544 0.081099
0.092291 0.353464 0.081298
0.092695 0.358930 0.081575
0.093265 0.366654 0.081968
0.094243 0.379884 0.082640
0.095731 0.400014 0.083662
0.096760 0.413920 0.084368
0.097906 0.429432 0.085155
0.099225 0.447288 0.086062
0.285048 0.490240 0.096728
0.430251 0.537073 0.095402
0.568836 0.580224 0.102412
0.669781 0.612026 0.108556
0.743397 0.624812 0.112557
0.752847 0.620239 0.158303
0.804927 0.612605 0.114853
0.816199 0.599771 0.114781
0.825126 0.591592 0.114818
0.831532 0.585587 0.114837
0.835801 0.580486 0.114799
0.839462 0.576842 0.114801
0.841724 0.573419 0.114747
0.843523 0.570718 0.114705
0.844915 0.568564 0.114669
0.845953 0.566835 0.114637
0.846698 0.565582 0.114613
0.847096 0.564992 0.114604
0.847096 0.564992 0.114604
0.847096 0.564992 0.114604
0.847096 0.564992 0.114604
0.092138 0.351392 0.081193
0.092275 0.353242 0.081287
0.092495 0.356227 0.081439
0.092761 0.359829 0.081621
0.093077 0.364098 0.081838
0.093517 0.370059 0.082141
0.094109 0.378063 0.082548
0.095195 0.392768 0.083294
0.096446 0.409693 0.084153
0.097327 0.421606 0.084758
0.098358 0.435550 0.085466
0.099561 0.451836 0.086292
0.222831 0.490699 0.093859
0.379208 0.538950 0.093700
0.521833 0.583285 0.100376
0.636317 0.627507 0.107721
0.690583 0.641292 0.154738
0.747749 0.651232 0.159918
0.776267 0.651566 0.162208
0.794791 0.649519 0.163547
0.804809 0.644127 0.163997
0.809417 0.638477 0.164001
0.812169 0.633206 0.163881
0.814491 0.629457 0.163826
0.815877 0.625994 0.163714
0.816704 0.622871 0.163580
0.817283 0.620271 0.163459
0.817807 0.618361 0.163378
0.818168 0.616897 0.163312
0.818340 0.616186 0.163281
0.818340 0.616186 0.163281
0.818340 0.616186 0.163281
0.818340 0.616186 0.163281
0.092630 0.358059 0.081531
0.092835 0.360840 0.081673
0.093103 0.364456 0.081856
0.093384 0.368265 0.082050
0.093773 0.373518 0.082316
0.094250 0.379976 0.082644
0.094954 0.389489 0.083128
0.096035 0.404130 0.083871
0.097064 0.418047 0.084577
0.097818 0.428246 0.085095
0.098732 0.440618 0.085723
0.099819 0.455320 0.086469
0.150881 0.488319 0.090404
0.337535 0.539852 0.092288
0.474171 0.579475 0.098384
0.600253 0.631318 0.106226
0.666072 0.651966 0.153499
0.734065 0.668595 0.159958
0.772022 0.674211 0.163328
0.794898 0.674344 0.165142
0.810585 0.673677 0.166336
0.820381 0.672278 0.167019
0.825848 0.670144 0.167315
0.828701 0.667297 0.167359
0.831471 0.665619 0.167472
0.833590 0.664503 0.167568
0.834195 0.662484 0.167488
0.834271 0.660449 0.167366
0.834345 0.658895 0.167274
0.834375 0.658117 0.167227
0.834375 0.658117 0.167227
0.834375 0.658117 0.167227
0.834375 0.658117 0.167227
0.093037 0.363552 0.081811
0.093344 0.367713 0.082022
0.093631 0.371595 0.082218
0.093976 0.376266 0.082456
0.094390 0.381872 0.082740
0.094888 0.388602 0.083082
0.095699 0.399587 0.083640
0.096747 0.413747 0.084359
0.097523 0.424250 0.084892
0.098235 0.433879 0.085381
0.099059 0.445041 0.085948
0.100126 0.459472 0.086680
0.102545 0.486825 0.088088
0.300802 0.539995 0.091021
0.432089 0.575310 0.096784
0.563220 0.628917 0.104399
0.642177 0.656715 0.151924
0.715365 0.678949 0.159147
0.763175 0.689472 0.163607
0.770219 0.677178 0.163376
0.787767 0.677006 0.164749
0.799258 0.676307 0.165611
0.806483 0.675266 0.166114
0.810592 0.673902 0.166351
0.813542 0.672805 0.166514
0.815354 0.671849 0.166596
0.816637 0.670941 0.166639
0.817518 0.670138 0.166659
0.818189 0.669509 0.166672
0.818504 0.669187 0.166676
0.818504 0.669187 0.166676
0.818504 0.669187 0.166676
0.818504 0.669187 0.166676
0.093419 0.368723 0.082073
0.093737 0.373026 0.082292
0.094051 0.377290 0.082508
0.094439 0.382530 0.082774
0.094888 0.388594 0.083082
0.095513 0.397071 0.083512
0.096368 0.408628 0.084099
0.097243 0.420470 0.084700
0.097885 0.429146 0.085141
0.098570 0.438420 0.085612
0.099329 0.448688 0.086133
0.100429 0.463581 0.086889
0.102279 0.488602 0.088159
0.265747 0.539118 0.089777
0.399507 0.573026 0.095577
0.530095 0.623845 0.102631
0.618434 0.656427 0.150029
0.694132 0.682617 0.157702
0.733117 0.681671 0.160731
0.763921 0.685900 0.163437
0.785016 0.687871 0.165225
0.799053 0.688413 0.166362
0.807591 0.688111 0.167014
0.812829 0.687315 0.167375
0.816536 0.686769 0.167632
0.818987 0.686123 0.167783
0.820447 0.685313 0.167846
0.821519 0.684622 0.167887
0.822292 0.684084 0.167914
0.822664 0.683801 0.167926
0.822664 0.683801 0.167926
0.822664 0.683801 0.167926
0.822664 0.683801 0.167926
0.093724 0.372851 0.082282
0.094054 0.377317 0.082510
0.094429 0.382402 0.082768
0.094844 0.388006 0.083052
0.095319 0.394435 0.083379
0.096034 0.404113 0.083870
0.096897 0.415794 0.084462
0.097644 0.425892 0.084976
0.098166 0.432963 0.085335
0.098821 0.441824 0.085784
0.099539 0.451531 0.086277
0.100670 0.466836 0.087054
0.102380 0.489970 0.088229
0.231234 0.537333 0.088521
0.374020 0.570459 0.094606
0.502046 0.617487 0.101038
0.595985 0.652753 0.148007
0.675762 0.682354 0.156231
0.720789 0.684633 0.159947
0.756552 0.691045 0.163186
0.780531 0.694297 0.165281
0.796286 0.695957 0.166623
0.806870 0.696705 0.167499
0.813491 0.696977 0.168035
0.817562 0.696482 0.168323
0.820470 0.695943 0.168517
0.822342 0.695465 0.168633
0.823714 0.695116 0.168719
0.824670 0.694758 0.168771
0.825104 0.694597 0.168795
0.825104 0.694597 0.168795
0.825104 0.694597 0.168795
0.825104 0.694597 0.168795
0.093981 0.376331 0.082459
0.094348 0.381304 0.082712
0.094744 0.386655 0.082984
0.095182 0.392587 0.083284
0.095766 0.400492 0.083686
0.096502 0.410441 0.084191
0.097307 0.421341 0.084744
0.097931 0.429775 0.085172
0.098415 0.436329 0.085505
0.099028 0.444618 0.085926
0.099718 0.453957 0.086400
0.100877 0.469631 0.087196
0.102483 0.491364 0.088299
0.204083 0.536030 0.087535
0.354317 0.568601 0.093859
0.477697 0.611292 0.099624
0.592622 0.661605 0.107270
0.659904 0.681060 0.154906
0.708504 0.685711 0.159044
0.749275 0.694084 0.162808
0.774957 0.698155 0.165087
0.792439 0.700406 0.166603
0.804707 0.701783 0.167650
0.812507 0.702345 0.168296
0.817370 0.702614 0.168693
0.820823 0.702674 0.168967
0.823108 0.702470 0.169132
0.824539 0.702221 0.169229
0.825620 0.702003 0.169299
0.826150 0.701899 0.169334
0.826150 0.701899 0.169334
0.826150 0.701899 0.169334
0.826150 0.701899 0.169334
0.094185 0.379094 0.082599
0.094601 0.384729 0.082886
0.095026 0.390473 0.083177
0.095472 0.396500 0.083483
0.096137 0.405503 0.083941
0.096891 0.415708 0.084459
0.097596 0.425241 0.084943
0.098124 0.432387 0.085305
0.098627 0.439195 0.085651
0.099207 0.447039 0.086049
0.099868 0.455981 0.086503
0.101066 0.472185 0.087326
0.102591 0.492826 0.088373
0.184770 0.525393 0.093733
0.338934 0.567206 0.093279
0.458683 0.606546 0.098781
0.574858 0.657219 0.106245
0.646928 0.679324 0.153776
0.697150 0.685704 0.158143
0.742171 0.695668 0.162349
0.769502 0.700504 0.164809
0.788926 0.703231 0.166505
0.802053 0.705129 0.167653
0.810611 0.706060 0.168381
0.816300 0.706499 0.168853
0.820137 0.706762 0.169169
0.822839 0.706855 0.169385
0.824629 0.706852 0.169525
0.825834 0.706821 0.169617
0.826385 0.706753 0.169656
0.826385 0.706753 0.169656
0.826385 0.706753 0.169656
0.826385 0.706753 0.169656
0.094348 0.381304 0.082712
0.094803 0.387444 0.083024
0.095247 0.393458 0.083329
0.095772 0.400563 0.083690
0.096442 0.409632 0.084150
0.097205 0.419958 0.084674
0.097829 0.428406 0.085103
0.098281 0.434511 0.085413
0.098801 0.441544 0.085770
0.099362 0.449133 0.086155
0.100046 0.458394 0.086625
0.101242 0.474577 0.087447
0.102707 0.494395 0.088453
0.168750 0.524546 0.092949
0.328744 0.566666 0.092908
0.444618 0.603264 0.098181
0.560176 0.653301 0.105384
0.635261 0.677111 0.152716
0.702775 0.701692 0.159630
0.736060 0.696644 0.161930
0.764588 0.701981 0.164517
0.785641 0.705344 0.166381
0.799490 0.707308 0.167590
0.808713 0.708623 0.168393
0.815051 0.709258 0.168928
0.819227 0.709534 0.169271
0.822136 0.709721 0.169510
0.824210 0.709840 0.169678
0.825489 0.709874 0.169780
0.826104 0.709882 0.169829
0.826104 0.709882 0.169829
0.826104 0.709882 0.169829
0.826104 0.709882 0.169829
0.094491 0.383225 0.082810
0.094956 0.389525 0.083129
0.095413 0.395705 0.083443
0.096006 0.403726 0.083850
0.096694 0.413038 0.084323
0.097446 0.423214 0.084839
0.098004 0.430765 0.085223
0.098400 0.436113 0.085494
0.098929 0.443280 0.085858
0.099475 0.450663 0.086233
0.100203 0.460514 0.086733
0.101376 0.476386 0.087539
0.102799 0.495636 0.088517
0.156887 0.523881 0.092366
0.320911 0.566127 0.092618
0.433756 0.600615 0.097713
0.548816 0.650163 0.104712
0.625991 0.675134 0.151857
0.693571 0.700493 0.158824
0.729931 0.696938 0.161466
0.760521 0.703063 0.164267
0.782559 0.706879 0.166237
0.796992 0.708872 0.167493
0.806995 0.710456 0.168374
0.813729 0.711261 0.168950
0.818191 0.711661 0.169323
0.821398 0.711879 0.169587
0.823567 0.712008 0.169764
0.825121 0.712083 0.169890
0.825739 0.712103 0.169939
0.825739 0.712103 0.169939
0.825739 0.712103 0.169939
0.825739 0.712103 0.169939
0.094615 0.384920 0.082895
0.095094 0.391392 0.083224
0.095546 0.397515 0.083534
0.096192 0.406239 0.083978
0.096896 0.415768 0.084462
0.097594 0.425215 0.084941
0.098139 0.432586 0.085316
0.098495 0.437413 0.085560
0.099023 0.444544 0.085922
0.099564 0.451868 0.086294
0.100337 0.462331 0.086825
0.101482 0.477819 0.087611
0.102869 0.496587 0.088565
0.149325 0.523574 0.092001
0.314961 0.565728 0.092398
0.425411 0.598496 0.097352
0.539899 0.647594 0.104181
