film-luts/Frontier luts/Fuji_Pro_400H_v3_REBUILT.cube
TITLE "Fuji Pro 400H v3 - Rebuilt from Real References"
# Built from analysis of actual Fuji Pro 400H scans
# Characteristics:
#   - Clean, not muddy
#   - Pastel but clear colors
#   - Subtle cyan in shadows (barely noticeable)
#   - Magenta bias in skin tones
#   - Soft, slightly warm highlights
#   - NOT heavily lifted shadows
#   - Split toning baked in
LUT_3D_SIZE 5
0.092678 0.082685 0.127385
0.309700 0.075241 0.094572
0.589189 0.068072 0.074258
0.653621 0.069903 0.089527
0.657496 0.073192 0.092044
0.073370 0.172347 0.100434
0.254479 0.231992 0.064575
0.624414 0.153623 0.062699
0.671938 0.203732 0.101139
0.683054 0.212932 0.102091
0.091542 0.343338 0.080785
0.095731 0.400014 0.083662
0.743397 0.624812 0.112557
0.841724 0.573419 0.114747
0.847096 0.564992 0.114604
0.094348 0.381304 0.082712
0.098801 0.441544 0.085770
0.560176 0.653301 0.105384
0.815051 0.709258 0.168928
0.826104 0.709882 0.169829
0.094825 0.387753 0.083039
0.099182 0.446697 0.086032
0.525517 0.643420 0.103322
0.810126 0.714404 0.168866
0.824259 0.716108 0.170074
0.080731 0.076952 0.253755
0.319988 0.106102 0.276914
0.605007 0.068072 0.163607
0.656712 0.068072 0.180560
0.690304 0.068072 0.179153
0.074631 0.158189 0.194584
0.225212 0.224637 0.234009
0.651877 0.135207 0.117452
0.683268 0.201723 0.186271
0.692453 0.211208 0.196424
0.093724 0.346859 0.109183
0.097684 0.396316 0.116161
0.710511 0.631149 0.155652
0.818411 0.603089 0.162442
0.862964 0.589840 0.116517
0.098628 0.390094 0.136453
0.103482 0.449082 0.146703
0.542142 0.664953 0.105086
0.821563 0.726863 0.170533
0.833189 0.727999 0.171506
0.099865 0.397159 0.147292
0.104876 0.457436 0.158530
0.501525 0.654592 0.102726
0.815664 0.732130 0.170403
0.830897 0.734625 0.171739
0.078267 0.072456 0.455701
0.237818 0.068509 0.517748
0.663719 0.076039 0.581486
0.738036 0.070142 0.546927
0.741047 0.074355 0.537086
0.077755 0.113799 0.437228
0.206541 0.130162 0.553004
0.664189 0.223503 0.588896
0.739498 0.243314 0.561447
0.743574 0.248308 0.552390
0.121734 0.403468 0.461842
0.127079 0.432835 0.509935
0.717237 0.719461 0.687606
0.842912 0.674281 0.628497
0.850085 0.651815 0.608954
0.120226 0.434115 0.408002
0.130171 0.514632 0.470712
0.496754 0.737340 0.558690
0.846546 0.814383 0.615546
0.856533 0.812831 0.605304
0.119310 0.434538 0.394116
0.129214 0.517766 0.453430
0.443562 0.716906 0.525860
0.837314 0.812732 0.594565
0.851491 0.815135 0.595894
0.131246 0.070691 0.553449
0.289945 0.068072 0.609639
0.684983 0.088124 0.681376
0.753410 0.071966 0.678136
0.758875 0.072005 0.675764
0.081246 0.200608 0.571957
0.260083 0.197931 0.665098
0.694505 0.272934 0.700330
0.756295 0.260292 0.694995
0.760148 0.256914 0.691645
0.128438 0.390875 0.573288
0.141356 0.452330 0.684386
0.770525 0.627115 0.780928
0.841265 0.617734 0.772895
0.861406 0.577976 0.780353
0.133094 0.467188 0.562721
0.134053 0.546444 0.643139
0.438727 0.753932 0.741213
0.846830 0.851897 0.806593
0.857772 0.852428 0.805510
0.133969 0.475698 0.566752
0.136081 0.563166 0.655229
0.293334 0.741850 0.738909
0.842278 0.856369 0.803104
0.856517 0.859441 0.804320
0.158362 0.070083 0.566538
0.336815 0.068072 0.628723
0.702031 0.094658 0.689017
0.756059 0.072113 0.687328
0.759960 0.072150 0.686407
0.082210 0.211042 0.622711
0.323738 0.214379 0.684260
0.712104 0.282993 0.711570
0.761001 0.269529 0.706349
0.764096 0.267653 0.705070
0.131582 0.402299 0.607619
0.144031 0.462779 0.706980
0.793049 0.595156 0.800381
0.855483 0.578447 0.791546
0.859448 0.571326 0.789724
0.133983 0.470030 0.572826
0.137117 0.562993 0.670136
0.549488 0.777960 0.754845
0.850154 0.851603 0.814910
0.857234 0.852646 0.815450
0.134283 0.474573 0.572522
0.136025 0.558678 0.658938
0.168033 0.733725 0.775519
0.841179 0.857271 0.813119
0.856052 0.860688 0.814827
