film-luts/Generated/CHROME.cube
TITLE "Frontier CHROME - Tungsten Film Emulation"
LUT_3D_SIZE 9
DOMAIN_MIN 0.0 0.0 0.0
DOMAIN_MAX 1.0 1.0 1.0
0.135438 0.116800 0.088301
0.212516 0.117442 0.088301
0.235255 0.117604 0.088301
0.280502 0.117903 0.088301
0.359808 0.118365 0.088301
0.482501 0.117946 0.088301
0.653259 0.117204 0.088301
0.848121 0.116487 0.088301
1.000000 0.115944 0.088301
0.137073 0.139621 0.088301
0.156901 0.135666 0.088301
0.195244 0.131004 0.088301
0.252093 0.128122 0.088301
0.338161 0.126695 0.088301
0.464962 0.125022 0.088301
0.640388 0.123649 0.088301
0.846696 0.122615 0.088301
1.000000 0.122056 0.088301
0.138186 0.156433 0.088301
0.148716 0.154988 0.088301
0.175727 0.152236 0.088301
0.225788 0.149096 0.088301
0.307118 0.145753 0.088301
0.434853 0.142927 0.088301
0.614924 0.140579 0.088301
0.842967 0.139557 0.088301
1.000000 0.138955 0.088301
0.137932 0.189273 0.088301
0.145714 0.188390 0.088301
0.166680 0.186384 0.088301
0.208474 0.183462 0.088301
0.282596 0.180105 0.088301
0.407714 0.177216 0.088301
0.607382 0.176037 0.088301
0.835981 0.174945 0.088301
1.000000 0.174257 0.088301
0.134643 0.247498 0.088301
0.141408 0.247395 0.088301
0.160066 0.247124 0.088301
0.198870 0.246615 0.088301
0.271833 0.245799 0.088301
0.400379 0.244631 0.088301
0.598120 0.243208 0.088301
0.824815 0.241888 0.088301
0.990184 0.241057 0.088301
0.129169 0.367731 0.088301
0.135773 0.367601 0.088301
0.154006 0.367260 0.088301
0.191985 0.366619 0.088301
0.263560 0.365590 0.088301
0.389996 0.364117 0.088301
0.592734 0.365249 0.088301
0.827735 0.366507 0.088301
1.000000 0.367302 0.088301
0.127007 0.558762 0.088301
0.133799 0.558886 0.088301
0.152594 0.559213 0.088301
0.191912 0.559828 0.088301
0.266456 0.560817 0.088301
0.399045 0.562238 0.088301
0.604858 0.563976 0.088301
0.842455 0.565597 0.088301
1.000000 0.566621 0.088301
0.131620 0.789047 0.088301
0.138554 0.789200 0.088301
0.157725 0.789599 0.088301
0.197772 0.790351 0.088301
0.273544 0.791561 0.088301
0.408005 0.793297 0.088301
0.616266 0.795422 0.088301
0.856286 0.797402 0.088301
1.000000 0.798654 0.088301
0.134581 0.958733 0.088301
0.141605 0.958904 0.088301
0.161014 0.959351 0.088301
0.201524 0.960193 0.088301
0.278060 0.961518 0.088301
0.413340 0.963092 0.088301
0.621296 0.964414 0.088301
0.859166 0.964510 0.088301
1.000000 0.962306 0.088301
0.136858 0.117450 0.324796
0.192474 0.117452 0.132235
0.227567 0.117617 0.105078
0.276446 0.117918 0.098298
0.357187 0.118382 0.095801
0.480511 0.117929 0.094649
0.651864 0.117185 0.094035
0.847977 0.116464 0.093721
1.000000 0.115922 0.093721
0.137112 0.138022 0.105714
0.155900 0.134727 0.102846
0.193454 0.130641 0.099216
0.250230 0.128001 0.096701
0.336369 0.126623 0.095253
0.463426 0.124980 0.094425
0.639198 0.123619 0.093930
0.846552 0.122592 0.093721
1.000000 0.122033 0.093721
0.138226 0.155914 0.096546
0.148639 0.154552 0.096259
0.175430 0.151942 0.095694
0.225152 0.148888 0.095042
0.306298 0.145631 0.094473
0.433947 0.142851 0.094041
0.614083 0.140527 0.093730
0.842824 0.139532 0.093721
1.000000 0.138930 0.093721
0.137893 0.188966 0.094452
0.145648 0.188104 0.094393
0.166552 0.186141 0.094262
0.208246 0.183273 0.094074
0.282243 0.179967 0.093868
0.407620 0.177187 0.093721
0.607264 0.176008 0.093721
0.835838 0.174916 0.093721
1.000000 0.174229 0.093721
0.134594 0.247463 0.093721
0.141357 0.247359 0.093721
0.160012 0.247089 0.093721
0.198808 0.246580 0.093721
0.271758 0.245764 0.093721
0.400286 0.244596 0.093721
0.598003 0.243173 0.093721
0.824673 0.241854 0.093721
0.990026 0.241023 0.093721
0.129121 0.367687 0.093721
0.135724 0.367557 0.093721
0.153952 0.367216 0.093721
0.191924 0.366575 0.093721
0.263487 0.365546 0.093721
0.389905 0.364073 0.093721
0.592822 0.365282 0.093721
0.827841 0.366540 0.093721
1.000000 0.367335 0.093721
0.127042 0.558804 0.093721
0.133836 0.558929 0.093721
0.152634 0.559255 0.093721
0.191958 0.559870 0.093721
0.266511 0.560860 0.093721
0.399114 0.562280 0.093721
0.604947 0.564019 0.093721
0.842562 0.565639 0.093721
1.000000 0.566663 0.093721
0.131656 0.789099 0.093721
0.138591 0.789251 0.093721
0.157765 0.789651 0.093721
0.197818 0.790402 0.093721
0.273600 0.791612 0.093721
0.408075 0.793349 0.093721
0.616356 0.795474 0.093721
0.856394 0.797454 0.093721
1.000000 0.798706 0.093721
0.134618 0.958791 0.093721
0.141643 0.958962 0.093721
0.161055 0.959409 0.093721
0.201570 0.960251 0.093721
0.278113 0.961570 0.093721
0.413391 0.963129 0.093716
0.621327 0.964434 0.093702
0.859179 0.964510 0.093675
1.000000 0.962285 0.093629
0.136984 0.117508 0.354556
0.171509 0.117520 0.215775
0.213588 0.117665 0.148796
0.267651 0.117962 0.125905
0.351084 0.118427 0.116726
0.475679 0.117881 0.112352
0.648403 0.117135 0.109986
0.847599 0.116405 0.108834
1.000000 0.115863 0.108834
0.137238 0.135096 0.150793
0.153966 0.132891 0.141581
0.189658 0.129871 0.129176
0.246007 0.127732 0.120078
0.332094 0.126444 0.114654
0.459669 0.124873 0.111491
0.636238 0.123539 0.109582
0.846175 0.122530 0.108834
1.000000 0.121972 0.108834
0.138334 0.154727 0.119505
0.148475 0.153548 0.118438
0.174745 0.151255 0.116323
0.223618 0.148386 0.113852
0.304291 0.145328 0.111679
0.431702 0.142661 0.110013
0.612752 0.140424 0.108834
0.842448 0.139467 0.108834
1.000000 0.138864 0.108834
0.137787 0.188215 0.111595
0.145477 0.187401 0.111370
0.166227 0.185542 0.110864
0.207675 0.182806 0.110139
0.281360 0.179624 0.109339
0.407374 0.177111 0.108834
0.606954 0.175933 0.108834
0.835464 0.174841 0.108834
1.000000 0.174154 0.108834
0.134465 0.247371 0.108834
0.141224 0.247268 0.108834
0.159869 0.246997 0.108834
0.198646 0.246489 0.108834
0.271564 0.245672 0.108834
0.400043 0.244504 0.108834
0.597695 0.243082 0.108834
0.824302 0.241763 0.108834
0.989614 0.240932 0.108834
0.128995 0.367571 0.108834
0.135594 0.367441 0.108834
0.153813 0.367100 0.108834
0.191766 0.366460 0.108834
0.263297 0.365431 0.108834
0.389792 0.364019 0.108834
0.593052 0.365368 0.108834
0.828120 0.366626 0.108834
1.000000 0.367422 0.108834
0.127136 0.558915 0.108834
0.133932 0.559040 0.108834
0.152738 0.559366 0.108834
0.192077 0.559981 0.108834
0.266655 0.560971 0.108834
0.399297 0.562392 0.108834
0.605179 0.564130 0.108834
0.842844 0.565751 0.108834
1.000000 0.566775 0.108834
0.131752 0.789235 0.108834
0.138689 0.789387 0.108834
0.157871 0.789786 0.108834
0.197939 0.790538 0.108834
0.273746 0.791748 0.108834
0.408260 0.793485 0.108834
0.616591 0.795611 0.108834
0.856679 0.797591 0.108834
1.000000 0.798842 0.108834
0.134715 0.958943 0.108834
0.141742 0.959114 0.108834
0.161163 0.959561 0.108834
0.201693 0.960403 0.108834
0.278252 0.961704 0.108831
0.413524 0.963226 0.108809
0.621411 0.964486 0.108751
0.859219 0.964513 0.108639
1.000000 0.962234 0.108454
0.137205 0.117609 0.409994
0.159407 0.117641 0.317434
0.199177 0.117771 0.228239
0.255907 0.118057 0.182351
0.341545 0.118426 0.160749
0.467797 0.117789 0.149752
0.642542 0.117039 0.143613
0.846890 0.116293 0.140895
1.000000 0.115752 0.140895
0.137493 0.132054 0.231763
0.151823 0.130805 0.214907
0.184772 0.128885 0.189581
0.239935 0.127362 0.168869
0.325348 0.126143 0.155597
0.453465 0.124683 0.147534
0.631197 0.123394 0.142552
0.845467 0.122416 0.140895
1.000000 0.121858 0.140895
0.138551 0.153003 0.167500
0.148283 0.152072 0.164930
0.173743 0.150222 0.159756
0.221137 0.147568 0.153575
0.300973 0.144817 0.148018
0.427908 0.142330 0.143682
0.612165 0.140300 0.140895
0.841741 0.139343 0.140895
1.000000 0.138741 0.140895
0.137583 0.186968 0.147802
0.145166 0.186232 0.147221
0.165659 0.184537 0.145906
0.206690 0.182012 0.144014
0.279839 0.179031 0.141911
0.406911 0.176969 0.140895
0.606370 0.175791 0.140895
0.834761 0.174700 0.140895
1.000000 0.174013 0.140895
0.134223 0.247198 0.140895
0.140975 0.247095 0.140895
0.159601 0.246824 0.140895
0.198342 0.246316 0.140895
0.271199 0.245500 0.140895
0.399585 0.244333 0.140895
0.597117 0.242911 0.140895
0.823604 0.241592 0.140895
0.988837 0.240762 0.140895
0.128759 0.367353 0.140895
0.135351 0.367223 0.140895
0.153551 0.366883 0.140895
0.191468 0.366242 0.140895
0.262938 0.365214 0.140895
0.390130 0.364182 0.140895
0.593484 0.365531 0.140895
0.828645 0.366790 0.140895
1.000000 0.367585 0.140895
0.127312 0.559124 0.140895
0.134114 0.559248 0.140895
0.152934 0.559575 0.140895
0.192301 0.560190 0.140895
0.266926 0.561180 0.140895
0.399640 0.562601 0.140895
0.605616 0.564340 0.140895
0.843375 0.565961 0.140895
1.000000 0.566986 0.140895
0.131931 0.789490 0.140895
0.138875 0.789642 0.140895
0.158071 0.790042 0.140895
0.198167 0.790794 0.140895
0.274021 0.792004 0.140895
0.408607 0.793741 0.140895
0.617033 0.795867 0.140895
0.857214 0.797848 0.140895
1.000000 0.799099 0.140895
0.134897 0.959229 0.140895
0.141930 0.959400 0.140895
0.161365 0.959847 0.140895
0.201923 0.960690 0.140895
0.278511 0.961949 0.140881
0.413772 0.963405 0.140808
0.621571 0.964587 0.140634
0.859306 0.964526 0.140307
1.000000 0.962152 0.139773
0.137516 0.117751 0.496291
0.153343 0.117801 0.435802
0.188063 0.117938 0.348013
0.244046 0.118216 0.281779
0.329636 0.118273 0.242881
0.457432 0.117638 0.220758
0.634400 0.116885 0.207680
0.845751 0.116114 0.202874
1.000000 0.115573 0.202874
0.137872 0.129702 0.352355
0.150111 0.129053 0.330725
0.180066 0.127953 0.293573
0.233231 0.126987 0.258180
0.316868 0.125726 0.232723
0.445157 0.124400 0.216095
0.624135 0.123171 0.205364
0.844328 0.122231 0.202874
1.000000 0.121674 0.202874
0.138909 0.151074 0.255660
0.148161 0.150397 0.250864
0.172081 0.148763 0.240949
0.217908 0.146491 0.228638
0.296520 0.144109 0.217119
0.422652 0.141851 0.207829
0.611222 0.140100 0.202874
0.840606 0.139144 0.202874
1.000000 0.138542 0.202874
0.137247 0.185288 0.216662
0.144688 0.184647 0.215431
0.164831 0.183158 0.212627
0.205285 0.180903 0.208549
0.277671 0.178184 0.203959
0.406168 0.176740 0.202874
0.605432 0.175564 0.202874
0.833630 0.174473 0.202874
0.999989 0.173786 0.202874
0.133834 0.246920 0.202874
0.140575 0.246817 0.202874
0.159171 0.246547 0.202874
0.197853 0.246039 0.202874
0.270613 0.245223 0.202874
0.398850 0.244057 0.202874
0.596187 0.242636 0.202874
0.822483 0.241318 0.202874
0.988693 0.240730 0.202874
0.128379 0.367003 0.202874
0.134960 0.366873 0.202874
0.153130 0.366533 0.202874
0.190989 0.365893 0.202874
0.262362 0.364865 0.202874
0.390674 0.364443 0.202874
0.594179 0.365793 0.202874
0.829490 0.367052 0.202874
1.000000 0.367848 0.202874
0.127595 0.559459 0.202874
0.134406 0.559584 0.202874
0.153249 0.559911 0.202874
0.192661 0.560526 0.202874
0.267363 0.561516 0.202874
0.400192 0.562938 0.202874
0.606320 0.564678 0.202874
0.844228 0.566299 0.202874
1.000000 0.567324 0.202874
0.132221 0.789900 0.202874
0.139173 0.790053 0.202874
0.158392 0.790452 0.202874
0.198534 0.791205 0.202874
0.274464 0.792415 0.202874
0.409167 0.794153 0.202874
0.617744 0.796279 0.202874
0.858076 0.798261 0.202874
1.000000 0.799495 0.202869
0.135190 0.959689 0.202874
0.142232 0.959859 0.202874
0.161690 0.960307 0.202874
0.202292 0.961142 0.202871
0.278919 0.962326 0.202808
0.414164 0.963684 0.202598
0.621832 0.964750 0.202134
0.859466 0.964558 0.201296
1.000000 0.962040 0.199957
0.137885 0.117919 0.611280
0.150285 0.117983 0.574001
0.180488 0.118140 0.504714
0.233846 0.118429 0.433422
0.317274 0.118058 0.379830
0.445543 0.117422 0.344213
0.624409 0.116664 0.321119
0.844118 0.115858 0.315553
1.000000 0.115318 0.315553
0.138322 0.128113 0.508709
0.148978 0.127794 0.488070
0.176224 0.127217 0.447742
0.226165 0.126406 0.402170
0.307639 0.125223 0.363988
0.435415 0.124031 0.336161
0.615376 0.122864 0.316861
0.842697 0.121967 0.315553
1.000000 0.121410 0.315553
0.138798 0.148929 0.398609
0.147307 0.148346 0.391705
0.169948 0.147058 0.376882
0.214246 0.145253 0.357376
0.291282 0.143246 0.337947
0.416226 0.141237 0.321392
0.609871 0.139814 0.315553
0.838979 0.138859 0.315553
1.000000 0.138258 0.315553
0.136768 0.183302 0.337152
0.144039 0.182762 0.334999
0.163764 0.181493 0.330042
0.203510 0.179534 0.322704
0.275605 0.177378 0.315553
0.405104 0.176413 0.315553
0.604089 0.175237 0.315553
0.832011 0.174148 0.315553
0.998189 0.173462 0.315553
0.133277 0.246522 0.315553
0.140002 0.246419 0.315553
0.158555 0.246149 0.315553
0.197154 0.245642 0.315553
0.269773 0.244827 0.315553
0.397797 0.243661 0.315553
0.594856 0.242242 0.315553
0.820876 0.240925 0.315553
0.990036 0.241025 0.315553
0.127836 0.366502 0.315553
0.134401 0.366372 0.315553
0.152528 0.366031 0.315553
0.190304 0.365392 0.315553
0.261538 0.364365 0.315553
0.391456 0.364818 0.315553
0.595177 0.366169 0.315553
0.830702 0.367429 0.315553
1.000000 0.368225 0.315553
0.128002 0.559941 0.315553
0.134825 0.560066 0.315553
0.153702 0.560393 0.315553
0.193178 0.561008 0.315553
0.267989 0.561999 0.315553
0.400984 0.563421 0.315553
0.607329 0.565162 0.315553
0.845452 0.566784 0.315553
1.000000 0.567810 0.315553
0.132636 0.790489 0.315553
0.139601 0.790642 0.315553
0.158854 0.791042 0.315553
0.199060 0.791794 0.315553
0.275100 0.793005 0.315553
0.409969 0.794744 0.315553
0.618765 0.796871 0.315553
0.859312 0.798853 0.315553
1.000000 0.799995 0.315499
0.135611 0.960348 0.315553
0.142665 0.960519 0.315553
0.162157 0.960967 0.315552
0.202813 0.961750 0.315506
0.279487 0.962831 0.315294
0.414701 0.964059 0.314746
0.622184 0.964968 0.313644
0.859687 0.964599 0.311733
1.000000 0.961886 0.308752
0.138245 0.118083 0.736821
0.148669 0.118156 0.716959
0.175484 0.118335 0.674227
0.224730 0.118296 0.619153
0.305723 0.117821 0.567016
0.433244 0.117170 0.525429
0.613294 0.116399 0.494795
0.842125 0.115545 0.494060
1.000000 0.115006 0.494060
0.138751 0.127078 0.676939
0.148272 0.126936 0.662544
0.172964 0.126533 0.631354
0.219414 0.125685 0.590106
0.298609 0.124695 0.549299
0.425103 0.123613 0.515105
0.611306 0.122529 0.494060
0.840706 0.121645 0.494060
1.000000 0.121089 0.494060
0.138276 0.146791 0.586564
0.146302 0.146369 0.579551
0.167846 0.145405 0.563808
0.210535 0.143987 0.541544
0.285744 0.142312 0.517426
0.409122 0.140538 0.495176
0.608223 0.139465 0.494060
0.836993 0.138511 0.494060
1.000000 0.137911 0.494060
0.136206 0.181190 0.516395
0.143295 0.180744 0.513584
0.162561 0.179684 0.507008
0.201514 0.178014 0.497000
0.274568 0.176977 0.494060
0.403806 0.176013 0.494060
0.602450 0.174839 0.494060
0.830036 0.173751 0.494060
0.995991 0.173066 0.494060
0.132599 0.246036 0.494060
0.139304 0.245933 0.494060
0.157804 0.245663 0.494060
0.196302 0.245157 0.494060
0.268749 0.244343 0.494060
0.396512 0.243179 0.494060
0.593231 0.241761 0.494060
0.820211 0.240763 0.494060
0.991677 0.241385 0.494060
0.127174 0.365889 0.494060
0.133719 0.365759 0.494060
0.151794 0.365419 0.494060
0.189469 0.364780 0.494060
0.261220 0.364172 0.494060
0.392412 0.365276 0.494060
0.596397 0.366629 0.494060
0.832184 0.367889 0.494060
1.000000 0.368686 0.494060
0.128500 0.560529 0.494060
0.135339 0.560654 0.494060
0.154256 0.560982 0.494060
0.193812 0.561597 0.494060
0.268755 0.562589 0.494060
0.401953 0.564012 0.494060
0.608564 0.565754 0.494060
0.846950 0.567377 0.494060
1.000000 0.568403 0.494060
0.133145 0.791209 0.494060
0.140125 0.791361 0.494060
0.159419 0.791762 0.494060
0.199704 0.792514 0.494060
0.275879 0.793726 0.494060
0.410951 0.795466 0.494060
0.620013 0.797594 0.494060
0.860824 0.799577 0.494060
1.000000 0.800486 0.493778
0.136126 0.961152 0.494057
0.143196 0.961316 0.494047
0.162725 0.961723 0.493994
0.203435 0.962417 0.493800
0.280146 0.963370 0.493279
0.415280 0.964433 0.492154
0.622484 0.965147 0.490061
0.859808 0.964555 0.486580
1.000000 0.961596 0.481265
0.138521 0.118209 0.842427
0.147724 0.118286 0.833959
0.172068 0.118468 0.814235
0.217532 0.118134 0.784962
0.295776 0.117633 0.751949
0.421612 0.116957 0.720773
0.610947 0.116112 0.703326
0.840274 0.115255 0.703326
1.000000 0.114716 0.703326
0.139062 0.126373 0.815556
0.147531 0.126216 0.808426
0.169927 0.125774 0.791885
0.213876 0.125096 0.767307
0.290532 0.124236 0.739261
0.415153 0.123233 0.712232
0.609770 0.122228 0.703326
0.838857 0.121346 0.703326
1.000000 0.120790 0.703326
0.137873 0.145010 0.765032
0.145483 0.144697 0.760443
0.166040 0.143966 0.749712
0.207179 0.142839 0.733438
0.280467 0.141432 0.714183
0.407167 0.140168 0.703326
0.606692 0.139141 0.703326
0.835149 0.138188 0.703326
1.000000 0.137589 0.703326
0.135719 0.179164 0.713318
0.142628 0.178799 0.710944
0.161436 0.177921 0.705285
0.200348 0.177278 0.703326
0.273606 0.176605 0.703326
0.402601 0.175642 0.703326
0.600927 0.174469 0.703326
0.828200 0.173382 0.703326
0.993950 0.172698 0.703326
0.131970 0.245584 0.703326
0.138656 0.245482 0.703326
0.157107 0.245212 0.703326
0.195510 0.244706 0.703326
0.267799 0.243893 0.703326
0.395320 0.242730 0.703326
0.591722 0.241314 0.703326
0.821580 0.241097 0.703326
0.993206 0.241720 0.703326
0.126560 0.365320 0.703326
0.133087 0.365190 0.703326
0.151113 0.364851 0.703326
0.188694 0.364212 0.703326
0.261923 0.364598 0.703326
0.393302 0.365703 0.703326
0.597534 0.367056 0.703326
0.833565 0.368318 0.703326
1.000000 0.369115 0.703326
0.128965 0.561077 0.703326
0.135817 0.561202 0.703326
0.154773 0.561530 0.703326
0.194402 0.562146 0.703326
0.269470 0.563138 0.703326
0.402856 0.564562 0.703326
0.609714 0.566305 0.703326
0.848345 0.567929 0.703326
1.000000 0.568955 0.703326
0.133619 0.791879 0.703326
0.140613 0.792032 0.703326
0.159946 0.792432 0.703326
0.200305 0.793185 0.703326
0.276604 0.794397 0.703326
0.411866 0.796138 0.703326
0.621176 0.798267 0.703326
0.862232 0.800251 0.703326
1.000000 0.800701 0.702606
0.136605 0.961814 0.703196
0.143686 0.961953 0.703151
0.163242 0.962299 0.703005
0.203983 0.962887 0.702642
0.280674 0.963688 0.701859
0.415610 0.964556 0.700356
0.622349 0.965035 0.697736
0.859382 0.964178 0.693525
1.000000 0.960926 0.687186
0.138684 0.118284 0.908513
0.147083 0.118359 0.905696
0.169280 0.118394 0.898877
0.212191 0.118053 0.887963
0.287684 0.117538 0.874260
0.411351 0.116842 0.859659
0.609978 0.115928 0.858049
0.839107 0.115072 0.858049
1.000000 0.114533 0.858049
0.138969 0.125733 0.899346
0.146758 0.125589 0.896792
0.167746 0.125241 0.890640
0.209584 0.124675 0.880839
0.283777 0.123907 0.868531
0.408839 0.122991 0.858049
0.608802 0.122039 0.858049
0.837691 0.121157 0.858049
1.000000 0.120602 0.858049
0.137670 0.143621 0.879887
0.144940 0.143383 0.877944
0.164665 0.142814 0.873270
0.204418 0.141902 0.865806
0.276641 0.140807 0.858049
0.406402 0.139963 0.858049
0.605727 0.138936 0.858049
0.833985 0.137985 0.858049
1.000000 0.137386 0.858049
0.135418 0.177770 0.858049
0.142205 0.177685 0.858049
0.160923 0.177462 0.858049
0.199842 0.177043 0.858049
0.272999 0.176370 0.858049
0.401841 0.175407 0.858049
0.599967 0.174236 0.858049
0.827042 0.173150 0.858049
0.992662 0.172466 0.858049
0.131573 0.245300 0.858049
0.138248 0.245197 0.858049
0.156669 0.244928 0.858049
0.195012 0.244422 0.858049
0.267200 0.243609 0.858049
0.394568 0.242447 0.858049
0.590771 0.241032 0.858049
0.822444 0.241309 0.858049
0.994172 0.241932 0.858049
0.126173 0.364961 0.858049
0.132688 0.364831 0.858049
0.150684 0.364492 0.858049
0.188537 0.364097 0.858049
0.262367 0.364867 0.858049
0.393865 0.365973 0.858049
0.598252 0.367327 0.858049
0.834437 0.368588 0.858049
1.000000 0.369386 0.858049
0.129258 0.561424 0.858049
0.136120 0.561548 0.858049
0.155100 0.561876 0.858049
0.194775 0.562492 0.858049
0.269921 0.563485 0.858049
0.403427 0.564909 0.858049
0.610441 0.566653 0.858049
0.849226 0.568277 0.858049
1.000000 0.569304 0.858049
0.133919 0.792302 0.858049
0.140922 0.792455 0.858049
0.160279 0.792855 0.858049
0.200685 0.793609 0.858049
0.277062 0.794821 0.858049
0.412444 0.796562 0.858049
0.621910 0.798692 0.858049
0.863094 0.800652 0.858034
1.000000 0.800336 0.857139
0.136904 0.962018 0.857721
0.143988 0.962129 0.857666
0.163547 0.962405 0.857510
0.204264 0.962871 0.857170
0.280828 0.963499 0.856516
0.415363 0.964142 0.855355
0.621354 0.964351 0.853428
0.857905 0.963187 0.850410
1.000000 0.959596 0.845899
