film-luts/Generated/CHROME_v3.cube
TITLE "Frontier CHROME v3 - Technicolor + Tungsten Scan Characteristics"
LUT_3D_SIZE 9
DOMAIN_MIN 0.0 0.0 0.0
DOMAIN_MAX 1.0 1.0 1.0
0.028225 0.019954 0.010174
0.064436 0.020305 0.008220
0.160618 0.018752 0.006111
0.354503 0.013517 0.003770
0.504377 0.015221 0.002778
0.569212 0.024327 0.002947
0.598928 0.030969 0.003779
0.611213 0.034669 0.004306
0.613076 0.035404 0.004449
0.018490 0.029373 0.014830
0.035028 0.027234 0.011656
0.118721 0.025081 0.008559
0.306756 0.020921 0.004929
0.492095 0.021654 0.003252
0.571612 0.031457 0.004089
0.608011 0.041155 0.005787
0.622806 0.046992 0.007053
0.624939 0.048071 0.007286
0.011053 0.061115 0.027915
0.011563 0.058529 0.023901
0.057289 0.053559 0.017364
0.281411 0.040503 0.009756
0.491117 0.039604 0.006737
0.586440 0.049887 0.008598
0.659279 0.070268 0.011920
0.696293 0.084366 0.014848
0.702633 0.087140 0.015441
0.003173 0.147785 0.070367
0.003373 0.144210 0.065115
0.002894 0.155073 0.065786
0.216809 0.212710 0.051201
0.643698 0.192686 0.044075
0.774865 0.196502 0.048835
0.823223 0.216057 0.055204
0.843108 0.233649 0.062073
0.846688 0.238303 0.064008
0.002895 0.307576 0.167123
0.002964 0.319736 0.166833
0.003146 0.351496 0.176402
0.013165 0.462308 0.218481
0.533349 0.540594 0.190149
0.794674 0.536667 0.164541
0.861132 0.539111 0.163551
0.879697 0.551241 0.171976
0.882225 0.555269 0.174665
0.003270 0.443606 0.285646
0.003134 0.467987 0.298492
0.002968 0.499748 0.315042
0.002612 0.572271 0.350254
0.349541 0.691253 0.376478
0.739796 0.723735 0.323713
0.835819 0.722439 0.309443
0.859440 0.726202 0.312556
0.862459 0.727722 0.314191
0.002936 0.501461 0.353446
0.002812 0.525932 0.368205
0.002657 0.557372 0.387085
0.002737 0.616082 0.419599
0.272858 0.718720 0.458798
0.680512 0.781912 0.420124
0.807909 0.785357 0.393560
0.838854 0.785635 0.388177
0.842601 0.785991 0.388042
0.002818 0.522726 0.382833
0.002698 0.546818 0.398531
0.002545 0.578783 0.417913
0.003589 0.633974 0.450242
0.251853 0.726267 0.489558
0.657644 0.796130 0.456183
0.792070 0.803679 0.429935
0.829243 0.802976 0.419205
0.833406 0.803009 0.418320
0.002802 0.525785 0.387181
0.002682 0.549890 0.402960
0.002529 0.581888 0.422295
0.003385 0.636712 0.454247
0.249452 0.727216 0.493134
0.654347 0.797653 0.461221
0.789772 0.806006 0.435047
0.827530 0.805417 0.424213
0.831910 0.805182 0.422740
0.027886 0.020476 0.016035
0.067248 0.019536 0.010056
0.204309 0.016253 0.005684
0.377208 0.011288 0.003839
0.512293 0.012901 0.002954
0.575354 0.022220 0.003103
0.604893 0.029095 0.004036
0.614904 0.033037 0.004746
0.616314 0.033820 0.004906
0.018383 0.028497 0.022265
0.034034 0.025817 0.015006
0.133988 0.023382 0.008659
0.328365 0.018510 0.005006
0.503518 0.020002 0.003590
0.580804 0.030722 0.004582
0.616043 0.040719 0.006722
0.628813 0.046665 0.008153
0.630658 0.047761 0.008412
0.010644 0.061887 0.041601
0.011146 0.059246 0.036650
0.058653 0.052189 0.021653
0.302387 0.038969 0.010466
0.505830 0.038388 0.007608
0.596748 0.049027 0.009465
0.668385 0.069651 0.013164
0.704092 0.083940 0.016339
0.710370 0.086749 0.016975
0.003064 0.148033 0.085795
0.003191 0.145854 0.080679
0.002703 0.157133 0.081941
0.217427 0.219911 0.065538
0.649081 0.203607 0.044549
0.787683 0.195384 0.052817
0.832891 0.215361 0.059128
0.851289 0.233105 0.065949
0.854744 0.237741 0.067837
0.002949 0.313904 0.189523
0.003047 0.330732 0.193688
0.003226 0.362220 0.204038
0.004751 0.472787 0.249629
0.537974 0.549083 0.214961
0.796978 0.545147 0.191382
0.863071 0.547618 0.189712
0.881213 0.559718 0.198573
0.883808 0.563780 0.201468
0.003239 0.446610 0.307737
0.003104 0.471112 0.320700
0.002935 0.503534 0.339389
0.002580 0.575910 0.376963
0.355640 0.697326 0.399741
0.743381 0.730392 0.349735
0.837685 0.729675 0.339200
0.861337 0.733402 0.342745
0.864360 0.734904 0.344322
0.002909 0.504189 0.377175
0.002789 0.527784 0.392699
0.002634 0.559357 0.412441
0.002356 0.618780 0.447333
0.278439 0.724427 0.483496
0.684016 0.786769 0.444499
0.810984 0.790234 0.417249
0.841120 0.790632 0.412093
0.844902 0.791021 0.412056
0.002796 0.524854 0.405932
0.002679 0.548264 0.421815
0.002527 0.579992 0.441684
0.002268 0.636449 0.475336
0.257771 0.730975 0.509228
0.661409 0.800651 0.481299
0.794659 0.808446 0.454389
0.831223 0.807507 0.442992
0.835423 0.807540 0.442079
0.002779 0.527832 0.410138
0.002663 0.551251 0.426050
0.002511 0.582934 0.445987
0.002291 0.638861 0.479408
0.255260 0.731872 0.512843
0.657938 0.802182 0.486565
0.792357 0.810691 0.459429
0.829444 0.809985 0.448251
0.833892 0.809720 0.446688
0.024489 0.022392 0.032802
0.047605 0.020970 0.020441
0.194270 0.016034 0.009995
0.417340 0.009175 0.004266
0.529696 0.010973 0.003176
0.583861 0.019953 0.003456
0.607797 0.027353 0.004445
0.616325 0.031433 0.005249
0.617737 0.032169 0.005406
0.017955 0.027821 0.043707
0.033780 0.025974 0.028330
0.143795 0.021337 0.013127
0.386264 0.014254 0.005239
0.524608 0.017456 0.004071
0.590972 0.028522 0.005013
0.620851 0.038185 0.007277
0.630403 0.044060 0.008716
0.631937 0.045126 0.008984
0.009979 0.061948 0.086065
0.010882 0.057463 0.068487
0.058193 0.050960 0.040967
0.324493 0.037692 0.013609
0.528048 0.035625 0.008930
0.608185 0.047196 0.010579
0.675207 0.067943 0.014616
0.707911 0.081958 0.017783
0.713562 0.084726 0.018418
0.002485 0.156206 0.130160
0.002458 0.157194 0.127106
0.002197 0.163934 0.123748
0.221470 0.224546 0.095425
0.652547 0.211623 0.059743
0.794612 0.206338 0.053163
0.839569 0.221569 0.059957
0.857197 0.241780 0.065954
0.860380 0.247406 0.067579
0.002999 0.318558 0.221613
0.003106 0.337050 0.227598
0.003288 0.368978 0.238311
0.003103 0.475835 0.286217
0.536073 0.559162 0.249641
0.799949 0.554780 0.226712
0.865683 0.556921 0.224140
0.883809 0.568513 0.231886
0.886443 0.572518 0.234581
0.003208 0.449124 0.335217
0.003072 0.474134 0.348209
0.002903 0.506698 0.367825
0.002549 0.578739 0.410022
0.358951 0.703611 0.427928
0.746641 0.737722 0.381048
0.840197 0.737597 0.372134
0.864147 0.741233 0.375349
0.867082 0.742660 0.376740
0.002883 0.506308 0.405136
0.002767 0.529424 0.420062
0.002613 0.560704 0.440275
0.002333 0.620603 0.476895
0.284970 0.729760 0.507228
0.688098 0.792367 0.474117
0.814658 0.796114 0.446780
0.843774 0.796578 0.442215
0.847595 0.797057 0.442453
0.002769 0.527206 0.434868
0.002656 0.550175 0.450114
0.002507 0.581108 0.470069
0.002249 0.637475 0.505109
0.264191 0.736446 0.533555
0.665855 0.805888 0.510816
0.798117 0.813929 0.483899
0.833776 0.812901 0.472577
0.837952 0.812965 0.471762
0.002753 0.530215 0.439074
0.002640 0.553122 0.454381
0.002492 0.584078 0.474397
0.002236 0.639927 0.509322
0.261675 0.737318 0.537342
0.662483 0.807334 0.515447
0.795870 0.816123 0.489288
0.832028 0.815362 0.477723
0.836483 0.815095 0.476191
0.016407 0.030372 0.096057
0.029479 0.026662 0.072406
0.099970 0.023447 0.039558
0.413048 0.009090 0.015651
0.566253 0.009650 0.005041
0.598744 0.017880 0.005060
0.612456 0.024942 0.005761
0.619579 0.028397 0.006457
0.620751 0.029018 0.006607
0.015513 0.032668 0.098860
0.022106 0.031261 0.079474
0.081928 0.027357 0.046321
0.364940 0.015332 0.019339
0.567573 0.015928 0.007343
0.608950 0.026415 0.007447
0.624862 0.034540 0.008851
0.632287 0.039415 0.009922
0.633473 0.040316 0.010150
0.011533 0.049357 0.127017
0.012066 0.047616 0.107371
0.059714 0.045255 0.089405
0.347969 0.029379 0.033224
0.575670 0.027886 0.017472
0.626234 0.041166 0.012909
0.659225 0.055640 0.014889
0.685910 0.067134 0.017491
0.690739 0.069349 0.018026
0.001858 0.161407 0.236104
0.001816 0.162725 0.232444
0.001849 0.163036 0.218831
0.245845 0.224306 0.191669
0.658804 0.204339 0.121167
0.796382 0.206486 0.091920
0.841219 0.219562 0.083865
0.857958 0.238818 0.088435
0.860734 0.244405 0.090524
0.003114 0.328886 0.312277
0.003231 0.348788 0.322729
0.003416 0.380636 0.338925
0.003058 0.474548 0.369882
0.544475 0.569412 0.345834
0.810558 0.565013 0.302008
0.871702 0.565357 0.285693
0.889647 0.577261 0.291225
0.891871 0.581329 0.293864
0.003203 0.444211 0.386517
0.003061 0.470152 0.402250
0.002896 0.501891 0.421297
0.002570 0.567788 0.462863
0.331981 0.707254 0.488180
0.747994 0.749414 0.442642
0.844749 0.749272 0.431593
0.868588 0.752892 0.433379
0.871341 0.754278 0.434511
0.002879 0.502301 0.448773
0.002747 0.528606 0.465882
0.002604 0.557499 0.486406
0.002338 0.614295 0.522927
0.267884 0.731824 0.550133
0.687263 0.800275 0.526242
0.817113 0.806036 0.502068
0.847535 0.806617 0.496777
0.851364 0.807097 0.496986
0.002757 0.525221 0.476562
0.002632 0.550543 0.493813
0.002494 0.579173 0.513903
0.002250 0.632299 0.548266
0.253835 0.739867 0.575394
0.667191 0.812748 0.555401
0.801972 0.822299 0.534398
0.837446 0.821351 0.524531
0.841852 0.821412 0.523639
0.002740 0.528475 0.480665
0.002616 0.553539 0.497922
0.002479 0.582165 0.517988
0.002237 0.634946 0.552148
0.252443 0.741014 0.578995
0.664061 0.814231 0.559446
0.799663 0.824360 0.538592
0.835667 0.823646 0.528859
0.840351 0.823437 0.527490
0.011297 0.047973 0.179051
0.025051 0.040635 0.153914
0.067313 0.034528 0.126406
0.329923 0.022415 0.070208
0.561693 0.011183 0.030856
0.608648 0.015257 0.021166
0.618650 0.021149 0.020373
0.623663 0.024265 0.020707
0.624588 0.024823 0.020845
0.010476 0.052603 0.183287
0.011885 0.051282 0.174176
0.051875 0.042884 0.146265
0.304091 0.030894 0.087417
0.556434 0.019302 0.042152
0.616212 0.025072 0.029574
0.629356 0.031525 0.029086
0.635273 0.035910 0.029873
0.636283 0.036790 0.030135
0.008673 0.064203 0.200435
0.008711 0.064196 0.194926
0.035621 0.064125 0.187209
0.289034 0.045623 0.114844
0.554746 0.031754 0.064021
0.628662 0.041436 0.048700
0.672686 0.057645 0.047867
0.698255 0.069402 0.051501
0.703038 0.071730 0.052415
0.002484 0.143201 0.282397
0.002407 0.145086 0.280482
0.001868 0.157168 0.288685
0.286604 0.192124 0.280261
0.648314 0.120790 0.153379
0.783613 0.141986 0.123731
0.825707 0.172883 0.124326
0.840843 0.194791 0.131460
0.843844 0.199615 0.133624
0.003115 0.321804 0.386127
0.003233 0.341530 0.400681
0.003434 0.375635 0.422632
0.003020 0.470830 0.473360
0.570883 0.566646 0.476370
0.822693 0.560392 0.416075
0.879165 0.566095 0.396545
0.894573 0.582677 0.397844
0.896760 0.587716 0.399562
0.003243 0.428903 0.462649
0.003111 0.451993 0.482603
0.002880 0.495482 0.513797
0.002498 0.573803 0.557699
0.309711 0.715170 0.596114
0.763253 0.764383 0.558600
0.857989 0.762863 0.538261
0.879847 0.765830 0.534193
0.882561 0.767088 0.534229
0.002969 0.478285 0.503524
0.002835 0.503801 0.524005
0.002645 0.541680 0.551843
0.002328 0.609599 0.589038
0.220768 0.729738 0.627780
0.685727 0.812087 0.617734
0.824625 0.817919 0.591645
0.857202 0.818404 0.584718
0.860932 0.818741 0.584119
0.002859 0.499144 0.519952
0.002723 0.525950 0.540861
0.002554 0.560354 0.566075
0.002256 0.625304 0.601441
0.207100 0.735139 0.637438
0.656040 0.821491 0.634012
0.806409 0.833375 0.614329
0.843754 0.832134 0.603280
0.848368 0.832104 0.602185
0.002844 0.502073 0.522233
0.002707 0.529196 0.543276
0.002540 0.563230 0.568088
0.002245 0.627645 0.603141
0.205744 0.735921 0.638610
0.651736 0.822366 0.636046
0.803490 0.835006 0.616678
0.841406 0.834273 0.606254
0.846456 0.833968 0.604797
0.008298 0.072051 0.244057
0.029167 0.060479 0.222606
0.075590 0.051116 0.198560
0.274905 0.038617 0.147623
0.557926 0.024224 0.086145
0.611927 0.019877 0.048601
0.621503 0.022398 0.041497
0.626573 0.025372 0.042526
0.627423 0.025919 0.042886
0.006167 0.084426 0.256941
0.008617 0.083233 0.255483
0.053414 0.069961 0.234019
0.257547 0.053684 0.180450
0.555190 0.035530 0.109878
0.618993 0.029891 0.068470
0.630488 0.033068 0.059257
0.636162 0.037491 0.060359
0.637102 0.038366 0.060824
0.004311 0.107654 0.279234
0.004060 0.111382 0.284777
0.030101 0.111677 0.285601
0.257961 0.090276 0.232429
0.586643 0.064213 0.150654
0.647852 0.049385 0.094048
0.680886 0.060068 0.086965
0.704962 0.071325 0.091051
0.709512 0.073616 0.092198
0.002090 0.171872 0.332205
0.002198 0.184597 0.344693
0.002348 0.203480 0.359215
0.268630 0.233331 0.359329
0.681434 0.169651 0.252775
0.762719 0.125781 0.171159
0.813488 0.154577 0.168815
0.829686 0.177542 0.180161
0.832551 0.182187 0.182943
0.003302 0.350415 0.437587
0.003445 0.374380 0.456810
0.003347 0.408261 0.483419
0.003505 0.493775 0.536501
0.624378 0.569338 0.544327
0.832838 0.450149 0.427535
0.885390 0.467570 0.409059
0.900302 0.493693 0.412070
0.902707 0.501112 0.414556
0.003253 0.425437 0.479234
0.003104 0.451394 0.502766
0.002896 0.490038 0.536340
0.002524 0.564862 0.588450
0.300645 0.711583 0.646520
0.767962 0.760920 0.626130
0.864610 0.762366 0.605897
0.886680 0.766460 0.601501
0.888884 0.767984 0.601561
0.002946 0.480963 0.523885
0.002815 0.506034 0.543970
0.002619 0.545220 0.574492
0.002314 0.609780 0.619404
0.212524 0.731317 0.673921
0.692762 0.816260 0.675267
0.832676 0.823354 0.656383
0.865909 0.824170 0.649303
0.869980 0.824566 0.648608
0.002821 0.504890 0.543446
0.002688 0.531084 0.563700
0.002519 0.565894 0.589172
0.002236 0.626974 0.629983
0.196326 0.736634 0.681061
0.659159 0.825224 0.685784
0.814731 0.839003 0.675474
0.853108 0.838328 0.665103
0.857814 0.838358 0.663995
0.002807 0.507618 0.545511
0.002672 0.534462 0.566251
0.002505 0.568859 0.591210
0.002226 0.629320 0.631385
0.194321 0.737230 0.681861
0.653792 0.826052 0.687067
0.812129 0.840850 0.677917
0.850682 0.840541 0.667840
0.855827 0.840354 0.666322
0.007898 0.090322 0.277301
0.035041 0.077570 0.260391
0.093558 0.066695 0.242416
0.298376 0.051596 0.193468
0.564776 0.035463 0.130441
0.620668 0.029953 0.084594
0.625061 0.025980 0.064798
0.628446 0.026895 0.061308
0.629030 0.027173 0.061127
0.003910 0.112992 0.300782
0.008853 0.112405 0.301105
0.067216 0.097048 0.283482
0.298609 0.081375 0.237082
0.593255 0.058862 0.167368
0.643069 0.045973 0.108956
0.633057 0.038292 0.085337
0.636678 0.039600 0.081644
0.637347 0.040030 0.081460
0.002102 0.148459 0.336439
0.001814 0.154808 0.343446
0.052024 0.174330 0.350981
0.318361 0.154439 0.312938
0.649525 0.110939 0.226196
0.718741 0.085850 0.158921
0.701729 0.070649 0.121175
0.710280 0.073749 0.116465
0.712610 0.074833 0.116500
0.002636 0.242054 0.397436
0.002756 0.259576 0.411382
0.002926 0.285673 0.428331
0.302381 0.310509 0.437493
0.702033 0.233310 0.341395
0.803617 0.183665 0.252682
0.811626 0.154327 0.201134
0.822596 0.166545 0.202558
0.825175 0.170453 0.204741
0.003469 0.388011 0.478510
0.003315 0.412420 0.500012
0.003099 0.450014 0.526947
0.096195 0.530642 0.579845
0.668597 0.574390 0.568562
0.841072 0.458809 0.463643
0.867993 0.370712 0.386949
0.883637 0.398964 0.393799
0.886647 0.407840 0.397402
0.003097 0.452383 0.507215
0.002939 0.481562 0.532615
0.002750 0.518125 0.562297
0.002376 0.595554 0.618364
0.370115 0.729438 0.670326
0.790569 0.769814 0.655058
0.872524 0.734028 0.615232
0.893966 0.740252 0.611612
0.896368 0.742455 0.611830
0.002936 0.482433 0.530091
0.002797 0.509025 0.551688
0.002620 0.544550 0.579144
0.002351 0.601253 0.618222
0.194778 0.724433 0.685461
0.691094 0.813882 0.691790
0.834296 0.820745 0.677532
0.868004 0.822068 0.670902
0.872242 0.822494 0.670299
0.002831 0.502524 0.545202
0.002692 0.530068 0.567114
0.002518 0.565519 0.593620
0.002267 0.619667 0.629919
0.181155 0.731866 0.691998
0.656065 0.823966 0.701985
0.815093 0.837547 0.692671
0.853405 0.837504 0.685758
0.858397 0.837503 0.684794
0.002816 0.505510 0.547475
0.002676 0.533193 0.569441
0.002504 0.568480 0.595692
0.002255 0.622445 0.631656
0.179787 0.732734 0.692557
0.650361 0.824977 0.703169
0.812429 0.839609 0.694699
0.850789 0.839748 0.688237
0.856090 0.839624 0.686941
0.008482 0.101299 0.292618
0.040331 0.087289 0.277348
0.110544 0.076038 0.260683
0.339471 0.058818 0.210518
0.578108 0.042601 0.148840
0.626056 0.036265 0.101105
0.629618 0.031485 0.081326
0.630078 0.028840 0.072616
0.630654 0.029058 0.072264
0.002999 0.129223 0.322993
0.012892 0.128577 0.323058
0.091086 0.121786 0.307361
0.367159 0.103045 0.265411
0.636294 0.076590 0.191808
0.678431 0.060903 0.134036
0.661540 0.050248 0.105403
0.638035 0.042620 0.093710
0.649977 0.044374 0.092230
0.002192 0.182637 0.363222
0.002290 0.194706 0.374287
0.077449 0.220471 0.387364
0.391805 0.191895 0.343003
0.701025 0.144105 0.261785
0.756884 0.111825 0.192995
0.738113 0.091909 0.153851
0.723869 0.081419 0.135118
0.725811 0.082292 0.134876
0.002957 0.290456 0.433632
0.003090 0.312120 0.448921
0.006009 0.346612 0.466561
0.358708 0.361004 0.476965
0.728929 0.279640 0.381661
0.820275 0.222918 0.302338
0.829378 0.188211 0.244405
0.822688 0.168097 0.216278
0.824386 0.170282 0.216935
0.003260 0.421719 0.506461
0.003107 0.448359 0.528260
0.002885 0.490212 0.557502
0.155382 0.573039 0.609745
0.699562 0.606570 0.590403
0.852127 0.506263 0.500047
0.876828 0.422163 0.430872
0.876952 0.366627 0.386870
0.878538 0.371701 0.388805
0.002974 0.474747 0.528234
0.002823 0.503548 0.551711
0.002644 0.539220 0.578876
0.002257 0.621574 0.636166
0.434443 0.747634 0.680816
0.803042 0.781349 0.666882
0.874326 0.750049 0.634292
0.897057 0.716676 0.606126
0.899454 0.719480 0.606710
0.002868 0.495294 0.541728
0.002723 0.523595 0.564413
0.002550 0.558770 0.590947
0.002266 0.619681 0.631943
0.254749 0.741390 0.693702
0.722096 0.818742 0.697556
0.840492 0.823189 0.685686
0.870966 0.816849 0.674941
0.875081 0.817395 0.674362
0.002837 0.501314 0.545555
0.002698 0.528594 0.567317
0.002527 0.563612 0.593613
0.002280 0.616790 0.629567
0.171525 0.727822 0.692569
0.653133 0.822404 0.706412
0.815561 0.836338 0.698023
0.854355 0.836353 0.691545
0.859603 0.836440 0.690600
0.002823 0.504097 0.547676
0.002684 0.531510 0.569488
0.002513 0.566474 0.595630
0.002267 0.619536 0.631326
0.170346 0.728909 0.693120
0.647308 0.823447 0.707686
0.812863 0.838429 0.699888
0.851582 0.838657 0.693841
0.856949 0.838532 0.692620
0.008632 0.103554 0.295649
0.041742 0.089394 0.280454
0.115491 0.077897 0.263604
0.359651 0.062096 0.211170
0.594897 0.045721 0.149813
0.627081 0.037509 0.103667
0.630485 0.032602 0.084070
0.630835 0.029907 0.075389
0.630763 0.029292 0.073707
0.002836 0.132496 0.327093
0.013989 0.131899 0.327123
0.098423 0.127686 0.313155
0.385086 0.107634 0.269836
0.646166 0.080220 0.195273
0.684647 0.063903 0.138196
0.667840 0.052915 0.109585
0.654647 0.046383 0.096602
0.651417 0.044934 0.094103
0.002252 0.189934 0.369248
0.002352 0.202595 0.380642
0.084995 0.230035 0.394089
0.409734 0.198429 0.348285
0.713526 0.150963 0.267227
0.764384 0.117365 0.198315
0.744964 0.096327 0.159780
0.730607 0.085391 0.140965
0.727207 0.083109 0.137331
0.003018 0.300362 0.440021
0.003155 0.322811 0.456171
0.009260 0.359398 0.473431
0.375809 0.372071 0.484412
0.736729 0.289175 0.388670
0.823808 0.231378 0.310390
0.832964 0.195846 0.253643
0.826276 0.175192 0.224576
0.824324 0.170378 0.218841
0.003221 0.428336 0.511732
0.003068 0.455609 0.533626
0.002840 0.498942 0.563424
0.167333 0.584490 0.615899
0.706682 0.617040 0.595614
0.855116 0.519353 0.507964
0.879602 0.435857 0.440461
0.878058 0.378658 0.397006
0.877788 0.366817 0.387402
0.002949 0.479547 0.532526
0.002799 0.508209 0.555583
0.002623 0.543613 0.582081
0.002229 0.627672 0.639941
0.451150 0.752279 0.682854
0.805709 0.784585 0.669153
0.874646 0.754397 0.638048
0.896679 0.722256 0.611458
0.900059 0.713681 0.604214
0.002853 0.498099 0.544109
0.002708 0.526650 0.566856
0.002535 0.561780 0.593298
0.002246 0.624098 0.634907
0.272317 0.746088 0.695323
0.729252 0.820043 0.698445
0.841824 0.824022 0.686980
0.871139 0.818017 0.677076
0.875735 0.816245 0.674642
0.002825 0.503657 0.547612
0.002685 0.531235 0.569605
0.002515 0.566168 0.595672
0.002264 0.620228 0.631986
0.184994 0.731912 0.694306
0.664368 0.823884 0.707193
0.817924 0.836593 0.698804
0.855047 0.836527 0.692593
0.860116 0.835977 0.691112
0.002823 0.504008 0.547795
0.002684 0.531373 0.569560
0.002514 0.566239 0.595648
0.002268 0.619238 0.631317
0.168484 0.728237 0.693106
0.646748 0.823176 0.708352
0.812957 0.838274 0.700623
0.851679 0.838441 0.694602
0.857108 0.838344 0.693435
