film-luts/Generated/CHROME.cube
TITLE "Frontier CHROME - Tungsten Film Emulation"
LUT_3D_SIZE 33
DOMAIN_MIN 0.0 0.0 0.0
DOMAIN_MAX 1.0 1.0 1.0
0.135438 0.116800 0.088301
0.205491 0.117390 0.088301
0.207085 0.117402 0.088301
0.209389 0.117419 0.088301
0.212516 0.117442 0.088301
0.216561 0.117471 0.088301
0.221624 0.117508 0.088301
0.227815 0.117552 0.088301
0.235255 0.117604 0.088301
0.244082 0.117665 0.088301
0.254448 0.117735 0.088301
0.266525 0.117814 0.088301
0.280502 0.117903 0.088301
0.296589 0.118002 0.088301
0.315010 0.118112 0.088301
0.336002 0.118233 0.088301
0.359808 0.118365 0.088301
0.386369 0.118436 0.088301
0.415182 0.118282 0.088301
0.447204 0.118119 0.088301
0.482501 0.117946 0.088301
0.521028 0.117766 0.088301
0.562601 0.117581 0.088301
0.606861 0.117393 0.088301
0.653259 0.117204 0.088301
0.701050 0.117017 0.088301
0.749317 0.116836 0.088301
0.797032 0.116664 0.088301
0.848121 0.116487 0.088301
0.899000 0.116316 0.088301
0.944336 0.116169 0.088301
0.983431 0.116045 0.088301
1.000000 0.115944 0.088301
0.136718 0.134480 0.088301
0.151147 0.130605 0.088301
0.162452 0.127988 0.088301
0.173779 0.125735 0.088301
0.184401 0.123984 0.088301
0.194280 0.122695 0.088301
0.203759 0.121767 0.088301
0.213271 0.121104 0.088301
0.223220 0.120632 0.088301
0.233960 0.120298 0.088301
0.245803 0.120066 0.088301
0.259035 0.119912 0.088301
0.273929 0.119817 0.088301
0.290754 0.119770 0.088301
0.309778 0.119762 0.088301
0.331272 0.119787 0.088301
0.355502 0.119840 0.088301
0.382213 0.119788 0.088301
0.411343 0.119576 0.088301
0.443651 0.119363 0.088301
0.479212 0.119148 0.088301
0.517989 0.118932 0.088301
0.559805 0.118715 0.088301
0.604306 0.118498 0.088301
0.650943 0.118284 0.088301
0.698971 0.118076 0.088301
0.747474 0.117876 0.088301
0.795418 0.117687 0.088301
0.847882 0.117499 0.088301
0.898753 0.117328 0.088301
0.944082 0.117180 0.088301
0.983171 0.117056 0.088301
1.000000 0.116954 0.088301
0.136799 0.135644 0.088301
0.144820 0.133550 0.088301
0.152450 0.131751 0.088301
0.161506 0.129852 0.088301
0.171347 0.128073 0.088301
0.181510 0.126541 0.088301
0.191848 0.125288 0.088301
0.202441 0.124292 0.088301
0.213490 0.123515 0.088301
0.225251 0.122917 0.088301
0.238001 0.122461 0.088301
0.252020 0.122118 0.088301
0.267588 0.121867 0.088301
0.284990 0.121689 0.088301
0.304510 0.121571 0.088301
0.326433 0.121504 0.088301
0.351039 0.121479 0.088301
0.377840 0.121297 0.088301
0.407266 0.121026 0.088301
0.439848 0.120762 0.088301
0.475667 0.120503 0.088301
0.514695 0.120248 0.088301
0.556760 0.119997 0.088301
0.601510 0.119750 0.088301
0.648398 0.119510 0.088301
0.696680 0.119278 0.088301
0.745435 0.119057 0.088301
0.793627 0.118849 0.088301
0.847611 0.118655 0.088301
0.898473 0.118483 0.088301
0.943794 0.118334 0.088301
0.982876 0.118209 0.088301
1.000000 0.118107 0.088301
0.136916 0.137329 0.088301
0.142080 0.136060 0.088301
0.147423 0.134844 0.088301
0.154336 0.133410 0.088301
0.162554 0.131900 0.088301
0.171757 0.130444 0.088301
0.181732 0.129125 0.088301
0.192399 0.127979 0.088301
0.203799 0.127013 0.088301
0.216059 0.126216 0.088301
0.229369 0.125567 0.088301
0.243953 0.125047 0.088301
0.260064 0.124637 0.088301
0.277971 0.124318 0.088301
0.297954 0.124078 0.088301
0.320301 0.123904 0.088301
0.345297 0.123787 0.088301
0.372105 0.123427 0.088301
0.401862 0.123083 0.088301
0.434758 0.122753 0.088301
0.470884 0.122437 0.088301
0.510220 0.122131 0.088301
0.552595 0.121835 0.088301
0.597664 0.121548 0.088301
0.644881 0.121272 0.088301
0.693499 0.121008 0.088301
0.742595 0.120759 0.088301
0.792026 0.120527 0.088301
0.847222 0.120331 0.088301
0.898070 0.120157 0.088301
0.943379 0.120007 0.088301
0.982451 0.119881 0.088301
1.000000 0.119778 0.088301
0.137073 0.139621 0.088301
0.140763 0.138786 0.088301
0.144744 0.137938 0.088301
0.150139 0.136873 0.088301
0.156901 0.135666 0.088301
0.164891 0.134410 0.088301
0.173982 0.133181 0.088301
0.184102 0.132035 0.088301
0.195244 0.131004 0.088301
0.207468 0.130099 0.088301
0.220898 0.129323 0.088301
0.235702 0.128667 0.088301
0.252093 0.128122 0.088301
0.270310 0.127676 0.088301
0.290616 0.127317 0.088301
0.313287 0.127035 0.088301
0.338161 0.126695 0.088301
0.365255 0.126238 0.088301
0.395317 0.125810 0.088301
0.428520 0.125406 0.088301
0.464962 0.125022 0.088301
0.504625 0.124656 0.088301
0.547347 0.124305 0.088301
0.592783 0.123970 0.088301
0.640388 0.123649 0.088301
0.689413 0.123345 0.088301
0.738926 0.123059 0.088301
0.791520 0.122813 0.088301
0.846696 0.122615 0.088301
0.897526 0.122439 0.088301
0.942819 0.122287 0.088301
0.981878 0.122160 0.088301
1.000000 0.122056 0.088301
0.137275 0.142592 0.088301
0.140127 0.142006 0.088301
0.143273 0.141392 0.088301
0.147649 0.140590 0.088301
0.153309 0.139637 0.088301
0.160228 0.138593 0.088301
0.168370 0.137514 0.088301
0.177716 0.136451 0.088301
0.188278 0.135442 0.088301
0.200106 0.134513 0.088301
0.213298 0.133677 0.088301
0.227995 0.132940 0.088301
0.244377 0.132300 0.088301
0.262659 0.131754 0.088301
0.283083 0.131295 0.088301
0.305853 0.130898 0.088301
0.330382 0.130307 0.088301
0.357676 0.129759 0.088301
0.387960 0.129246 0.088301
0.421410 0.128764 0.088301
0.458127 0.128309 0.088301
0.498098 0.127876 0.088301
0.541163 0.127464 0.088301
0.586982 0.127073 0.088301
0.635006 0.126702 0.088301
0.684482 0.126351 0.088301
0.734471 0.126022 0.088301
0.790871 0.125787 0.088301
0.846020 0.125586 0.088301
0.896827 0.125408 0.088301
0.942100 0.125254 0.088301
0.981141 0.125125 0.088301
1.000000 0.125019 0.088301
0.137525 0.146323 0.088301
0.139863 0.145891 0.088301
0.142475 0.145429 0.088301
0.146164 0.144811 0.088301
0.151026 0.144054 0.088301
0.157097 0.143193 0.088301
0.164405 0.142268 0.088301
0.172978 0.141320 0.088301
0.182863 0.140382 0.088301
0.194127 0.139482 0.088301
0.206871 0.138641 0.088301
0.221230 0.137870 0.088301
0.237371 0.137178 0.088301
0.255497 0.136566 0.088301
0.275837 0.136033 0.088301
0.297867 0.135330 0.088301
0.322406 0.134657 0.088301
0.349757 0.134026 0.088301
0.380143 0.133434 0.088301
0.413741 0.132875 0.088301
0.450653 0.132347 0.088301
0.490872 0.131846 0.088301
0.534241 0.131371 0.088301
0.580421 0.130920 0.088301
0.628863 0.130492 0.088301
0.678807 0.130090 0.088301
0.732172 0.129759 0.088301
0.790065 0.129535 0.088301
0.845183 0.129331 0.088301
0.895960 0.129150 0.088301
0.941208 0.128993 0.088301
0.980228 0.128862 0.088301
1.000000 0.128754 0.088301
0.137828 0.150903 0.088301
0.139831 0.150572 0.088301
0.142086 0.150213 0.088301
0.145301 0.149724 0.088301
0.149587 0.149114 0.088301
0.155013 0.148402 0.088301
0.161640 0.147615 0.088301
0.169533 0.146783 0.088301
0.178767 0.145933 0.088301
0.189432 0.145092 0.088301
0.201642 0.144280 0.088301
0.215540 0.143513 0.088301
0.231294 0.142802 0.088301
0.249040 0.142131 0.088301
0.268418 0.141306 0.088301
0.290183 0.140524 0.088301
0.314574 0.139785 0.088301
0.341834 0.139085 0.088301
0.372186 0.138422 0.088301
0.405810 0.137794 0.088301
0.442813 0.137196 0.088301
0.483192 0.136629 0.088301
0.526796 0.136089 0.088301
0.573286 0.135577 0.088301
0.622115 0.135091 0.088301
0.672515 0.134634 0.088301
0.731240 0.134387 0.088301
0.789091 0.134158 0.088301
0.844169 0.133950 0.088301
0.894912 0.133765 0.088301
0.940129 0.133605 0.088301
0.979123 0.133471 0.088301
1.000000 0.133361 0.088301
0.138186 0.156433 0.088301
0.139962 0.156171 0.088301
0.141971 0.155884 0.088301
0.144850 0.155489 0.088301
0.148716 0.154988 0.088301
0.153653 0.154394 0.088301
0.159742 0.153722 0.088301
0.167068 0.152996 0.088301
0.175727 0.152236 0.088301
0.185829 0.151465 0.088301
0.197501 0.150700 0.088301
0.210897 0.149960 0.088301
0.225788 0.149096 0.088301
0.242577 0.148215 0.088301
0.261572 0.147362 0.088301
0.283005 0.146541 0.088301
0.307118 0.145753 0.088301
0.334156 0.144999 0.088301
0.364346 0.144277 0.088301
0.397874 0.143587 0.088301
0.434853 0.142927 0.088301
0.475290 0.142297 0.088301
0.519038 0.141695 0.088301
0.565765 0.141122 0.088301
0.614924 0.140579 0.088301
0.671311 0.140255 0.088301
0.730134 0.140005 0.088301
0.787935 0.139771 0.088301
0.842967 0.139557 0.088301
0.893668 0.139368 0.088301
0.938849 0.139204 0.088301
0.977812 0.139067 0.088301
1.000000 0.138955 0.088301
0.138605 0.163031 0.088301
0.140221 0.162818 0.088301
0.142053 0.162583 0.088301
0.144689 0.162257 0.088301
0.148244 0.161838 0.088301
0.152810 0.161335 0.088301
0.158477 0.160759 0.088301
0.165343 0.160124 0.088301
0.173515 0.159447 0.088301
0.182963 0.158675 0.088301
0.193782 0.157811 0.088301
0.206253 0.156932 0.088301
0.220546 0.156050 0.088301
0.236858 0.155174 0.088301
0.255406 0.154311 0.088301
0.276426 0.153468 0.088301
0.300168 0.152648 0.088301
0.326882 0.151852 0.088301
0.356802 0.151083 0.088301
0.390124 0.150341 0.088301
0.426971 0.149626 0.088301
0.467360 0.148939 0.088301
0.511155 0.148279 0.088301
0.558033 0.147648 0.088301
0.612016 0.147274 0.088301
0.670081 0.147006 0.088301
0.728842 0.146749 0.088301
0.786584 0.146509 0.088301
0.841562 0.146289 0.088301
0.892214 0.146094 0.088301
0.937353 0.145926 0.088301
0.976280 0.145785 0.088301
1.000000 0.145670 0.088301
0.139089 0.170830 0.088301
0.140566 0.170640 0.088301
0.142224 0.170419 0.088301
0.144613 0.170108 0.088301
0.147844 0.169705 0.088301
0.152002 0.169211 0.088301
0.157180 0.168633 0.088301
0.163473 0.167979 0.088301
0.170990 0.167261 0.088301
0.179852 0.166492 0.088301
0.190197 0.165682 0.088301
0.202184 0.164845 0.088301
0.215990 0.163991 0.088301
0.231819 0.163131 0.088301
0.249895 0.162271 0.088301
0.270461 0.161418 0.088301
0.293774 0.160577 0.088301
0.320093 0.159753 0.088301
0.349663 0.158947 0.088301
0.382689 0.158163 0.088301
0.419310 0.157400 0.088301
0.459554 0.156662 0.088301
0.503301 0.155950 0.088301
0.554871 0.155599 0.088301
0.610668 0.155318 0.088301
0.668660 0.155043 0.088301
0.727350 0.154778 0.088301
0.785024 0.154529 0.088301
0.839939 0.154303 0.088301
0.890535 0.154102 0.088301
0.935624 0.153929 0.088301
0.974510 0.153783 0.088301
1.000000 0.153664 0.088301
0.138555 0.179354 0.088301
0.139921 0.179181 0.088301
0.141475 0.178988 0.088301
0.143718 0.178717 0.088301
0.146756 0.178362 0.088301
0.150678 0.177924 0.088301
0.155574 0.177406 0.088301
0.161546 0.176816 0.088301
0.168705 0.176159 0.088301
0.177177 0.175447 0.088301
0.187104 0.174688 0.088301
0.198652 0.173893 0.088301
0.212003 0.173071 0.088301
0.227367 0.172231 0.088301
0.244973 0.171381 0.088301
0.265073 0.170528 0.088301
0.287930 0.169677 0.088301
0.313813 0.168833 0.088301
0.342978 0.167999 0.088301
0.375643 0.167180 0.088301
0.411961 0.166378 0.088301
0.452808 0.165697 0.088301
0.501050 0.165414 0.088301
0.553414 0.165125 0.088301
0.609128 0.164834 0.088301
0.667036 0.164549 0.088301
0.725644 0.164275 0.088301
0.783240 0.164018 0.088301
0.838083 0.163783 0.088301
0.888615 0.163575 0.088301
0.933648 0.163395 0.088301
0.972487 0.163245 0.088301
1.000000 0.163121 0.088301
0.137932 0.189273 0.088301
0.139227 0.189120 0.088301
0.140699 0.188949 0.088301
0.142827 0.188708 0.088301
0.145714 0.188390 0.088301
0.149446 0.187996 0.088301
0.154115 0.187528 0.088301
0.159822 0.186989 0.088301
0.166680 0.186384 0.088301
0.174819 0.185722 0.088301
0.184382 0.185008 0.088301
0.195538 0.184252 0.088301
0.208474 0.183462 0.088301
0.223403 0.182645 0.088301
0.240559 0.181809 0.088301
0.260200 0.180960 0.088301
0.282596 0.180105 0.088301
0.308024 0.179248 0.088301
0.336752 0.178394 0.088301
0.369012 0.177548 0.088301
0.407714 0.177216 0.088301
0.451340 0.176933 0.088301
0.499493 0.176639 0.088301
0.551764 0.176339 0.088301
0.607382 0.176037 0.088301
0.665195 0.175741 0.088301
0.723710 0.175455 0.088301
0.781219 0.175188 0.088301
0.835981 0.174945 0.088301
0.886439 0.174729 0.088301
0.931409 0.174542 0.088301
0.970193 0.174385 0.088301
1.000000 0.174257 0.088301
0.137236 0.200777 0.088301
0.138473 0.200640 0.088301
0.139881 0.200485 0.088301
0.141917 0.200267 0.088301
0.144681 0.199980 0.088301
0.148258 0.199621 0.088301
0.152741 0.199192 0.088301
0.158228 0.198695 0.088301
0.164834 0.198133 0.088301
0.172687 0.197512 0.088301
0.181934 0.196838 0.088301
0.192744 0.196118 0.088301
0.205305 0.195357 0.088301
0.219834 0.194563 0.088301
0.236568 0.193742 0.088301
0.255768 0.192902 0.088301
0.277712 0.192046 0.088301
0.302706 0.191190 0.088301
0.332858 0.190947 0.088301
0.367254 0.190684 0.088301
0.406158 0.190405 0.088301
0.449689 0.190110 0.088301
0.497741 0.189803 0.088301
0.549908 0.189490 0.088301
0.605419 0.189175 0.088301
0.663125 0.188866 0.088301
0.721536 0.188569 0.088301
0.778945 0.188290 0.088301
0.833615 0.188036 0.088301
0.883991 0.187811 0.088301
0.928889 0.187616 0.088301
0.967613 0.187453 0.088301
0.999972 0.187319 0.088301
0.136463 0.214069 0.088301
0.137653 0.213943 0.088301
0.139008 0.213803 0.088301
0.140969 0.213603 0.088301
0.143633 0.213338 0.088301
0.147083 0.213008 0.088301
0.151409 0.212610 0.088301
0.156712 0.212147 0.088301
0.163103 0.211621 0.088301
0.170711 0.211036 0.088301
0.179683 0.210396 0.088301
0.190186 0.209706 0.088301
0.202412 0.208972 0.088301
0.216576 0.208200 0.088301
0.232919 0.207395 0.088301
0.252376 0.207090 0.088301
0.275060 0.206876 0.088301
0.301244 0.206641 0.088301
0.331313 0.206386 0.088301
0.365617 0.206112 0.088301
0.404422 0.205819 0.088301
0.447847 0.205511 0.088301
0.495786 0.205190 0.088301
0.547835 0.204862 0.088301
0.603228 0.204533 0.088301
0.660814 0.204209 0.088301
0.719108 0.203898 0.088301
0.776406 0.203606 0.088301
0.830973 0.203340 0.088301
0.881257 0.203104 0.088301
0.926075 0.202901 0.088301
0.964731 0.202730 0.088301
0.997034 0.202590 0.088301
0.135609 0.229374 0.088301
0.136760 0.229258 0.088301
0.138072 0.229127 0.088301
0.139970 0.228942 0.088301
0.142550 0.228697 0.088301
0.145894 0.228388 0.088301
0.150089 0.228017 0.088301
0.155235 0.227582 0.088301
0.161442 0.227085 0.088301
0.168837 0.226530 0.088301
0.177573 0.225937 0.088301
0.188010 0.225808 0.088301
0.200279 0.225663 0.088301
0.214646 0.225499 0.088301
0.231412 0.225316 0.088301
0.250915 0.225112 0.088301
0.273523 0.224888 0.088301
0.299623 0.224641 0.088301
0.329600 0.224374 0.088301
0.363802 0.224086 0.088301
0.402497 0.223778 0.088301
0.445804 0.223455 0.088301
0.493619 0.223118 0.088301
0.545538 0.222774 0.088301
0.600797 0.222428 0.088301
0.658250 0.222088 0.088301
0.716414 0.221761 0.088301
0.773589 0.221455 0.088301
0.828043 0.221175 0.088301
0.878224 0.220927 0.088301
0.922953 0.220713 0.088301
0.961534 0.220534 0.088301
0.993775 0.220387 0.088301
0.134643 0.247498 0.088301
0.135762 0.247481 0.088301
0.137038 0.247461 0.088301
0.138888 0.247433 0.088301
0.141408 0.247395 0.088301
0.144684 0.247346 0.088301
0.148811 0.247285 0.088301
0.153897 0.247211 0.088301
0.160066 0.247124 0.088301
0.167464 0.247022 0.088301
0.176260 0.246904 0.088301
0.186652 0.246769 0.088301
0.198870 0.246615 0.088301
0.213178 0.246443 0.088301
0.229879 0.246250 0.088301
0.249308 0.246035 0.088301
0.271833 0.245799 0.088301
0.297840 0.245540 0.088301
0.327714 0.245258 0.088301
0.361805 0.244954 0.088301
0.400379 0.244631 0.088301
0.443555 0.244289 0.088301
0.491232 0.243935 0.088301
0.543008 0.243572 0.088301
0.598120 0.243208 0.088301
0.655427 0.242849 0.088301
0.713448 0.242505 0.088301
0.770487 0.242183 0.088301
0.824815 0.241888 0.088301
0.874883 0.241627 0.088301
0.919514 0.241402 0.088301
0.958011 0.241212 0.088301
0.990184 0.241057 0.088301
0.133419 0.271772 0.088301
0.134531 0.271753 0.088301
0.135801 0.271733 0.088301
0.137640 0.271703 0.088301
0.140147 0.271663 0.088301
0.143407 0.271611 0.088301
0.147512 0.271547 0.088301
0.152573 0.271469 0.088301
0.158711 0.271377 0.088301
0.166073 0.271269 0.088301
0.174826 0.271144 0.088301
0.185170 0.271002 0.088301
0.197332 0.270840 0.088301
0.211576 0.270657 0.088301
0.228205 0.270454 0.088301
0.247552 0.270227 0.088301
0.269986 0.269977 0.088301
0.295893 0.269703 0.088301
0.325655 0.269406 0.088301
0.359623 0.269085 0.088301
0.398064 0.268743 0.088301
0.441098 0.268383 0.088301
0.488623 0.268008 0.088301
0.540242 0.267625 0.088301
0.595194 0.267240 0.088301
0.652340 0.266862 0.088301
0.710204 0.266498 0.088301
0.767094 0.266157 0.088301
0.821284 0.265846 0.088301
0.871229 0.265570 0.088301
0.916420 0.265494 0.088301
0.956320 0.265644 0.088301
0.989694 0.265767 0.088301
0.132094 0.299691 0.088301
0.133200 0.299671 0.088301
0.134462 0.299649 0.088301
0.136291 0.299618 0.088301
0.138784 0.299575 0.088301
0.142025 0.299520 0.088301
0.146108 0.299452 0.088301
0.151140 0.299370 0.088301
0.157245 0.299273 0.088301
0.164567 0.299158 0.088301
0.173275 0.299026 0.088301
0.183565 0.298875 0.088301
0.195666 0.298704 0.088301
0.209842 0.298511 0.088301
0.226392 0.298295 0.088301
0.245651 0.298055 0.088301
0.267986 0.297791 0.088301
0.293783 0.297501 0.088301
0.323424 0.297186 0.088301
0.357259 0.296846 0.088301
0.395555 0.296484 0.088301
0.438434 0.296102 0.088301
0.485795 0.295705 0.088301
0.537243 0.295300 0.088301
0.592020 0.294892 0.088301
0.648992 0.294491 0.088301
0.706686 0.294106 0.088301
0.765101 0.294228 0.088301
0.821309 0.294475 0.088301
0.873188 0.294695 0.088301
0.919489 0.294885 0.088301
0.959467 0.295045 0.088301
0.992904 0.295175 0.088301
0.130674 0.331591 0.088301
0.131774 0.331570 0.088301
0.133028 0.331547 0.088301
0.134846 0.331513 0.088301
0.137323 0.331468 0.088301
0.140544 0.331410 0.088301
0.144602 0.331338 0.088301
0.149604 0.331251 0.088301
0.155673 0.331147 0.088301
0.162953 0.331026 0.088301
0.171611 0.330886 0.088301
0.181845 0.330726 0.088301
0.193880 0.330544 0.088301
0.207981 0.330339 0.088301
0.224447 0.330110 0.088301
0.243611 0.329856 0.088301
0.265840 0.329575 0.088301
0.291518 0.329268 0.088301
0.321028 0.328933 0.088301
0.354720 0.328573 0.088301
0.392860 0.328189 0.088301
0.435572 0.327784 0.088301
0.482757 0.327363 0.088301
0.534020 0.326932 0.088301
0.590002 0.326993 0.088301
0.649084 0.327312 0.088301
0.709033 0.327620 0.088301
0.768080 0.327908 0.088301
0.824414 0.328172 0.088301
0.876405 0.328406 0.088301
0.922805 0.328609 0.088301
0.962866 0.328779 0.088301
0.996372 0.328918 0.088301
0.129169 0.367731 0.088301
0.130261 0.367709 0.088301
0.131507 0.367685 0.088301
0.133313 0.367649 0.088301
0.135773 0.367601 0.088301
0.138973 0.367539 0.088301
0.143005 0.367463 0.088301
0.147975 0.367370 0.088301
0.154006 0.367260 0.088301
0.161240 0.367131 0.088301
0.169846 0.366983 0.088301
0.180019 0.366813 0.088301
0.191985 0.366619 0.088301
0.206006 0.366402 0.088301
0.222382 0.366159 0.088301
0.241445 0.365888 0.088301
0.263560 0.365590 0.088301
0.289112 0.365263 0.088301
0.318483 0.364908 0.088301
0.352021 0.364525 0.088301
0.389996 0.364117 0.088301
0.433716 0.364223 0.088301
0.482631 0.364559 0.088301
0.535895 0.364903 0.088301
0.592734 0.365249 0.088301
0.651973 0.365590 0.088301
0.712074 0.365918 0.088301
0.771267 0.366225 0.088301
0.827735 0.366507 0.088301
0.879847 0.366756 0.088301
0.926351 0.366972 0.088301
0.966502 0.367154 0.088301
1.000000 0.367302 0.088301
0.127593 0.408234 0.088301
0.128677 0.408211 0.088301
0.129914 0.408185 0.088301
0.131707 0.408147 0.088301
0.134150 0.408096 0.088301
0.137328 0.408030 0.088301
0.141332 0.407949 0.088301
0.146268 0.407850 0.088301
0.152258 0.407733 0.088301
0.159445 0.407597 0.088301
0.167996 0.407438 0.088301
0.178104 0.407257 0.088301
0.189997 0.407052 0.088301
0.203935 0.406821 0.088301
0.220216 0.406562 0.088301
0.239172 0.406275 0.088301
0.261168 0.405958 0.088301
0.287131 0.405944 0.088301
0.317531 0.406227 0.088301
0.352324 0.406533 0.088301
0.391807 0.406860 0.088301
0.436125 0.407204 0.088301
0.485195 0.407563 0.088301
0.538620 0.407930 0.088301
0.595625 0.408299 0.088301
0.655028 0.408663 0.088301
0.715291 0.409013 0.088301
0.774636 0.409342 0.088301
0.831246 0.409642 0.088301
0.883486 0.409908 0.088301
0.930101 0.410138 0.088301
0.970345 0.410332 0.088301
1.000000 0.410490 0.088301
0.125964 0.453011 0.088301
0.127040 0.452987 0.088301
0.128268 0.452959 0.088301
0.130048 0.452919 0.088301
0.132473 0.452864 0.088301
0.135628 0.452795 0.088301
0.139603 0.452708 0.088301
0.144504 0.452604 0.088301
0.150453 0.452479 0.088301
0.157591 0.452334 0.088301
0.166083 0.452166 0.088301
0.176448 0.452253 0.088301
0.188735 0.452417 0.088301
0.203159 0.452601 0.088301
0.220036 0.452808 0.088301
0.239722 0.453037 0.088301
0.262607 0.453291 0.088301
0.289102 0.453569 0.088301
0.319621 0.453871 0.088301
0.354545 0.454197 0.088301
0.394169 0.454546 0.088301
0.438640 0.454913 0.088301
0.487871 0.455296 0.088301
0.541464 0.455687 0.088301
0.598640 0.456081 0.088301
0.658215 0.456469 0.088301
0.718646 0.456843 0.088301
0.778151 0.457193 0.088301
0.834908 0.457513 0.088301
0.887280 0.457797 0.088301
0.934011 0.458043 0.088301
0.974352 0.458249 0.088301
1.000000 0.458418 0.088301
0.125753 0.503317 0.088301
0.126868 0.503336 0.088301
0.128142 0.503358 0.088301
0.129989 0.503390 0.088301
0.132506 0.503434 0.088301
0.135782 0.503489 0.088301
0.139912 0.503558 0.088301
0.145008 0.503642 0.088301
0.151198 0.503741 0.088301
0.158632 0.503857 0.088301
0.167487 0.503991 0.088301
0.177968 0.504145 0.088301
0.190316 0.504319 0.088301
0.204809 0.504516 0.088301
0.221765 0.504736 0.088301
0.241539 0.504980 0.088301
0.264523 0.505250 0.088301
0.291128 0.505547 0.088301
0.321770 0.505869 0.088301
0.356827 0.506216 0.088301
0.396597 0.506587 0.088301
0.441223 0.506979 0.088301
0.490619 0.507386 0.088301
0.544385 0.507804 0.088301
0.601737 0.508223 0.088301
0.661488 0.508637 0.088301
0.722090 0.509034 0.088301
0.781758 0.509407 0.088301
0.838667 0.509748 0.088301
0.891174 0.510051 0.088301
0.938023 0.510313 0.088301
0.978465 0.510532 0.088301
1.000000 0.510712 0.088301
0.127007 0.558762 0.088301
0.128129 0.558783 0.088301
0.129410 0.558806 0.088301
0.131267 0.558840 0.088301
0.133799 0.558886 0.088301
0.137093 0.558945 0.088301
0.141247 0.559019 0.088301
0.146371 0.559108 0.088301
0.152594 0.559213 0.088301
0.160068 0.559336 0.088301
0.168969 0.559479 0.088301
0.179503 0.559642 0.088301
0.191912 0.559828 0.088301
0.206475 0.560037 0.088301
0.223510 0.560270 0.088301
0.243373 0.560530 0.088301
0.266456 0.560817 0.088301
0.293173 0.561132 0.088301
0.323937 0.561474 0.088301
0.359129 0.561843 0.088301
0.399045 0.562238 0.088301
0.443828 0.562654 0.088301
0.493391 0.563087 0.088301
0.547329 0.563530 0.088301
0.604858 0.563976 0.088301
0.664786 0.564415 0.088301
0.725561 0.564838 0.088301
0.785394 0.565234 0.088301
0.842455 0.565597 0.088301
0.895099 0.565918 0.088301
0.942066 0.566196 0.088301
0.982609 0.566430 0.088301
1.000000 0.566621 0.088301
0.128248 0.616666 0.088301
0.129377 0.616688 0.088301
0.130665 0.616713 0.088301
0.132533 0.616749 0.088301
0.135079 0.616798 0.088301
0.138391 0.616860 0.088301
0.142568 0.616938 0.088301
0.147719 0.617032 0.088301
0.153976 0.617144 0.088301
0.161489 0.617274 0.088301
0.170435 0.617425 0.088301
0.181022 0.617598 0.088301
0.193491 0.617795 0.088301
0.208123 0.618016 0.088301
0.225235 0.618264 0.088301
0.245186 0.618539 0.088301
0.268368 0.618843 0.088301
0.295194 0.619176 0.088301
0.326079 0.619539 0.088301
0.361404 0.619930 0.088301
0.401463 0.620347 0.088301
0.446401 0.620788 0.088301
0.496128 0.621247 0.088301
0.550237 0.621716 0.088301
0.607940 0.622188 0.088301
0.668042 0.622654 0.088301
0.728988 0.623101 0.088301
0.788983 0.623521 0.088301
0.846193 0.623904 0.088301
0.898971 0.624245 0.088301
0.946056 0.624539 0.088301
0.986698 0.624786 0.088301
1.000000 0.624989 0.088301
0.129449 0.675522 0.088301
0.130584 0.675545 0.088301
0.131879 0.675571 0.088301
0.133757 0.675609 0.088301
0.136317 0.675661 0.088301
0.139647 0.675727 0.088301
0.143845 0.675809 0.088301
0.149023 0.675908 0.088301
0.155312 0.676026 0.088301
0.162862 0.676163 0.088301
0.171852 0.676323 0.088301
0.182489 0.676505 0.088301
0.195017 0.676712 0.088301
0.209715 0.676946 0.088301
0.226902 0.677207 0.088301
0.246938 0.677497 0.088301
0.270214 0.677817 0.088301
0.297145 0.678169 0.088301
0.328147 0.678551 0.088301
0.363599 0.678964 0.088301
0.403797 0.679404 0.088301
0.448884 0.679869 0.088301
0.498768 0.680352 0.088301
0.553041 0.680847 0.088301
0.610912 0.681345 0.088301
0.671183 0.681836 0.088301
