film-luts/Generated/CHROME_v3.cube
TITLE "Frontier CHROME v3 - Technicolor + Tungsten Scan Characteristics"
LUT_3D_SIZE 5
DOMAIN_MIN 0.0 0.0 0.0
DOMAIN_MAX 1.0 1.0 1.0
0.028225 0.019954 0.010174
0.160618 0.018752 0.006111
0.504377 0.015221 0.002778
0.598928 0.030969 0.003779
0.613076 0.035404 0.004449
0.011053 0.061115 0.027915
0.057289 0.053559 0.017364
0.491117 0.039604 0.006737
0.659279 0.070268 0.011920
0.702633 0.087140 0.015441
0.002895 0.307576 0.167123
0.003146 0.351496 0.176402
0.533349 0.540594 0.190149
0.861132 0.539111 0.163551
0.882225 0.555269 0.174665
0.002936 0.501461 0.353446
0.002657 0.557372 0.387085
0.272858 0.718720 0.458798
0.807909 0.785357 0.393560
0.842601 0.785991 0.388042
0.002802 0.525785 0.387181
0.002529 0.581888 0.422295
0.249452 0.727216 0.493134
0.789772 0.806006 0.435047
0.831910 0.805182 0.422740
0.024489 0.022392 0.032802
0.194270 0.016034 0.009995
0.529696 0.010973 0.003176
0.607797 0.027353 0.004445
0.617737 0.032169 0.005406
0.009979 0.061948 0.086065
0.058193 0.050960 0.040967
0.528048 0.035625 0.008930
0.675207 0.067943 0.014616
0.713562 0.084726 0.018418
0.002999 0.318558 0.221613
0.003288 0.368978 0.238311
0.536073 0.559162 0.249641
0.865683 0.556921 0.224140
0.886443 0.572518 0.234581
0.002883 0.506308 0.405136
0.002613 0.560704 0.440275
0.284970 0.729760 0.507228
0.814658 0.796114 0.446780
0.847595 0.797057 0.442453
0.002753 0.530215 0.439074
0.002492 0.584078 0.474397
0.261675 0.737318 0.537342
0.795870 0.816123 0.489288
0.836483 0.815095 0.476191
0.011297 0.047973 0.179051
0.067313 0.034528 0.126406
0.561693 0.011183 0.030856
0.618650 0.021149 0.020373
0.624588 0.024823 0.020845
0.008673 0.064203 0.200435
0.035621 0.064125 0.187209
0.554746 0.031754 0.064021
0.672686 0.057645 0.047867
0.703038 0.071730 0.052415
0.003115 0.321804 0.386127
0.003434 0.375635 0.422632
0.570883 0.566646 0.476370
0.879165 0.566095 0.396545
0.896760 0.587716 0.399562
0.002969 0.478285 0.503524
0.002645 0.541680 0.551843
0.220768 0.729738 0.627780
0.824625 0.817919 0.591645
0.860932 0.818741 0.584119
0.002844 0.502073 0.522233
0.002540 0.563230 0.568088
0.205744 0.735921 0.638610
0.803490 0.835006 0.616678
0.846456 0.833968 0.604797
0.007898 0.090322 0.277301
0.093558 0.066695 0.242416
0.564776 0.035463 0.130441
0.625061 0.025980 0.064798
0.629030 0.027173 0.061127
0.002102 0.148459 0.336439
0.052024 0.174330 0.350981
0.649525 0.110939 0.226196
0.701729 0.070649 0.121175
0.712610 0.074833 0.116500
0.003469 0.388011 0.478510
0.003099 0.450014 0.526947
0.668597 0.574390 0.568562
0.867993 0.370712 0.386949
0.886647 0.407840 0.397402
0.002936 0.482433 0.530091
0.002620 0.544550 0.579144
0.194778 0.724433 0.685461
0.834296 0.820745 0.677532
0.872242 0.822494 0.670299
0.002816 0.505510 0.547475
0.002504 0.568480 0.595692
0.179787 0.732734 0.692557
0.812429 0.839609 0.694699
0.856090 0.839624 0.686941
0.008632 0.103554 0.295649
0.115491 0.077897 0.263604
0.594897 0.045721 0.149813
0.630485 0.032602 0.084070
0.630763 0.029292 0.073707
0.002252 0.189934 0.369248
0.084995 0.230035 0.394089
0.713526 0.150963 0.267227
0.744964 0.096327 0.159780
0.727207 0.083109 0.137331
0.003221 0.428336 0.511732
0.002840 0.498942 0.563424
0.706682 0.617040 0.595614
0.879602 0.435857 0.440461
0.877788 0.366817 0.387402
0.002853 0.498099 0.544109
0.002535 0.561780 0.593298
0.272317 0.746088 0.695323
0.841824 0.824022 0.686980
0.875735 0.816245 0.674642
0.002823 0.504008 0.547795
0.002514 0.566239 0.595648
0.168484 0.728237 0.693106
0.812957 0.838274 0.700623
0.857108 0.838344 0.693435
