film-luts/Generated/CHROME.cube
TITLE "Frontier CHROME - Tungsten Film Emulation"
LUT_3D_SIZE 5
DOMAIN_MIN 0.0 0.0 0.0
DOMAIN_MAX 1.0 1.0 1.0
0.135438 0.116800 0.088301
0.235255 0.117604 0.088301
0.359808 0.118365 0.088301
0.653259 0.117204 0.088301
1.000000 0.115944 0.088301
0.138186 0.156433 0.088301
0.175727 0.152236 0.088301
0.307118 0.145753 0.088301
0.614924 0.140579 0.088301
1.000000 0.138955 0.088301
0.134643 0.247498 0.088301
0.160066 0.247124 0.088301
0.271833 0.245799 0.088301
0.598120 0.243208 0.088301
0.990184 0.241057 0.088301
0.127007 0.558762 0.088301
0.152594 0.559213 0.088301
0.266456 0.560817 0.088301
0.604858 0.563976 0.088301
1.000000 0.566621 0.088301
0.134581 0.958733 0.088301
0.161014 0.959351 0.088301
0.278060 0.961518 0.088301
0.621296 0.964414 0.088301
1.000000 0.962306 0.088301
0.136984 0.117508 0.354556
0.213588 0.117665 0.148796
0.351084 0.118427 0.116726
0.648403 0.117135 0.109986
1.000000 0.115863 0.108834
0.138334 0.154727 0.119505
0.174745 0.151255 0.116323
0.304291 0.145328 0.111679
0.612752 0.140424 0.108834
1.000000 0.138864 0.108834
0.134465 0.247371 0.108834
0.159869 0.246997 0.108834
0.271564 0.245672 0.108834
0.597695 0.243082 0.108834
0.989614 0.240932 0.108834
0.127136 0.558915 0.108834
0.152738 0.559366 0.108834
0.266655 0.560971 0.108834
0.605179 0.564130 0.108834
1.000000 0.566775 0.108834
0.134715 0.958943 0.108834
0.161163 0.959561 0.108834
0.278252 0.961704 0.108831
0.621411 0.964486 0.108751
1.000000 0.962234 0.108454
0.137516 0.117751 0.496291
0.188063 0.117938 0.348013
0.329636 0.118273 0.242881
0.634400 0.116885 0.207680
1.000000 0.115573 0.202874
0.138909 0.151074 0.255660
0.172081 0.148763 0.240949
0.296520 0.144109 0.217119
0.611222 0.140100 0.202874
1.000000 0.138542 0.202874
0.133834 0.246920 0.202874
0.159171 0.246547 0.202874
0.270613 0.245223 0.202874
0.596187 0.242636 0.202874
0.988693 0.240730 0.202874
0.127595 0.559459 0.202874
0.153249 0.559911 0.202874
0.267363 0.561516 0.202874
0.606320 0.564678 0.202874
1.000000 0.567324 0.202874
0.135190 0.959689 0.202874
0.161690 0.960307 0.202874
0.278919 0.962326 0.202808
0.621832 0.964750 0.202134
1.000000 0.962040 0.199957
0.138245 0.118083 0.736821
0.175484 0.118335 0.674227
0.305723 0.117821 0.567016
0.613294 0.116399 0.494795
1.000000 0.115006 0.494060
0.138276 0.146791 0.586564
0.167846 0.145405 0.563808
0.285744 0.142312 0.517426
0.608223 0.139465 0.494060
1.000000 0.137911 0.494060
0.132599 0.246036 0.494060
0.157804 0.245663 0.494060
0.268749 0.244343 0.494060
0.593231 0.241761 0.494060
0.991677 0.241385 0.494060
0.128500 0.560529 0.494060
0.154256 0.560982 0.494060
0.268755 0.562589 0.494060
0.608564 0.565754 0.494060
1.000000 0.568403 0.494060
0.136126 0.961152 0.494057
0.162725 0.961723 0.493994
0.280146 0.963370 0.493279
0.622484 0.965147 0.490061
1.000000 0.961596 0.481265
0.138684 0.118284 0.908513
0.169280 0.118394 0.898877
0.287684 0.117538 0.874260
0.609978 0.115928 0.858049
1.000000 0.114533 0.858049
0.137670 0.143621 0.879887
0.164665 0.142814 0.873270
0.276641 0.140807 0.858049
0.605727 0.138936 0.858049
1.000000 0.137386 0.858049
0.131573 0.245300 0.858049
0.156669 0.244928 0.858049
0.267200 0.243609 0.858049
0.590771 0.241032 0.858049
0.994172 0.241932 0.858049
0.129258 0.561424 0.858049
0.155100 0.561876 0.858049
0.269921 0.563485 0.858049
0.610441 0.566653 0.858049
1.000000 0.569304 0.858049
0.136904 0.962018 0.857721
0.163547 0.962405 0.857510
0.280828 0.963499 0.856516
0.621354 0.964351 0.853428
1.000000 0.959596 0.845899
