film-luts/Generated/CHROME_v3.cube
TITLE "Frontier CHROME v3 - Technicolor + Tungsten Scan Characteristics"
LUT_3D_SIZE 33
DOMAIN_MIN 0.0 0.0 0.0
DOMAIN_MAX 1.0 1.0 1.0
0.028225 0.019954 0.010174
0.032669 0.020005 0.009754
0.039446 0.020088 0.009259
0.050607 0.020122 0.008705
0.064436 0.020305 0.008220
0.078799 0.020287 0.007818
0.097483 0.020099 0.007373
0.122965 0.019608 0.006861
0.160618 0.018752 0.006111
0.205115 0.017463 0.005354
0.250983 0.016131 0.004759
0.304506 0.014579 0.004208
0.354503 0.013517 0.003770
0.404904 0.012589 0.003474
0.446199 0.012563 0.003237
0.478205 0.013572 0.003009
0.504377 0.015221 0.002778
0.525529 0.017325 0.002648
0.543937 0.019601 0.002535
0.557757 0.022071 0.002742
0.569212 0.024327 0.002947
0.579072 0.026299 0.003151
0.587123 0.028051 0.003375
0.593564 0.029607 0.003592
0.598928 0.030969 0.003779
0.603291 0.032117 0.003930
0.606794 0.033075 0.004057
0.609236 0.033940 0.004181
0.611213 0.034669 0.004306
0.612678 0.035241 0.004418
0.613076 0.035404 0.004449
0.613076 0.035404 0.004449
0.613076 0.035404 0.004449
0.026131 0.021328 0.010964
0.029048 0.021034 0.010304
0.034768 0.021004 0.009852
0.042838 0.021042 0.009328
0.055912 0.020989 0.008744
0.070140 0.021114 0.008348
0.086454 0.020983 0.007865
0.109808 0.020642 0.007312
0.142462 0.020025 0.006621
0.188494 0.018975 0.005733
0.236192 0.017688 0.005004
0.288633 0.016167 0.004438
0.342272 0.014830 0.003995
0.393275 0.014014 0.003566
0.439750 0.013896 0.003209
0.473313 0.014811 0.003046
0.500619 0.016499 0.002800
0.523292 0.018563 0.002716
0.542338 0.020886 0.002720
0.557150 0.023396 0.002932
0.569015 0.025789 0.003160
0.579402 0.027823 0.003391
0.587980 0.029693 0.003630
0.594858 0.031409 0.003872
0.600423 0.032880 0.004076
0.605031 0.034190 0.004253
0.608749 0.035361 0.004468
0.611464 0.036377 0.004670
0.613603 0.037212 0.004836
0.615173 0.037865 0.004967
0.615617 0.038045 0.005004
0.615617 0.038045 0.005004
0.615617 0.038045 0.005004
0.023862 0.023211 0.012050
0.026238 0.022961 0.011381
0.030622 0.022525 0.010515
0.037756 0.022529 0.010049
0.048124 0.022597 0.009419
0.064353 0.022388 0.009006
0.080337 0.022286 0.008477
0.101228 0.022009 0.007868
0.129898 0.021485 0.007241
0.172740 0.020587 0.006339
0.221040 0.019369 0.005477
0.273071 0.017867 0.004821
0.330873 0.016341 0.004248
0.382007 0.015665 0.003755
0.433012 0.015414 0.003309
0.468363 0.016383 0.003057
0.497311 0.017955 0.002915
0.521619 0.019951 0.002830
0.541101 0.022383 0.002940
0.556874 0.024953 0.003140
0.569351 0.027401 0.003420
0.580128 0.029565 0.003676
0.589335 0.031605 0.003939
0.596473 0.033442 0.004198
0.602406 0.035178 0.004466
0.607367 0.036703 0.004767
0.611137 0.038021 0.005035
0.614020 0.039141 0.005266
0.616315 0.040069 0.005456
0.618047 0.040794 0.005609
0.618513 0.040993 0.005651
0.618513 0.040993 0.005651
0.618513 0.040993 0.005651
0.021096 0.025911 0.013576
0.023276 0.025580 0.012790
0.026420 0.025297 0.011982
0.032683 0.024531 0.010935
0.041622 0.024504 0.010289
0.055144 0.024397 0.009581
0.074712 0.023793 0.009270
0.096091 0.023553 0.008558
0.122835 0.023071 0.007867
0.160334 0.022244 0.007057
0.207262 0.021197 0.006059
0.259240 0.019929 0.005247
0.319216 0.018286 0.004553
0.371550 0.017511 0.003984
0.426051 0.017175 0.003440
0.463602 0.018105 0.003187
0.494447 0.019662 0.003042
0.520309 0.021595 0.003052
0.540340 0.024064 0.003186
0.557196 0.026672 0.003399
0.570087 0.029215 0.003705
0.581601 0.031582 0.004016
0.591113 0.033768 0.004302
0.598719 0.035957 0.004678
0.604943 0.037901 0.005072
0.610079 0.039590 0.005403
0.614024 0.041053 0.005701
0.617063 0.042271 0.005963
0.619440 0.043292 0.006188
0.621230 0.044089 0.006367
0.621687 0.044313 0.006418
0.621687 0.044313 0.006418
0.621687 0.044313 0.006418
0.018490 0.029373 0.014830
0.019934 0.028936 0.014558
0.022370 0.028558 0.013864
0.027278 0.028101 0.012736
0.035028 0.027234 0.011656
0.046145 0.027181 0.010786
0.064173 0.026610 0.009936
0.089405 0.025582 0.009448
0.118721 0.025081 0.008559
0.154836 0.024215 0.007699
0.198063 0.023304 0.006685
0.248454 0.022236 0.005722
0.306756 0.020921 0.004929
0.361313 0.019936 0.004255
0.417553 0.019469 0.003662
0.459607 0.020124 0.003390
0.492095 0.021654 0.003252
0.519264 0.023581 0.003303
0.540141 0.026086 0.003483
0.557779 0.028724 0.003727
0.571612 0.031457 0.004089
0.583477 0.033983 0.004432
0.593630 0.036591 0.004880
0.601614 0.039014 0.005353
0.608011 0.041155 0.005787
0.613147 0.042991 0.006188
0.617097 0.044600 0.006549
0.620304 0.045918 0.006826
0.622806 0.046992 0.007053
0.624504 0.047835 0.007235
0.624939 0.048071 0.007286
0.624939 0.048071 0.007286
0.624939 0.048071 0.007286
0.016985 0.033986 0.016290
0.017200 0.033671 0.016045
0.018440 0.033154 0.015789
0.021266 0.032567 0.015285
0.027557 0.031945 0.013952
0.037409 0.030844 0.012683
0.052436 0.030594 0.011527
0.077452 0.029198 0.010516
0.111755 0.028096 0.009639
0.150602 0.027169 0.008492
0.193807 0.026074 0.007388
0.241731 0.025044 0.006314
0.296018 0.023914 0.005464
0.352465 0.022869 0.004726
0.408246 0.022348 0.004097
0.455822 0.022728 0.003705
0.490471 0.023999 0.003610
0.518326 0.026079 0.003644
0.540520 0.028582 0.003841
0.559353 0.031260 0.004181
0.573750 0.034146 0.004586
0.586418 0.037115 0.005089
0.596755 0.039979 0.005654
0.604887 0.042608 0.006199
0.611379 0.044923 0.006691
0.616601 0.046910 0.007104
0.620752 0.048597 0.007464
0.623982 0.049986 0.007770
0.626268 0.051152 0.008051
0.627671 0.052123 0.008308
0.628043 0.052403 0.008380
0.628043 0.052403 0.008380
0.628043 0.052403 0.008380
0.015268 0.040302 0.018899
0.015395 0.039885 0.018141
0.015508 0.039470 0.017784
0.016296 0.038992 0.017517
0.019883 0.038204 0.016999
0.027923 0.037470 0.015670
0.041438 0.035753 0.013954
0.062755 0.034958 0.012279
0.097844 0.032892 0.011137
0.142691 0.031247 0.009922
0.189409 0.029933 0.008539
0.238566 0.028601 0.007266
0.290016 0.027693 0.006296
0.346223 0.026726 0.005452
0.399637 0.026164 0.004833
0.452403 0.026192 0.004287
0.489026 0.027270 0.004078
0.518389 0.029202 0.004105
0.541848 0.031826 0.004383
0.561463 0.034694 0.004823
0.577216 0.037942 0.005471
0.590129 0.041156 0.006054
0.600405 0.044278 0.006696
0.608733 0.047095 0.007269
0.615269 0.049506 0.007788
0.620252 0.051622 0.008283
0.635338 0.055169 0.008483
0.643309 0.057728 0.009022
0.649338 0.059871 0.009502
0.653911 0.061548 0.009882
0.655162 0.062016 0.009989
0.655162 0.062016 0.009989
0.655162 0.062016 0.009989
0.013197 0.049488 0.022413
0.013329 0.048925 0.021643
0.013459 0.048407 0.020769
0.013563 0.047971 0.020235
0.013657 0.047539 0.019996
0.017196 0.046429 0.019392
0.027925 0.045345 0.017809
0.047307 0.042908 0.015480
0.077609 0.041335 0.012915
0.128670 0.037650 0.011740
0.181642 0.035626 0.010206
0.233063 0.033855 0.008740
0.286356 0.032751 0.007470
0.343329 0.031701 0.006486
0.394878 0.031166 0.005770
0.449874 0.031187 0.005136
0.488140 0.032211 0.004934
0.519567 0.033841 0.004956
0.544688 0.036286 0.005305
0.565562 0.039423 0.006011
0.581327 0.042927 0.006729
0.594341 0.046370 0.007368
0.604771 0.049592 0.007978
0.612672 0.052628 0.008663
0.634010 0.057813 0.009177
0.646156 0.061591 0.009990
0.656185 0.064897 0.010664
0.663858 0.067713 0.011241
0.669965 0.070062 0.011729
0.674824 0.072010 0.012136
0.676169 0.072562 0.012251
0.676169 0.072562 0.012251
0.676169 0.072562 0.012251
0.011053 0.061115 0.027915
0.011209 0.060238 0.027100
0.011355 0.059473 0.026070
0.011473 0.058918 0.024945
0.011563 0.058529 0.023901
0.011645 0.058073 0.023626
0.014402 0.057778 0.023229
0.029048 0.057014 0.021342
0.057289 0.053559 0.017364
0.102254 0.051042 0.014011
0.166047 0.045506 0.012911
0.227748 0.042410 0.011359
0.281411 0.040503 0.009756
0.341609 0.039285 0.008435
0.395265 0.038684 0.007597
0.450650 0.038659 0.006961
0.491117 0.039604 0.006737
0.523654 0.041242 0.006858
0.549621 0.043609 0.007298
0.570918 0.046485 0.007983
0.586440 0.049887 0.008598
0.599013 0.053573 0.009259
0.627259 0.060216 0.009940
0.644798 0.065554 0.010994
0.659279 0.070268 0.011920
0.671622 0.074527 0.012779
0.681758 0.078382 0.013582
0.689783 0.081634 0.014269
0.696293 0.084366 0.014848
0.701258 0.086527 0.015308
0.702633 0.087140 0.015441
0.702633 0.087140 0.015441
0.702633 0.087140 0.015441
0.008658 0.078069 0.034656
0.008818 0.076839 0.033774
0.008968 0.075711 0.032958
0.009089 0.074827 0.032196
0.009177 0.074241 0.031383
0.009269 0.073720 0.030061
0.009304 0.073550 0.029380
0.010035 0.075866 0.029457
0.031705 0.074616 0.026158
0.072187 0.070382 0.020742
0.133803 0.066618 0.015968
0.212021 0.059169 0.014738
0.283175 0.054086 0.013835
0.344757 0.052031 0.012146
0.403295 0.051258 0.011164
0.461176 0.051058 0.010419
0.498716 0.051825 0.010233
0.530037 0.053212 0.010348
0.555821 0.055458 0.010771
0.591150 0.060699 0.011172
0.617018 0.065952 0.011939
0.639701 0.071571 0.012822
0.660125 0.077523 0.013869
0.677491 0.083284 0.014958
0.692250 0.088702 0.016043
0.704497 0.093726 0.017055
0.714804 0.098344 0.018009
0.723443 0.102402 0.018864
0.730465 0.105855 0.019600
0.735819 0.108682 0.020194
0.737289 0.109484 0.020363
0.737289 0.109484 0.020363
0.737289 0.109484 0.020363
0.006554 0.097860 0.043065
0.006672 0.096647 0.042134
0.006779 0.095580 0.041254
0.006862 0.094772 0.040478
0.006931 0.094132 0.039730
0.006984 0.093688 0.038909
0.006992 0.093767 0.037965
0.006783 0.096142 0.037684
0.007484 0.101564 0.038286
0.038429 0.099723 0.032751
0.095085 0.095627 0.025444
0.170980 0.090403 0.019538
0.257975 0.081193 0.018101
0.345921 0.072894 0.018411
0.415774 0.073048 0.016817
0.486617 0.074962 0.016297
0.535121 0.076889 0.016106
0.574202 0.079717 0.016507
0.608155 0.083442 0.017286
0.639045 0.088474 0.018064
0.664460 0.094271 0.018750
0.686523 0.100421 0.019656
0.705315 0.106542 0.020675
0.721849 0.112554 0.021720
0.736003 0.118358 0.022808
0.747854 0.123615 0.023837
0.757838 0.128353 0.024824
0.766267 0.132881 0.025815
0.773046 0.136917 0.026736
0.778374 0.140234 0.027494
0.779867 0.141176 0.027713
0.779867 0.141176 0.027713
0.779867 0.141176 0.027713
0.004687 0.121464 0.054887
0.004785 0.120123 0.053476
0.004872 0.118975 0.052200
0.004956 0.117866 0.051047
0.005017 0.117100 0.050047
0.005051 0.116743 0.049134
0.005050 0.116871 0.048401
0.004917 0.118898 0.048442
0.004480 0.125695 0.049913
0.006948 0.134465 0.051147
0.051365 0.132314 0.042716
0.137534 0.136770 0.033550
0.246173 0.140585 0.027876
0.351384 0.135788 0.025542
0.453997 0.127895 0.027067
0.541271 0.121244 0.028217
0.593949 0.123106 0.027725
0.635898 0.125507 0.027815
0.670223 0.129049 0.028588
0.700242 0.133957 0.029277
0.724668 0.139627 0.029905
0.745696 0.145604 0.030716
0.763411 0.151612 0.031785
0.778535 0.157697 0.033084
0.791100 0.163231 0.034322
0.801865 0.168424 0.035525
0.808012 0.172749 0.036844
0.812956 0.176741 0.038133
0.817124 0.180575 0.039512
0.820410 0.183817 0.040690
0.821351 0.184760 0.041044
0.821351 0.184760 0.041044
0.821351 0.184760 0.041044
0.003173 0.147785 0.070367
0.003248 0.146358 0.068730
0.003312 0.145176 0.067330
0.003352 0.144489 0.066130
0.003373 0.144210 0.065115
0.003372 0.144351 0.064319
0.003355 0.144854 0.063575
0.003222 0.147743 0.063714
0.002894 0.155073 0.065786
0.002383 0.166974 0.069101
0.012268 0.185665 0.071089
0.096538 0.205069 0.062090
0.216809 0.212710 0.051201
0.341751 0.215681 0.043927
0.465143 0.211380 0.038109
0.567519 0.202685 0.041287
0.643698 0.192686 0.044075
0.695684 0.186436 0.046909
0.728471 0.188766 0.047520
0.755332 0.192305 0.047795
0.774865 0.196502 0.048835
0.791231 0.201160 0.050184
0.803634 0.205831 0.051756
0.814456 0.211052 0.053455
0.823223 0.216057 0.055204
0.829650 0.220701 0.056948
0.835114 0.225203 0.058693
0.839527 0.229490 0.060388
0.843108 0.233649 0.062073
0.845909 0.237235 0.063558
0.846688 0.238303 0.064008
0.846688 0.238303 0.064008
0.846688 0.238303 0.064008
0.001834 0.177844 0.088273
0.001893 0.176589 0.086552
0.001941 0.175607 0.085023
0.001973 0.174978 0.083715
0.001988 0.174763 0.082695
0.001985 0.174941 0.082005
0.001933 0.176288 0.081857
0.001775 0.180234 0.082808
0.002058 0.192372 0.084509
0.002200 0.210765 0.089841
0.002380 0.235548 0.096466
0.046318 0.270767 0.099606
0.161176 0.294038 0.090341
0.299996 0.297757 0.078145
0.429519 0.298710 0.069771
0.543902 0.293555 0.062139
0.640065 0.285971 0.063496
0.698627 0.276884 0.067729
0.741319 0.270877 0.071416
0.774994 0.269150 0.073147
0.797966 0.269498 0.074439
0.815664 0.271528 0.076282
0.828577 0.274317 0.078160
0.838777 0.277939 0.080117
0.846638 0.282098 0.081862
0.852682 0.286912 0.083552
0.857371 0.291947 0.085079
0.860912 0.296981 0.086461
0.863802 0.301957 0.087801
0.866024 0.306413 0.088981
0.866648 0.307770 0.089335
0.866648 0.307770 0.089335
0.866648 0.307770 0.089335
0.002301 0.221754 0.110874
0.002295 0.221149 0.109279
0.002290 0.220697 0.107838
0.002289 0.220687 0.106643
0.002294 0.221498 0.105767
0.002303 0.222907 0.105090
0.002322 0.225768 0.105030
0.002375 0.233131 0.107045
0.002463 0.245621 0.111261
0.002588 0.264259 0.117054
0.002759 0.290870 0.124949
0.004822 0.326998 0.134185
0.097054 0.362582 0.133545
0.231648 0.380655 0.124593
0.375191 0.383943 0.112379
0.507179 0.386042 0.104434
0.617843 0.381785 0.096174
0.689952 0.375889 0.089553
0.739631 0.368809 0.093872
0.775176 0.364355 0.096895
0.801369 0.362228 0.098568
0.820353 0.362344 0.099979
0.834986 0.364179 0.101341
0.846280 0.367349 0.102965
0.854661 0.371025 0.104518
0.860796 0.375155 0.106076
0.865730 0.379620 0.107649
0.869513 0.384428 0.109265
0.872440 0.389244 0.110835
0.874333 0.393595 0.112135
0.874841 0.394919 0.112507
0.874841 0.394919 0.112507
0.874841 0.394919 0.112507
0.002614 0.265107 0.138010
0.002617 0.265686 0.136618
0.002623 0.266844 0.135548
0.002635 0.268977 0.134884
0.002652 0.271738 0.134555
0.002675 0.275361 0.134586
0.002709 0.280815 0.135793
0.002758 0.288602 0.137890
0.002830 0.300105 0.141786
0.002939 0.318083 0.148352
0.003088 0.343711 0.156999
0.003284 0.378523 0.167684
0.044654 0.416084 0.180460
0.165174 0.445195 0.176344
0.308250 0.462869 0.164675
0.460091 0.468560 0.148917
0.577255 0.470773 0.140349
0.670223 0.469091 0.133105
0.726458 0.464086 0.128214
0.770270 0.460711 0.125170
0.800732 0.459336 0.122889
0.822584 0.458082 0.123545
0.837783 0.458063 0.124914
0.849907 0.459435 0.126301
0.859319 0.462270 0.127785
0.865819 0.465759 0.129164
0.871153 0.470119 0.130530
0.875442 0.474970 0.131889
0.878566 0.479216 0.133220
0.880839 0.483002 0.134407
0.881460 0.484149 0.134761
0.881460 0.484149 0.134761
0.881460 0.484149 0.134761
0.002895 0.307576 0.167123
0.002907 0.309765 0.166643
0.002923 0.312521 0.166481
0.002943 0.315986 0.166721
0.002964 0.319736 0.166833
0.002993 0.324884 0.167701
0.003031 0.331429 0.169578
0.003082 0.340261 0.172593
0.003146 0.351496 0.176402
0.003239 0.367879 0.181921
0.003376 0.392121 0.190892
0.003436 0.425284 0.203010
0.013165 0.462308 0.218481
0.103910 0.495271 0.228732
0.246447 0.522920 0.220803
0.391970 0.536762 0.207423
0.533349 0.540594 0.190149
0.646167 0.542745 0.178963
0.713288 0.540724 0.171705
0.761214 0.538333 0.167315
0.794674 0.536667 0.164541
0.820707 0.535990 0.162254
0.838222 0.536436 0.161944
0.851021 0.537542 0.162565
0.861132 0.539111 0.163551
0.868267 0.541619 0.165345
0.873156 0.544643 0.167456
0.876871 0.547898 0.169706
0.879697 0.551241 0.171976
0.881695 0.554313 0.174035
0.882225 0.555269 0.174665
0.882225 0.555269 0.174665
0.882225 0.555269 0.174665
0.003151 0.349525 0.195866
0.003176 0.354046 0.196675
0.003202 0.358723 0.197726
0.003227 0.363092 0.198896
0.003257 0.368497 0.200605
0.003293 0.374880 0.202879
0.003338 0.382729 0.205608
0.003391 0.392182 0.208941
0.003456 0.403990 0.213050
0.003455 0.419548 0.219293
0.003344 0.438044 0.227929
0.003191 0.464902 0.240592
0.003381 0.499115 0.255571
0.068476 0.531484 0.274104
0.190463 0.564140 0.273798
0.334504 0.589304 0.261231
0.482502 0.603413 0.243021
0.611561 0.606592 0.227622
0.692244 0.606206 0.218781
0.746871 0.604638 0.213394
0.785930 0.603022 0.210121
0.812361 0.601462 0.207357
0.831870 0.600950 0.206004
0.845760 0.601097 0.205453
0.856474 0.602368 0.205926
0.864104 0.604512 0.207572
0.869822 0.606973 0.209464
0.873605 0.609704 0.211635
0.876404 0.612525 0.213796
0.878345 0.615156 0.215778
0.878875 0.615968 0.216381
0.878875 0.615968 0.216381
0.878875 0.615968 0.216381
0.003375 0.386686 0.227270
0.003408 0.392590 0.229156
0.003441 0.398544 0.230888
0.003475 0.404596 0.232820
0.003491 0.410905 0.235288
0.003453 0.417109 0.238279
0.003411 0.423982 0.241715
0.003361 0.432264 0.245839
0.003303 0.442246 0.250611
0.003229 0.455271 0.256870
0.003134 0.472505 0.265131
0.003009 0.496485 0.276502
0.002852 0.527452 0.291126
0.044603 0.558479 0.309727
0.146527 0.593362 0.321561
0.284759 0.623392 0.311211
0.434778 0.644362 0.295150
0.564158 0.653910 0.277094
0.667700 0.654190 0.260625
0.728591 0.653830 0.252984
0.772829 0.654190 0.249276
0.802938 0.653640 0.246224
0.824723 0.653299 0.244422
0.839608 0.653236 0.243796
0.850132 0.653752 0.244050
0.857968 0.654995 0.245062
0.863834 0.656675 0.246476
0.868224 0.658552 0.248083
0.871381 0.660440 0.249717
0.873298 0.662178 0.251259
0.873803 0.662706 0.251755
0.873803 0.662706 0.251755
0.873803 0.662706 0.251755
0.003431 0.418288 0.258100
0.003396 0.423984 0.260432
0.003362 0.429824 0.263129
0.003327 0.435688 0.266310
0.003291 0.441800 0.269548
0.003254 0.448372 0.273049
0.003213 0.455562 0.276669
0.003168 0.463695 0.280770
0.003115 0.473456 0.285745
0.003051 0.485783 0.291774
0.002968 0.501857 0.299592
0.002856 0.523988 0.310432
0.002714 0.552771 0.325110
0.036188 0.581672 0.343454
0.113590 0.614814 0.361294
0.244881 0.647827 0.353257
0.389466 0.673571 0.339767
0.518816 0.687610 0.325203
0.638546 0.695249 0.308153
0.708673 0.692581 0.293120
0.756719 0.691895 0.286066
0.790970 0.692227 0.282330
0.815055 0.691728 0.279001
0.831953 0.691599 0.277479
0.843735 0.692153 0.277415
0.851825 0.693028 0.278120
0.857802 0.694243 0.279275
0.862245 0.695718 0.280715
0.865555 0.697226 0.282166
0.867854 0.698662 0.283546
0.868484 0.699096 0.283981
0.868484 0.699096 0.283981
0.868484 0.699096 0.283981
0.003270 0.443606 0.285646
0.003236 0.449582 0.288425
0.003202 0.455642 0.291645
0.003169 0.461645 0.294933
0.003134 0.467987 0.298492
0.003098 0.474763 0.302241
0.003059 0.482151 0.306029
0.003017 0.490234 0.310211
0.002968 0.499748 0.315042
0.002907 0.511671 0.320903
0.002832 0.526796 0.328058
0.002732 0.547257 0.337580
0.002612 0.572271 0.350254
0.025579 0.598195 0.366372
0.099042 0.627486 0.384054
0.215308 0.663012 0.386099
0.349541 0.691253 0.376478
0.485005 0.711140 0.362556
0.603148 0.722841 0.348193
0.684821 0.726136 0.335553
0.739796 0.723735 0.323713
0.777742 0.722600 0.317256
0.803837 0.722635 0.313384
0.822853 0.722435 0.310710
0.835819 0.722439 0.309443
0.844809 0.722997 0.309515
0.851396 0.723821 0.310032
0.856013 0.724964 0.311238
0.859440 0.726202 0.312556
0.861831 0.727363 0.313798
0.862459 0.727722 0.314191
0.862459 0.727722 0.314191
0.862459 0.727722 0.314191
0.003151 0.463638 0.306781
0.003118 0.469640 0.310063
0.003087 0.475558 0.313360
0.003055 0.481647 0.316788
0.003022 0.487891 0.320367
0.002987 0.494679 0.324160
0.002949 0.502026 0.328301
0.002907 0.510145 0.332727
0.002859 0.519612 0.337734
0.002802 0.531152 0.343355
0.002733 0.545343 0.350105
0.002646 0.563447 0.358990
0.002538 0.586318 0.370832
0.024789 0.610844 0.386985
0.091351 0.638190 0.404558
0.192518 0.672490 0.410914
0.320894 0.702286 0.403440
0.456349 0.725538 0.393498
0.573123 0.739787 0.381038
0.662874 0.747017 0.367265
0.722285 0.748872 0.356435
0.764780 0.748427 0.348373
0.792830 0.748163 0.343773
0.813440 0.748233 0.340804
0.827863 0.748485 0.339136
0.837713 0.748851 0.338531
0.844682 0.749205 0.338368
0.849634 0.749772 0.338857
0.853308 0.750432 0.339536
0.855852 0.751215 0.340349
0.856511 0.751438 0.340617
0.856511 0.751438 0.340617
0.856511 0.751438 0.340617
0.003061 0.479255 0.325273
0.003030 0.485201 0.328609
0.002999 0.491168 0.332036
0.002967 0.497199 0.335523
0.002935 0.503448 0.339127
0.002901 0.510163 0.343006
0.002864 0.517375 0.347204
0.002823 0.525590 0.351946
0.002776 0.535132 0.357098
0.002720 0.546619 0.362801
0.002653 0.560510 0.369564
0.002571 0.577759 0.378468
0.002474 0.598583 0.389577
0.024522 0.620779 0.405307
0.085975 0.647107 0.422898
0.174265 0.678630 0.432317
0.300066 0.709726 0.425478
0.433083 0.734791 0.416562
0.549168 0.751146 0.406132
0.643464 0.760833 0.394085
0.706335 0.764410 0.383294
0.751872 0.765008 0.374127
0.783253 0.764173 0.367062
0.804695 0.764152 0.363358
0.820539 0.764227 0.361068
0.830991 0.764651 0.359882
0.838830 0.765150 0.359474
0.844107 0.765781 0.359710
0.847958 0.766392 0.360090
0.850623 0.766894 0.360460
0.851345 0.767035 0.360604
0.851345 0.767035 0.360604
0.851345 0.767035 0.360604
0.002991 0.491588 0.340658
0.002961 0.497425 0.344061
0.002930 0.503391 0.347655
0.002899 0.509464 0.351215
0.002867 0.515780 0.354936
0.002833 0.522500 0.358878
0.002797 0.529813 0.363188
0.002756 0.538098 0.368016
0.002708 0.547817 0.373462
0.002652 0.559317 0.379451
0.002589 0.572637 0.386255
0.002514 0.588705 0.395010
0.002424 0.608112 0.405743
0.022938 0.629172 0.421028
0.084687 0.653828 0.438800
0.162843 0.683633 0.450354
0.284206 0.714611 0.443661
0.414934 0.740837 0.435136
0.529169 0.758298 0.425157
0.629692 0.770437 0.414426
0.691912 0.775409 0.404174
0.739820 0.777481 0.395062
0.773607 0.777378 0.388048
0.797092 0.776269 0.381842
0.814049 0.776221 0.378693
0.825204 0.776092 0.376600
0.833234 0.776303 0.375583
0.839088 0.776675 0.375123
0.843179 0.777086 0.375007
0.846088 0.777505 0.375114
0.846839 0.777645 0.375203
0.846839 0.777645 0.375203
0.846839 0.777645 0.375203
0.002936 0.501461 0.353446
0.002906 0.507365 0.357075
0.002875 0.513357 0.360689
0.002844 0.519521 0.364423
0.002812 0.525932 0.368205
0.002779 0.532547 0.372209
0.002743 0.539782 0.376568
0.002703 0.547948 0.381473
0.002657 0.557372 0.387085
0.002602 0.568752 0.393295
0.002540 0.582057 0.400279
0.002467 0.597575 0.408891
0.002737 0.616082 0.419599
0.021706 0.636128 0.434289
0.084154 0.659647 0.451676
0.157674 0.688410 0.463548
0.272858 0.718720 0.458798
0.402704 0.745470 0.450416
0.513605 0.763237 0.440734
0.617315 0.776492 0.430423
0.680512 0.781912 0.420124
0.729160 0.784921 0.411614
0.765691 0.786238 0.404494
0.789780 0.785940 0.398473
0.807909 0.785357 0.393560
0.820520 0.785455 0.391245
0.828746 0.785345 0.389450
0.834803 0.785395 0.388569
0.838854 0.785635 0.388177
0.841820 0.785908 0.388050
0.842601 0.785991 0.388042
0.842601 0.785991 0.388042
0.842601 0.785991 0.388042
0.002892 0.509336 0.363863
0.002863 0.515139 0.367608
0.002833 0.521024 0.371299
0.002802 0.527106 0.375115
0.002771 0.533367 0.378975
0.002738 0.540059 0.383047
0.002702 0.547307 0.387458
0.002662 0.555563 0.392405
0.002617 0.564969 0.398047
0.002562 0.576415 0.404522
0.002501 0.589510 0.411635
0.002430 0.604701 0.420251
0.002474 0.622723 0.430759
0.021326 0.641632 0.444928
0.082291 0.664269 0.461665
0.155081 0.692435 0.473618
0.264392 0.721755 0.470782
0.391046 0.748407 0.462798
0.501561 0.766927 0.453210
0.608175 0.781236 0.443200
0.672090 0.787079 0.433021
0.720958 0.790569 0.424552
0.759247 0.792466 0.417272
0.784078 0.792810 0.411716
0.802158 0.792462 0.406764
0.816291 0.792108 0.402975
0.825016 0.792203 0.401141
0.831153 0.792194 0.399882
0.835632 0.792195 0.399080
0.838655 0.792325 0.398671
0.839405 0.792378 0.398603
0.839405 0.792378 0.398603
0.839405 0.792378 0.398603
0.002861 0.514954 0.371832
0.002832 0.520704 0.375623
0.002802 0.526626 0.379441
0.002772 0.532724 0.383283
0.002740 0.539024 0.387252
0.002707 0.545757 0.391376
0.002672 0.553049 0.395781
0.002632 0.561332 0.400750
0.002586 0.570748 0.406397
0.002532 0.582163 0.413053
0.002472 0.595093 0.420246
0.002403 0.610023 0.428874
0.002859 0.627562 0.439280
0.021697 0.645820 0.453107
0.081248 0.667853 0.469026
0.153844 0.694737 0.479907
0.258190 0.723714 0.479718
0.382868 0.750553 0.472316
0.492666 0.769563 0.462792
0.599031 0.784480 0.453028
0.665766 0.791077 0.443098
0.714423 0.794753 0.434722
0.753152 0.796862 0.427373
0.779536 0.797727 0.421837
0.797672 0.797643 0.416912
