film-luts/Generated/SUPRA.cube
TITLE "Frontier SUPRA - Daylight Film Emulation"
LUT_3D_SIZE 5
DOMAIN_MIN 0.0 0.0 0.0
DOMAIN_MAX 1.0 1.0 1.0
0.097461 0.096837 0.096216
0.167624 0.097148 0.096216
0.276131 0.097504 0.096216
0.563152 0.098162 0.096216
0.922470 0.098749 0.096216
0.098520 0.129533 0.096216
0.127905 0.126448 0.096216
0.241378 0.122411 0.096216
0.538753 0.120547 0.096216
0.925205 0.121210 0.096216
0.100859 0.221066 0.096216
0.123415 0.221242 0.096216
0.226436 0.221873 0.096216
0.537416 0.221007 0.096216
0.915814 0.219982 0.096216
0.098106 0.527736 0.096216
0.119822 0.527443 0.096216
0.218794 0.526397 0.096216
0.525203 0.525203 0.096646
0.903784 0.525203 0.097492
0.096216 0.903784 0.097804
0.117941 0.903784 0.097950
0.217354 0.903761 0.098473
0.523558 0.902681 0.099499
0.898342 0.898342 0.100325
0.097989 0.097100 0.309712
0.153368 0.097178 0.150862
0.269996 0.097534 0.124578
0.559956 0.098195 0.118915
0.922745 0.098786 0.117941
0.098584 0.128284 0.126898
0.127208 0.125720 0.124241
0.239652 0.122191 0.120343
0.537585 0.120530 0.117941
0.925275 0.121221 0.117941
0.100935 0.221126 0.117941
0.123501 0.221302 0.117941
0.226557 0.221933 0.117941
0.537215 0.220947 0.117941
0.915539 0.219922 0.117941
0.098031 0.527636 0.117941
0.119738 0.527343 0.117941
0.218675 0.526298 0.117941
0.525203 0.525203 0.118481
0.903784 0.525203 0.119434
0.096216 0.903784 0.119784
0.117941 0.903784 0.119949
0.217346 0.903742 0.120535
0.523404 0.902577 0.121616
0.898132 0.898132 0.122276
0.098232 0.097221 0.458110
0.136311 0.097305 0.336504
0.255821 0.097649 0.250801
0.551070 0.098312 0.221423
0.923730 0.098920 0.217364
0.098830 0.125570 0.261342
0.125641 0.124024 0.249203
0.235144 0.121636 0.229358
0.538304 0.120680 0.217364
0.924290 0.121070 0.217364
0.101206 0.221340 0.217364
0.123805 0.221516 0.217364
0.226649 0.221978 0.217364
0.536497 0.220733 0.217364
0.914560 0.219709 0.217364
0.097765 0.527281 0.217364
0.119439 0.526988 0.217364
0.218250 0.525943 0.217364
0.525203 0.525203 0.218418
0.903784 0.525203 0.219779
0.096216 0.903784 0.220279
0.117941 0.903784 0.220514
0.217306 0.903647 0.221293
0.522868 0.902215 0.222327
0.897435 0.897435 0.221681
0.098587 0.097397 0.736872
0.127722 0.097506 0.679887
0.240892 0.097867 0.586928
0.538366 0.098544 0.525823
0.925080 0.099103 0.525203
0.099277 0.122959 0.603601
0.124091 0.122230 0.584200
0.229375 0.120969 0.544922
0.539725 0.120977 0.525203
0.922345 0.120773 0.525203
0.101742 0.221763 0.525203
0.124409 0.221939 0.525203
0.225793 0.221555 0.525203
0.535081 0.220312 0.525203
0.912627 0.219289 0.525203
0.097241 0.526580 0.525203
0.118850 0.526287 0.525203
0.217412 0.525243 0.525203
0.525203 0.525203 0.527900
0.903784 0.525203 0.530177
0.096216 0.903783 0.531010
0.117939 0.903746 0.531346
0.217172 0.903326 0.532103
0.521689 0.901414 0.531952
0.896022 0.896022 0.526272
0.098804 0.097505 0.947033
0.123736 0.097622 0.938311
0.229274 0.098011 0.917124
0.538899 0.098760 0.903784
0.923474 0.098885 0.903784
0.099563 0.121038 0.921854
0.122773 0.120754 0.916297
0.224265 0.120348 0.903784
0.540899 0.121223 0.903784
0.920742 0.120528 0.903784
0.102061 0.222014 0.903784
0.124262 0.221837 0.903784
0.225088 0.221206 0.903784
0.533914 0.219964 0.903784
0.911033 0.218942 0.903784
0.096810 0.526002 0.903784
0.118365 0.525709 0.903784
0.217364 0.525203 0.904767
0.525203 0.525203 0.908545
0.903784 0.525203 0.911670
0.096216 0.903507 0.912530
0.117913 0.903330 0.912884
0.216826 0.902491 0.913930
0.519470 0.899892 0.914990
0.893595 0.893595 0.911572
