film-luts/Generated/SUPRA_v3.cube
TITLE "Frontier SUPRA v3 - 800T + Daylight Scan Characteristics"
LUT_3D_SIZE 9
DOMAIN_MIN 0.0 0.0 0.0
DOMAIN_MAX 1.0 1.0 1.0
0.001886 0.003049 0.007253
0.005993 0.003373 0.007266
0.099383 0.002642 0.006060
0.257915 0.002445 0.005637
0.330865 0.002445 0.005560
0.374655 0.002445 0.005518
0.411901 0.003101 0.005507
0.431598 0.004562 0.005870
0.435029 0.004853 0.005982
0.001609 0.006100 0.007480
0.004367 0.006297 0.007386
0.047930 0.006348 0.006646
0.251832 0.002959 0.005617
0.372544 0.002597 0.005512
0.426576 0.005410 0.005344
0.468207 0.009770 0.005183
0.490539 0.013291 0.005088
0.494398 0.014011 0.005070
0.001398 0.036546 0.006433
0.001404 0.037628 0.006242
0.031451 0.036481 0.005521
0.265843 0.019497 0.005171
0.424888 0.012319 0.005159
0.485673 0.015384 0.005050
0.531043 0.024579 0.004871
0.557876 0.031892 0.004803
0.562792 0.033388 0.004803
0.001398 0.137513 0.004809
0.001446 0.154732 0.004803
0.003293 0.182437 0.004803
0.290361 0.222538 0.004803
0.589290 0.143999 0.004803
0.656513 0.108625 0.004803
0.678522 0.106910 0.004803
0.691336 0.113265 0.004803
0.694100 0.115296 0.004803
0.001627 0.226264 0.004803
0.001705 0.261626 0.004803
0.002932 0.300000 0.004803
0.152199 0.390792 0.004803
0.638988 0.457237 0.004803
0.808662 0.426922 0.004803
0.838380 0.405481 0.004803
0.845463 0.396029 0.004803
0.846336 0.394673 0.004803
0.001754 0.283326 0.007493
0.001879 0.327313 0.007197
0.005246 0.364428 0.008174
0.097738 0.427092 0.007257
0.515386 0.534866 0.004816
0.822075 0.568575 0.004957
0.880871 0.562625 0.004966
0.894279 0.559181 0.004966
0.895910 0.558439 0.004965
0.001850 0.326789 0.017399
0.002766 0.374413 0.019012
0.010143 0.408937 0.021322
0.103529 0.457782 0.023823
0.425609 0.550760 0.020979
0.781433 0.609039 0.020663
0.873736 0.615532 0.021080
0.894768 0.614016 0.021288
0.897498 0.613754 0.021355
0.001903 0.352149 0.024916
0.004027 0.399507 0.028015
0.022564 0.431961 0.031673
0.120266 0.478002 0.035715
0.398184 0.560592 0.036664
0.751656 0.620513 0.030525
0.863329 0.631553 0.031658
0.888715 0.632457 0.031654
0.892340 0.632563 0.031703
0.001912 0.356715 0.026416
0.004375 0.403821 0.029798
0.026017 0.435905 0.033683
0.123828 0.481542 0.037972
0.395841 0.562475 0.039457
0.746250 0.622328 0.032329
0.861170 0.633973 0.033303
0.887295 0.635011 0.033286
0.890948 0.635117 0.033332
0.001651 0.003168 0.011569
0.004412 0.003392 0.010832
0.105820 0.002683 0.008488
0.276002 0.002445 0.006641
0.340375 0.002445 0.006409
0.384300 0.002445 0.007517
0.421651 0.003150 0.009373
0.441228 0.004635 0.010719
0.444617 0.004921 0.010975
0.001495 0.005619 0.010327
0.003699 0.005641 0.009959
0.046613 0.005980 0.008684
0.256705 0.002799 0.006639
0.375419 0.002538 0.006188
0.435050 0.005369 0.007257
0.477558 0.009864 0.009105
0.499824 0.013507 0.010554
0.503585 0.014237 0.010819
0.001398 0.035137 0.010064
0.001398 0.029127 0.009499
0.030369 0.031757 0.008345
0.254074 0.018697 0.006152
0.423793 0.011768 0.005309
0.491594 0.014849 0.006609
0.539212 0.024747 0.008623
0.566805 0.032530 0.010402
0.571816 0.034143 0.010769
0.001423 0.146116 0.006093
0.001449 0.155569 0.005370
0.002249 0.175665 0.004803
0.270377 0.212333 0.004803
0.580466 0.142939 0.004803
0.653274 0.106092 0.004803
0.680811 0.106138 0.006745
0.696361 0.113988 0.009226
0.699468 0.116450 0.009580
0.001685 0.247282 0.011597
0.001754 0.281170 0.010412
0.001948 0.317860 0.007507
0.136736 0.404415 0.004803
0.628961 0.467152 0.004803
0.806408 0.432866 0.004803
0.837857 0.411693 0.004803
0.846748 0.404174 0.006610
0.847959 0.403177 0.007003
0.001825 0.309833 0.024771
0.001904 0.352633 0.025660
0.003597 0.389291 0.027954
0.086759 0.451168 0.028196
0.505494 0.558020 0.018035
0.816035 0.587432 0.016287
0.877306 0.580735 0.017605
0.891424 0.576044 0.019827
0.893148 0.575214 0.020071
0.001921 0.355604 0.041169
0.002332 0.403068 0.045535
0.007026 0.435316 0.050585
0.094604 0.484238 0.056940
0.421676 0.576724 0.054296
0.775489 0.629591 0.039115
0.868594 0.634398 0.037592
0.890106 0.632802 0.037652
0.892828 0.632615 0.037787
0.001974 0.381674 0.055503
0.003039 0.427824 0.062658
0.016829 0.458630 0.069214
0.112259 0.504686 0.077811
0.395213 0.586135 0.079478
0.745302 0.643191 0.063410
0.857708 0.651027 0.053723
0.883427 0.651757 0.051761
0.887073 0.651785 0.051432
0.001983 0.386442 0.058611
0.003197 0.432042 0.066226
0.020073 0.462614 0.073009
0.116015 0.508221 0.081549
0.392943 0.587814 0.083633
0.739767 0.645393 0.068337
0.855458 0.653598 0.057424
0.881910 0.654437 0.055185
0.885552 0.654464 0.054901
0.001398 0.002517 0.065108
0.002178 0.002520 0.064665
0.052624 0.002902 0.042819
0.278631 0.002445 0.020741
0.356249 0.002445 0.013049
0.394653 0.002445 0.012724
0.430153 0.003125 0.015270
0.449370 0.004628 0.017125
0.452708 0.004916 0.017481
0.001398 0.004882 0.063418
0.001877 0.005046 0.047399
0.043255 0.005959 0.033916
0.269770 0.002878 0.018747
0.387746 0.002657 0.013509
0.443817 0.005320 0.013305
0.484717 0.009838 0.015899
0.506520 0.013515 0.017923
0.510193 0.014260 0.018290
0.001398 0.031757 0.048545
0.001398 0.030062 0.039457
0.022268 0.029348 0.033975
0.241160 0.017570 0.019239
0.427062 0.011090 0.014087
0.497533 0.014473 0.013700
0.544872 0.024711 0.016412
0.572588 0.032760 0.018680
0.577614 0.034462 0.019133
0.001492 0.161698 0.026679
0.001509 0.168982 0.023909
0.001534 0.178680 0.022582
0.253804 0.209380 0.017126
0.570051 0.140246 0.013093
0.654515 0.107211 0.014277
0.681989 0.104566 0.017445
0.698000 0.113428 0.019774
0.701148 0.116053 0.020217
0.001733 0.262322 0.026953
0.001797 0.294397 0.026504
0.001859 0.327395 0.025179
0.102131 0.410051 0.017354
0.607851 0.481236 0.010602
0.801217 0.445851 0.013140
0.834932 0.423271 0.020149
0.844062 0.414696 0.022915
0.845255 0.413482 0.023463
0.001878 0.330178 0.046653
0.001956 0.373346 0.049124
0.002743 0.407867 0.052543
0.069409 0.468784 0.056077
0.491126 0.577984 0.042758
0.808732 0.605354 0.032812
0.872350 0.597690 0.034149
0.886486 0.592714 0.037299
0.888301 0.591947 0.037898
0.001978 0.378889 0.075384
0.001997 0.425347 0.082323
0.005149 0.455720 0.088453
0.085189 0.503303 0.097141
0.416747 0.596149 0.095005
0.768115 0.650028 0.075808
0.862340 0.650919 0.062863
0.883955 0.649568 0.062386
0.886697 0.649434 0.062816
0.002003 0.405397 0.097284
0.002235 0.449507 0.106477
0.009694 0.478715 0.113604
0.105523 0.523613 0.123866
0.393020 0.604914 0.127438
0.739897 0.663473 0.111886
0.850380 0.670186 0.094068
0.876601 0.669664 0.088300
0.880201 0.669444 0.087571
0.001994 0.409984 0.101500
0.002337 0.453527 0.111111
0.010796 0.482537 0.118465
0.109791 0.527168 0.128862
0.391136 0.606728 0.133189
0.734501 0.665662 0.119198
0.847819 0.673132 0.101006
0.874921 0.672828 0.094447
0.878552 0.672608 0.093593
0.001398 0.002486 0.134005
0.001734 0.002471 0.137952
0.008828 0.002447 0.156799
0.212920 0.002445 0.140060
0.379075 0.002445 0.071963
0.420268 0.002445 0.047984
0.446588 0.002740 0.042886
0.461855 0.004184 0.042813
0.464737 0.004469 0.043186
0.001398 0.004007 0.152984
0.001398 0.003958 0.149802
0.008832 0.004151 0.148916
0.198367 0.002839 0.123040
0.402589 0.002506 0.072918
0.470261 0.005961 0.052449
0.500773 0.010573 0.047292
0.517963 0.013951 0.047091
0.521281 0.014712 0.047512
0.001398 0.014312 0.177402
0.001398 0.014757 0.174497
0.007817 0.015773 0.165521
0.227287 0.014567 0.133077
0.442780 0.011063 0.081333
0.518200 0.016575 0.057169
0.555919 0.025762 0.051141
0.579427 0.033293 0.051116
0.583778 0.034911 0.051583
0.001604 0.178105 0.202909
0.001601 0.178025 0.191585
0.001602 0.179418 0.182436
0.209147 0.212524 0.180550
0.547890 0.132808 0.108177
0.644738 0.098773 0.070345
0.672878 0.095492 0.057615
0.689646 0.106525 0.056284
0.693244 0.109675 0.056608
0.001852 0.296208 0.140721
0.001911 0.327890 0.138465
0.001960 0.356569 0.130221
0.034797 0.434643 0.134985
0.572155 0.507899 0.116047
0.783496 0.463029 0.082294
0.825126 0.439593 0.070580
0.836769 0.430047 0.067838
0.838131 0.428267 0.067705
0.001953 0.355678 0.114200
0.002007 0.398693 0.118906
0.001951 0.431614 0.124824
0.019397 0.486829 0.132633
0.437038 0.603129 0.127624
0.785557 0.638024 0.108331
0.856853 0.626838 0.100786
0.872374 0.619540 0.103511
0.874430 0.618491 0.104585
0.002003 0.398027 0.135266
0.001923 0.444450 0.145602
0.002591 0.473690 0.155798
0.049890 0.518323 0.167717
0.377388 0.613780 0.173983
0.747147 0.677825 0.164051
0.846514 0.678435 0.145803
0.869299 0.677024 0.146154
0.872079 0.676885 0.147180
0.001951 0.424174 0.160903
0.001915 0.468777 0.174159
0.004907 0.497001 0.185124
0.078025 0.539459 0.198164
0.364856 0.621933 0.207124
0.721154 0.687578 0.203613
0.836152 0.696090 0.185100
0.862783 0.695219 0.178070
0.866351 0.694910 0.177060
0.001942 0.428907 0.166349
0.001966 0.472902 0.179962
0.005320 0.500906 0.191056
0.083099 0.543419 0.204254
0.364551 0.623907 0.213615
0.716728 0.689336 0.211483
0.833934 0.698761 0.193055
0.861345 0.698311 0.185660
0.864975 0.697973 0.184508
0.001398 0.003172 0.185441
0.001398 0.003183 0.198267
0.003155 0.003156 0.218173
0.065842 0.002609 0.268777
0.361652 0.002445 0.254968
0.448848 0.002445 0.224462
0.476725 0.002445 0.211123
0.490287 0.002631 0.203812
0.492581 0.002745 0.202496
0.001398 0.008260 0.217246
0.001398 0.008491 0.231302
0.001906 0.008557 0.251452
0.074137 0.007539 0.282141
0.383624 0.002721 0.267512
0.496887 0.004652 0.247973
0.528884 0.010960 0.233446
0.544750 0.015647 0.225786
0.547433 0.016575 0.224454
0.001398 0.016606 0.244278
0.001398 0.017383 0.259618
0.001398 0.018127 0.275826
0.088918 0.019613 0.304753
0.417801 0.013628 0.289205
0.538287 0.018503 0.267303
0.583769 0.031306 0.255857
0.604777 0.040812 0.248830
0.608506 0.042725 0.247721
0.001398 0.089460 0.300064
0.001398 0.095916 0.311925
0.001404 0.103944 0.325284
0.108965 0.121904 0.369429
0.513247 0.098438 0.352817
0.631046 0.085071 0.308681
0.677718 0.105517 0.289307
0.698481 0.125025 0.279108
0.701761 0.128628 0.277315
0.001910 0.303090 0.333255
0.001972 0.334848 0.350025
0.002004 0.366701 0.364227
0.002416 0.440760 0.395865
0.516966 0.513788 0.415151
0.746932 0.465291 0.368035
0.793910 0.431959 0.332985
0.807207 0.421902 0.315878
0.808631 0.420582 0.312992
0.001975 0.386790 0.329592
0.001899 0.430578 0.345264
0.001839 0.467592 0.357256
0.001970 0.525933 0.375320
0.364891 0.644453 0.398517
0.746731 0.682622 0.384912
0.824993 0.668676 0.363337
0.843608 0.658048 0.349523
0.846419 0.656445 0.346937
0.001909 0.427592 0.319384
0.001833 0.473779 0.335711
0.001783 0.505998 0.348109
0.003355 0.548593 0.365267
0.296521 0.646119 0.385424
0.699094 0.717808 0.387856
0.815776 0.720701 0.373901
0.842009 0.717981 0.366885
0.845342 0.717295 0.365630
0.001877 0.447799 0.315386
0.001804 0.493836 0.331448
0.001764 0.522859 0.344891
0.018524 0.561558 0.361116
0.290481 0.645312 0.378943
0.672552 0.721332 0.387634
0.808013 0.732659 0.378315
0.837893 0.731444 0.372396
0.841651 0.731068 0.371449
0.001871 0.451535 0.315138
0.001799 0.496993 0.331120
0.001776 0.525746 0.344706
0.023622 0.564223 0.360675
0.292689 0.646093 0.378414
0.668847 0.721475 0.387781
0.806379 0.734281 0.379533
0.837158 0.733382 0.373809
0.840914 0.733007 0.372917
0.001398 0.006501 0.229317
0.001398 0.006990 0.246690
0.002927 0.007541 0.265467
0.024348 0.007557 0.306265
0.315403 0.002768 0.352847
0.465603 0.002445 0.344774
0.494443 0.002445 0.338919
0.508437 0.002468 0.339690
0.510826 0.002473 0.339962
0.001398 0.017354 0.264868
0.001398 0.018507 0.281901
0.001398 0.020500 0.302027
0.026308 0.022743 0.342977
0.345415 0.015031 0.384260
0.508273 0.007996 0.372802
0.543994 0.010913 0.366167
0.560164 0.016147 0.366233
0.563146 0.017202 0.366639
0.001398 0.035730 0.295142
0.001398 0.038562 0.313561
0.001398 0.042630 0.333465
0.026965 0.049370 0.375786
0.376359 0.039372 0.410620
0.547599 0.027045 0.396047
0.596057 0.034144 0.393725
0.617204 0.044728 0.396370
0.621135 0.047078 0.397079
0.001398 0.087637 0.331601
0.001398 0.095307 0.354425
0.001422 0.106137 0.376733
0.027360 0.127419 0.421692
0.428263 0.114454 0.451418
0.615953 0.088821 0.435265
0.672484 0.105052 0.433428
0.697767 0.129697 0.435905
0.700999 0.134895 0.436376
0.001864 0.274483 0.394694
0.001923 0.302377 0.420352
0.001981 0.331280 0.443190
0.002005 0.390823 0.486449
0.451575 0.441443 0.531455
0.717315 0.407426 0.516949
0.769092 0.387287 0.499307
0.784036 0.385175 0.491017
0.785714 0.385911 0.489755
0.001973 0.378884 0.416675
0.001897 0.421363 0.442349
0.001828 0.462587 0.464248
0.001745 0.515734 0.490356
0.307664 0.640056 0.536580
0.717880 0.689001 0.549358
0.804624 0.676222 0.536231
0.825051 0.667304 0.527365
0.828134 0.665798 0.525584
0.001884 0.430353 0.437618
0.001810 0.474907 0.461370
0.001750 0.512918 0.478868
0.001735 0.557909 0.498204
0.239290 0.657096 0.533301
0.664050 0.734513 0.548957
0.795456 0.740822 0.541777
0.824081 0.738900 0.535692
0.827524 0.738259 0.534442
0.001844 0.454473 0.445547
0.001771 0.500392 0.468341
0.001722 0.532575 0.482763
0.002692 0.573402 0.499917
0.232066 0.659490 0.530339
0.630607 0.740529 0.546359
0.786747 0.754032 0.542725
0.820599 0.753473 0.537552
0.824220 0.753089 0.536328
0.001838 0.458455 0.446610
0.001765 0.504169 0.469100
0.001716 0.536136 0.483354
0.002927 0.576178 0.500217
0.232774 0.660035 0.529851
0.625139 0.741112 0.545999
0.784627 0.755888 0.542941
0.819875 0.755621 0.537994
0.823615 0.755267 0.536891
0.001398 0.011731 0.263165
0.001398 0.013041 0.283124
0.003886 0.014060 0.299702
0.024245 0.015549 0.332666
0.251428 0.011386 0.376406
0.474790 0.003149 0.385716
0.510545 0.002505 0.382371
0.516286 0.002520 0.380516
0.517538 0.002540 0.380296
0.001398 0.030645 0.302621
0.001398 0.033851 0.322402
0.001441 0.037158 0.340205
0.024075 0.042636 0.373164
0.284907 0.038074 0.414346
0.521281 0.022898 0.418637
0.561074 0.018104 0.412584
0.568200 0.018175 0.409216
0.570072 0.018694 0.409258
0.001398 0.068733 0.336870
0.001398 0.075684 0.357841
0.001398 0.082396 0.375240
0.021195 0.095014 0.409958
0.316611 0.089295 0.451965
0.570265 0.060070 0.453495
0.611557 0.048094 0.443514
0.621834 0.047821 0.440152
0.625148 0.049656 0.440883
0.001531 0.139850 0.372310
0.001574 0.153092 0.396067
0.001615 0.166602 0.416947
0.018720 0.189841 0.453211
0.352771 0.188873 0.493891
0.623305 0.141524 0.490700
0.674708 0.121454 0.480700
0.693369 0.129683 0.480633
0.697181 0.133660 0.481425
0.001862 0.271785 0.418637
0.001926 0.301236 0.447977
0.001978 0.327133 0.471312
0.005080 0.370749 0.509163
0.380877 0.396242 0.550270
0.685314 0.357521 0.547213
0.743598 0.330967 0.535275
0.762835 0.335821 0.532963
0.766402 0.339461 0.533059
0.001965 0.381026 0.444617
0.001890 0.422582 0.473577
0.001827 0.459991 0.496932
0.001745 0.515193 0.526924
0.264478 0.622749 0.575164
0.698469 0.673077 0.597476
0.792871 0.661780 0.590633
0.816403 0.653841 0.585169
0.819712 0.652515 0.584119
0.001898 0.419439 0.460750
0.001827 0.461334 0.486129
0.001763 0.501363 0.507758
0.001697 0.546949 0.530178
0.185833 0.644264 0.569879
0.642977 0.731791 0.597532
0.784541 0.740908 0.596327
0.815537 0.739919 0.592556
0.819206 0.739510 0.591720
0.001859 0.442155 0.472768
0.001785 0.487671 0.498619
0.001729 0.523871 0.517018
0.001790 0.565815 0.536481
0.181413 0.651757 0.570264
0.606032 0.739569 0.596019
0.775317 0.756359 0.597649
0.811666 0.756506 0.594303
0.815506 0.756299 0.593547
0.001852 0.446501 0.474992
0.001777 0.492431 0.500820
0.001723 0.527867 0.518626
0.001825 0.568956 0.537568
0.182948 0.652975 0.570478
0.600019 0.740297 0.595559
0.773243 0.758367 0.597723
0.810484 0.758661 0.594538
0.814905 0.758543 0.593839
0.001398 0.015549 0.281569
0.001502 0.017399 0.302569
0.005138 0.018776 0.318180
0.028531 0.020887 0.348342
0.235341 0.018251 0.388025
0.478077 0.007585 0.399019
0.520356 0.003389 0.395247
0.526900 0.002921 0.394282
0.527497 0.002902 0.394106
0.001398 0.042405 0.323572
0.001398 0.047406 0.344429
0.001507 0.051756 0.361212
0.027860 0.058904 0.391063
0.269350 0.056625 0.430939
0.530562 0.036549 0.437317
0.575265 0.027234 0.430535
0.584102 0.025347 0.428436
0.584742 0.025203 0.428120
0.001398 0.094026 0.358998
0.001416 0.104342 0.381405
0.001448 0.112679 0.398579
0.023694 0.129278 0.431959
0.301050 0.130535 0.471894
0.580014 0.089721 0.473912
0.628709 0.068768 0.465403
0.638888 0.063636 0.461834
0.639992 0.063144 0.461347
0.001651 0.181214 0.397120
0.001702 0.199711 0.421839
0.001740 0.214339 0.441336
0.019819 0.240152 0.474766
0.328819 0.246135 0.513340
0.627401 0.195603 0.515035
0.684010 0.157173 0.503980
0.697560 0.147296 0.499244
0.699857 0.147202 0.498921
0.001907 0.292638 0.434623
0.001970 0.323266 0.462919
0.002017 0.348349 0.485014
0.010751 0.386457 0.518744
0.349594 0.414763 0.557649
0.673635 0.379611 0.562501
0.740264 0.347508 0.552209
0.758041 0.336814 0.547945
0.760784 0.335865 0.547383
0.001948 0.389443 0.457818
0.001873 0.431896 0.488434
0.001813 0.468017 0.511718
0.001928 0.522317 0.541831
0.285040 0.616264 0.586064
0.686859 0.657777 0.607568
0.786429 0.646901 0.603850
0.810400 0.639254 0.600048
0.813755 0.637891 0.599317
0.001888 0.424056 0.471290
0.001816 0.467026 0.498019
0.001760 0.502699 0.518105
0.001690 0.549126 0.541443
0.167704 0.638798 0.579850
0.631165 0.728613 0.611101
0.779494 0.739598 0.612485
0.811602 0.738580 0.610145
0.815261 0.737939 0.609552
0.001866 0.437192 0.477694
0.001794 0.481098 0.503467
0.001737 0.517385 0.522800
0.001705 0.560525 0.543557
0.151970 0.643727 0.578005
0.593217 0.736429 0.608363
0.770751 0.755238 0.612552
0.807645 0.755799 0.610678
0.811964 0.755652 0.610175
0.001861 0.440447 0.479411
0.001788 0.485011 0.505285
0.001732 0.520744 0.524157
0.001727 0.563455 0.544506
0.153446 0.645312 0.578177
0.586492 0.737271 0.607948
0.768598 0.757214 0.612521
0.806406 0.758071 0.610764
0.811366 0.758013 0.610317
0.001398 0.016309 0.284754
0.001588 0.018267 0.305884
0.005422 0.019729 0.321404
0.029664 0.021952 0.351151
0.233643 0.019501 0.390061
0.477921 0.008603 0.401079
0.522064 0.004092 0.397390
0.528765 0.003338 0.396006
0.529388 0.003322 0.395909
0.001398 0.044816 0.327265
0.001398 0.050196 0.348290
0.001468 0.054735 0.364971
0.028907 0.062142 0.394315
0.267869 0.060305 0.433812
0.531469 0.039509 0.440582
0.578000 0.029303 0.433492
0.586937 0.026874 0.431045
0.587660 0.026746 0.430833
0.001398 0.098960 0.362797
0.001437 0.109990 0.385732
0.001469 0.118624 0.402794
0.024706 0.135713 0.435734
0.299228 0.138428 0.475329
0.581115 0.096151 0.477492
0.631831 0.073365 0.468720
0.641820 0.066994 0.465003
0.643096 0.066538 0.464648
0.001670 0.188317 0.401265
0.001721 0.207507 0.426048
0.001759 0.222416 0.445397
0.020727 0.248668 0.478304
0.325434 0.256369 0.516569
0.627214 0.205680 0.518649
0.686313 0.166170 0.508344
0.699397 0.153452 0.502957
0.701428 0.152430 0.502352
0.001916 0.297166 0.437662
0.001979 0.327990 0.465692
0.002008 0.353137 0.487749
0.012693 0.390590 0.520758
0.346480 0.419253 0.558909
0.671606 0.385234 0.565103
0.740122 0.352383 0.555061
0.758012 0.340413 0.550614
0.760763 0.339258 0.550050
0.001944 0.391614 0.460485
0.001869 0.433907 0.490975
0.001810 0.469817 0.514235
0.002070 0.524012 0.544336
0.292444 0.615584 0.587951
0.685213 0.654546 0.608933
0.785190 0.643567 0.605391
0.809199 0.635889 0.601970
0.812521 0.634637 0.601317
0.001886 0.425133 0.472948
0.001814 0.468494 0.500172
0.001758 0.503567 0.520023
0.001688 0.550137 0.543484
0.169505 0.639092 0.581751
0.629184 0.728006 0.612908
0.778657 0.739278 0.614489
0.811020 0.738200 0.612719
0.814648 0.737532 0.612203
0.001865 0.437591 0.479050
0.001793 0.481788 0.505167
0.001736 0.518058 0.524515
0.001684 0.561086 0.545309
0.148862 0.642869 0.579291
0.591051 0.735847 0.609955
0.770009 0.754974 0.614662
0.806971 0.755652 0.613206
0.811442 0.755563 0.612729
0.001861 0.440107 0.480315
0.001789 0.484472 0.506287
0.001733 0.520111 0.525205
0.001700 0.562941 0.545773
0.148097 0.643916 0.579248
0.584365 0.736719 0.609566
0.767795 0.757009 0.614711
0.805733 0.757924 0.613266
0.810812 0.757893 0.612844
