film-luts/Generated/SUPRA_v3.cube
TITLE "Frontier SUPRA v3 - 800T + Daylight Scan Characteristics"
LUT_3D_SIZE 33
DOMAIN_MIN 0.0 0.0 0.0
DOMAIN_MAX 1.0 1.0 1.0
0.001886 0.003049 0.007253
0.002094 0.003071 0.007244
0.002422 0.003114 0.007267
0.003308 0.003197 0.007276
0.005993 0.003373 0.007266
0.012617 0.003565 0.007139
0.027735 0.003528 0.006876
0.057542 0.003173 0.006491
0.099383 0.002642 0.006060
0.145117 0.002445 0.005795
0.191864 0.002445 0.005719
0.229414 0.002445 0.005670
0.257915 0.002445 0.005637
0.283631 0.002445 0.005608
0.304501 0.002445 0.005586
0.319741 0.002445 0.005571
0.330865 0.002445 0.005560
0.341414 0.002445 0.005549
0.352212 0.002445 0.005539
0.363553 0.002445 0.005528
0.374655 0.002445 0.005518
0.385255 0.002445 0.005509
0.395360 0.002445 0.005500
0.404267 0.002722 0.005478
0.411901 0.003101 0.005507
0.418303 0.003538 0.005507
0.423709 0.003934 0.005615
0.428120 0.004280 0.005756
0.431598 0.004562 0.005870
0.434324 0.004791 0.005960
0.435029 0.004853 0.005982
0.435029 0.004853 0.005982
0.435029 0.004853 0.005982
0.001901 0.003288 0.007311
0.002102 0.003291 0.007296
0.002472 0.003342 0.007310
0.003446 0.003449 0.007309
0.005819 0.003616 0.007301
0.011604 0.003882 0.007186
0.023709 0.003942 0.006966
0.047003 0.003678 0.006638
0.085174 0.003214 0.006205
0.127208 0.002697 0.005859
0.177685 0.002445 0.005739
0.223272 0.002445 0.005678
0.257584 0.002445 0.005637
0.286988 0.002445 0.005604
0.312419 0.002445 0.005578
0.331776 0.002445 0.005559
0.345022 0.002445 0.005546
0.356648 0.002445 0.005535
0.368013 0.002445 0.005524
0.379825 0.002445 0.005514
0.391713 0.002500 0.005500
0.402876 0.002840 0.005473
0.413123 0.003529 0.005431
0.422406 0.004239 0.005392
0.430556 0.004915 0.005359
0.437426 0.005520 0.005331
0.443083 0.006040 0.005419
0.447564 0.006492 0.005511
0.451048 0.006858 0.005583
0.453823 0.007156 0.005639
0.454546 0.007234 0.005655
0.454546 0.007234 0.005655
0.454546 0.007234 0.005655
0.001892 0.003690 0.007372
0.002120 0.003692 0.007354
0.002421 0.003704 0.007354
0.003165 0.003804 0.007345
0.004775 0.003967 0.007332
0.008121 0.004177 0.007298
0.015844 0.004453 0.007114
0.030859 0.004408 0.006877
0.063093 0.004021 0.006452
0.110314 0.003367 0.005984
0.164611 0.002688 0.005745
0.216983 0.002445 0.005686
0.257175 0.002445 0.005637
0.288869 0.002445 0.005602
0.317035 0.002445 0.005573
0.339396 0.002445 0.005551
0.355507 0.002445 0.005536
0.367529 0.002445 0.005525
0.379450 0.002445 0.005514
0.391894 0.002636 0.005493
0.403918 0.003148 0.005457
0.415239 0.003951 0.005410
0.426091 0.004829 0.005366
0.435648 0.005683 0.005327
0.443925 0.006485 0.005294
0.450895 0.007201 0.005266
0.456674 0.007792 0.005305
0.461215 0.008254 0.005368
0.464737 0.008622 0.005421
0.467516 0.008918 0.005464
0.468252 0.008996 0.005474
0.468252 0.008996 0.005474
0.468252 0.008996 0.005474
0.001809 0.004532 0.007426
0.002074 0.004529 0.007401
0.002426 0.004551 0.007398
0.003070 0.004581 0.007385
0.004581 0.004745 0.007356
0.007569 0.004949 0.007322
0.013776 0.005235 0.007173
0.026696 0.005258 0.006950
0.050890 0.004997 0.006615
0.096430 0.004313 0.006115
0.150005 0.003477 0.005754
0.209557 0.002705 0.005682
0.255528 0.002445 0.005639
0.290791 0.002445 0.005600
0.321351 0.002445 0.005569
0.345769 0.002445 0.005545
0.364420 0.002445 0.005528
0.377676 0.002445 0.005516
0.390167 0.002738 0.005490
0.402754 0.003338 0.005449
0.415115 0.004194 0.005400
0.426935 0.005178 0.005352
0.437982 0.006194 0.005308
0.447630 0.007181 0.005270
0.456059 0.008042 0.005238
0.463162 0.008755 0.005213
0.469078 0.009456 0.005207
0.473801 0.010119 0.005206
0.477492 0.010651 0.005208
0.480384 0.011083 0.005209
0.481154 0.011204 0.005205
0.481154 0.011204 0.005205
0.481154 0.011204 0.005205
0.001609 0.006100 0.007480
0.001890 0.006127 0.007448
0.002276 0.006248 0.007442
0.003035 0.006297 0.007427
0.004367 0.006297 0.007386
0.007168 0.006442 0.007335
0.012563 0.006603 0.007212
0.024519 0.006588 0.006988
0.047930 0.006348 0.006646
0.089172 0.005688 0.006184
0.141163 0.004675 0.005736
0.201829 0.003687 0.005643
0.251832 0.002959 0.005617
0.291839 0.002492 0.005597
0.325284 0.002445 0.005565
0.351551 0.002445 0.005540
0.372544 0.002597 0.005512
0.388146 0.002899 0.005483
0.400938 0.003556 0.005440
0.413931 0.004383 0.005393
0.426576 0.005410 0.005344
0.438540 0.006551 0.005296
0.449739 0.007737 0.005252
0.459558 0.008729 0.005217
0.468207 0.009770 0.005183
0.475711 0.010809 0.005153
0.481923 0.011762 0.005126
0.486768 0.012612 0.005105
0.490539 0.013291 0.005088
0.493570 0.013856 0.005074
0.494398 0.014011 0.005070
0.494398 0.014011 0.005070
0.494398 0.014011 0.005070
0.001400 0.008503 0.007514
0.001558 0.008681 0.007465
0.001887 0.009159 0.007450
0.002647 0.009438 0.007425
0.004065 0.009490 0.007374
0.006560 0.009226 0.007332
0.011540 0.009260 0.007214
0.022069 0.009071 0.007010
0.045317 0.008740 0.006643
0.086892 0.007856 0.006160
0.139915 0.006660 0.005687
0.198663 0.005308 0.005581
0.250483 0.004314 0.005556
0.293754 0.003546 0.005542
0.329883 0.003131 0.005526
0.359068 0.003116 0.005499
0.381346 0.003409 0.005464
0.399230 0.003925 0.005425
0.412874 0.004705 0.005382
0.426048 0.005680 0.005335
0.438712 0.006911 0.005285
0.450699 0.008165 0.005239
0.461944 0.009387 0.005198
0.472141 0.010811 0.005155
0.481198 0.012228 0.005117
0.488868 0.013541 0.005084
0.495572 0.014742 0.005055
0.500959 0.015782 0.005032
0.505144 0.016616 0.005014
0.508437 0.017288 0.005000
0.509303 0.017471 0.004996
0.509303 0.017471 0.004996
0.509303 0.017471 0.004996
0.001398 0.012343 0.007436
0.001398 0.012772 0.007361
0.001423 0.013654 0.007321
0.001870 0.014385 0.007264
0.002987 0.015025 0.007198
0.005533 0.015007 0.007126
0.010100 0.014245 0.007099
0.019788 0.013722 0.006939
0.040727 0.012824 0.006605
0.082137 0.011835 0.006055
0.139255 0.010131 0.005537
0.201338 0.008392 0.005480
0.255544 0.006735 0.005463
0.301009 0.005651 0.005451
0.337569 0.005089 0.005435
0.368595 0.004837 0.005415
0.391975 0.004985 0.005389
0.411280 0.005453 0.005355
0.426344 0.006288 0.005315
0.439377 0.007455 0.005268
0.452052 0.008751 0.005222
0.463982 0.010210 0.005176
0.475643 0.011924 0.005128
0.485971 0.013671 0.005083
0.495572 0.015396 0.005043
0.503909 0.016961 0.005009
0.510826 0.018338 0.004980
0.516214 0.019497 0.004957
0.520615 0.020482 0.004938
0.524134 0.021285 0.004924
0.525039 0.021503 0.004920
0.525039 0.021503 0.004920
0.525039 0.021503 0.004920
0.001398 0.020235 0.007123
0.001398 0.020626 0.007051
0.001398 0.021429 0.007011
0.001400 0.022503 0.006944
0.001576 0.023697 0.006869
0.003229 0.024515 0.006766
0.007862 0.023882 0.006701
0.016836 0.022476 0.006589
0.036900 0.021193 0.006273
0.074656 0.018800 0.005819
0.135330 0.016347 0.005396
0.199260 0.013711 0.005356
0.261932 0.011376 0.005332
0.310907 0.009488 0.005327
0.349330 0.008343 0.005320
0.381781 0.007624 0.005312
0.406173 0.007561 0.005292
0.425605 0.007967 0.005265
0.441810 0.008588 0.005234
0.454633 0.009719 0.005195
0.467205 0.011341 0.005147
0.479140 0.013227 0.005097
0.491113 0.015311 0.005048
0.502259 0.017409 0.005002
0.512071 0.019382 0.004962
0.520640 0.021204 0.004927
0.527951 0.022880 0.004897
0.533662 0.024276 0.004873
0.538148 0.025406 0.004855
0.541662 0.026370 0.004839
0.542560 0.026621 0.004835
0.542560 0.026621 0.004835
0.542560 0.026621 0.004835
0.001398 0.036546 0.006433
0.001398 0.037398 0.006331
0.001398 0.037612 0.006305
0.001398 0.037428 0.006282
0.001404 0.037628 0.006242
0.001700 0.039126 0.006105
0.004228 0.039720 0.005972
0.012837 0.038656 0.005790
0.031451 0.036481 0.005521
0.070685 0.033467 0.005274
0.134037 0.028903 0.005203
0.202116 0.024000 0.005175
0.265843 0.019497 0.005171
0.321064 0.016461 0.005168
0.364459 0.014309 0.005169
0.399127 0.013013 0.005165
0.424888 0.012319 0.005159
0.444315 0.012305 0.005144
0.460265 0.012767 0.005121
0.473912 0.013733 0.005091
0.485673 0.015384 0.005050
0.497695 0.017501 0.005004
0.509889 0.019884 0.004955
0.521043 0.022268 0.004911
0.531043 0.024579 0.004871
0.539673 0.026759 0.004836
0.546773 0.028688 0.004806
0.552935 0.030427 0.004803
0.557876 0.031892 0.004803
0.561771 0.033078 0.004803
0.562792 0.033388 0.004803
0.562792 0.033388 0.004803
0.562792 0.033388 0.004803
0.001398 0.064025 0.005332
0.001398 0.065156 0.005308
0.001398 0.065240 0.005296
0.001398 0.064951 0.005290
0.001398 0.064445 0.005278
0.001437 0.063266 0.005282
0.001976 0.062810 0.005278
0.007384 0.063211 0.005212
0.023518 0.062403 0.005124
0.061751 0.061083 0.005013
0.128138 0.054901 0.004937
0.211374 0.046121 0.004905
0.281323 0.037628 0.004916
0.341729 0.030591 0.004940
0.390268 0.025849 0.004960
0.425289 0.022949 0.004972
0.453451 0.021495 0.004972
0.472320 0.020713 0.004970
0.487064 0.020496 0.004962
0.500425 0.021076 0.004944
0.511929 0.022197 0.004919
0.522302 0.024098 0.004884
0.533613 0.026641 0.004841
0.544086 0.029326 0.004803
0.554307 0.032121 0.004803
0.563477 0.034831 0.004803
0.570997 0.037166 0.004803
0.576976 0.039220 0.004803
0.581706 0.040889 0.004803
0.585627 0.042314 0.004803
0.586675 0.042689 0.004803
0.586675 0.042689 0.004803
0.586675 0.042689 0.004803
0.001398 0.088217 0.005095
0.001398 0.090610 0.005079
0.001398 0.093033 0.005063
0.001398 0.094824 0.005052
0.001398 0.095634 0.005047
0.001398 0.095660 0.005046
0.001459 0.095642 0.005046
0.002631 0.097837 0.005015
0.014292 0.100116 0.004901
0.047721 0.101475 0.004803
0.114241 0.098776 0.004803
0.212574 0.090463 0.004803
0.294979 0.075795 0.004803
0.368098 0.062239 0.004803
0.424217 0.051239 0.004803
0.462953 0.043807 0.004803
0.492893 0.039148 0.004803
0.513255 0.036842 0.004803
0.527386 0.035595 0.004803
0.538458 0.034994 0.004803
0.549062 0.035392 0.004803
0.557979 0.036595 0.004803
0.567216 0.038623 0.004803
0.576099 0.041201 0.004803
0.584776 0.044059 0.004803
0.593553 0.047426 0.004803
0.600824 0.050313 0.004803
0.606638 0.052741 0.004803
0.611423 0.054890 0.004803
0.615200 0.056626 0.004803
0.616202 0.057076 0.004803
0.616202 0.057076 0.004803
0.616202 0.057076 0.004803
0.001398 0.112835 0.004942
0.001398 0.115872 0.004925
0.001398 0.118916 0.004907
0.001398 0.122027 0.004890
0.001398 0.125370 0.004872
0.001398 0.128904 0.004853
0.001405 0.131610 0.004839
0.001995 0.135493 0.004811
0.004797 0.142486 0.004803
0.032085 0.151615 0.004803
0.095163 0.156788 0.004803
0.196837 0.153714 0.004803
0.301348 0.141295 0.004803
0.388058 0.122346 0.004803
0.458408 0.103364 0.004803
0.506143 0.087176 0.004803
0.542494 0.076446 0.004803
0.565173 0.069081 0.004803
0.579247 0.064944 0.004803
0.589701 0.062338 0.004803
0.599021 0.061286 0.004803
0.606090 0.061122 0.004803
0.613518 0.062148 0.004803
0.619942 0.063712 0.004803
0.626091 0.065852 0.004803
0.631919 0.068474 0.004803
0.637549 0.071283 0.004803
0.642192 0.073719 0.004803
0.646590 0.076288 0.004803
0.650029 0.078380 0.004803
0.650926 0.078924 0.004803
0.650926 0.078924 0.004803
0.650926 0.078924 0.004803
0.001398 0.137513 0.004809
0.001410 0.142383 0.004803
0.001422 0.146632 0.004803
0.001434 0.150697 0.004803
0.001446 0.154732 0.004803
0.001460 0.159686 0.004803
0.001476 0.165457 0.004803
0.001746 0.172759 0.004803
0.003293 0.182437 0.004803
0.017444 0.195700 0.004803
0.070442 0.213139 0.004803
0.167435 0.222902 0.004803
0.290361 0.222538 0.004803
0.393877 0.208056 0.004803
0.482793 0.186967 0.004803
0.549600 0.165258 0.004803
0.589290 0.143999 0.004803
0.619491 0.129436 0.004803
0.636364 0.119281 0.004803
0.647520 0.112490 0.004803
0.656513 0.108625 0.004803
0.663179 0.106154 0.004803
0.668716 0.105317 0.004803
0.673860 0.105809 0.004803
0.678522 0.106910 0.004803
0.682173 0.108114 0.004803
0.685754 0.109713 0.004803
0.688522 0.111236 0.004803
0.691336 0.113265 0.004803
0.693528 0.114876 0.004803
0.694100 0.115296 0.004803
0.694100 0.115296 0.004803
0.694100 0.115296 0.004803
0.001466 0.162075 0.004803
0.001485 0.168955 0.004803
0.001500 0.174295 0.004803
0.001513 0.179356 0.004803
0.001526 0.184437 0.004803
0.001541 0.190256 0.004803
0.001558 0.196806 0.004803
0.001743 0.205504 0.004803
0.002827 0.217289 0.004803
0.007050 0.233201 0.004803
0.048191 0.255123 0.004803
0.132848 0.275357 0.004803
0.260588 0.290007 0.004803
0.376886 0.291363 0.004803
0.486790 0.280885 0.004803
0.573124 0.261431 0.004803
0.626062 0.238327 0.004803
0.664172 0.216220 0.004803
0.686599 0.201290 0.004803
0.701603 0.190969 0.004803
0.711824 0.183101 0.004803
0.719710 0.178068 0.004803
0.725684 0.175121 0.004803
0.730054 0.173483 0.004803
0.733523 0.172665 0.004803
0.736178 0.172095 0.004803
0.738833 0.172459 0.004803
0.740822 0.172922 0.004803
0.742071 0.173252 0.004803
0.743037 0.173508 0.004803
0.743293 0.173569 0.004803
0.743293 0.173569 0.004803
0.743293 0.173569 0.004803
0.001532 0.186849 0.004803
0.001552 0.194794 0.004803
0.001568 0.200979 0.004803
0.001582 0.206785 0.004803
0.001596 0.212689 0.004803
0.001610 0.218892 0.004803
0.001628 0.226368 0.004803
0.001820 0.235465 0.004803
0.002792 0.247223 0.004803
0.005255 0.263567 0.004803
0.032695 0.287252 0.004803
0.103130 0.314029 0.004803
0.220077 0.337711 0.004803
0.347954 0.350644 0.004803
0.468557 0.352512 0.004803
0.574129 0.345543 0.004803
0.647144 0.331841 0.004803
0.697014 0.314951 0.004803
0.724650 0.297082 0.004803
0.740956 0.283195 0.004803
0.752647 0.272647 0.004803
0.761284 0.264807 0.004803
0.768111 0.259371 0.004803
0.772643 0.255424 0.004803
0.775642 0.252679 0.004803
0.778101 0.250639 0.004803
0.780121 0.249111 0.004803
0.781717 0.248302 0.004803
0.782589 0.247648 0.004803
0.783274 0.247147 0.004803
0.783515 0.247116 0.004803
0.783515 0.247116 0.004803
0.783515 0.247116 0.004803
0.001585 0.208347 0.004803
0.001609 0.218428 0.004803
0.001627 0.226219 0.004803
0.001643 0.233040 0.004803
0.001658 0.239749 0.004803
0.001673 0.246803 0.004803
0.001690 0.254881 0.004803
0.001893 0.264398 0.004803
0.002743 0.276763 0.004803
0.005131 0.292944 0.004803
0.022462 0.314875 0.004803
0.082090 0.342231 0.004803
0.180610 0.367381 0.004803
0.312901 0.392691 0.004803
0.437408 0.406257 0.004803
0.557604 0.410239 0.004803
0.650376 0.403968 0.004803
0.710181 0.391216 0.004803
0.749362 0.378731 0.004803
0.772019 0.368514 0.004803
0.786508 0.359934 0.004803
0.796865 0.352878 0.004803
0.804159 0.346888 0.004803
0.809442 0.341787 0.004803
0.812811 0.338240 0.004803
0.815334 0.335296 0.004803
0.817132 0.332946 0.004803
0.818652 0.331270 0.004803
0.819488 0.329832 0.004803
0.820148 0.328864 0.004803
0.820344 0.328649 0.004803
0.820344 0.328649 0.004803
0.820344 0.328649 0.004803
0.001627 0.226264 0.004803
0.001652 0.237430 0.004803
0.001671 0.246025 0.004803
0.001688 0.253788 0.004803
0.001705 0.261626 0.004803
0.001726 0.269571 0.004803
0.001755 0.278155 0.004803
0.002074 0.287987 0.004803
0.002932 0.300000 0.004803
0.005277 0.315724 0.004803
0.018385 0.337420 0.004803
0.067747 0.363150 0.004803
0.152199 0.390792 0.004803
0.277093 0.420126 0.004803
0.401851 0.441656 0.004803
0.529881 0.453469 0.004803
0.638988 0.457237 0.004803
0.711943 0.453183 0.004803
0.763627 0.445210 0.004803
0.791261 0.434888 0.004803
0.808662 0.426922 0.004803
0.820847 0.420439 0.004803
0.828756 0.414600 0.004803
0.834657 0.409707 0.004803
0.838380 0.405481 0.004803
0.840982 0.402147 0.004803
0.842933 0.399573 0.004803
0.844549 0.397628 0.004803
0.845463 0.396029 0.004803
0.846166 0.394951 0.004803
0.846336 0.394673 0.004803
0.846336 0.394673 0.004803
0.846336 0.394673 0.004803
0.001667 0.244012 0.004888
0.001692 0.255453 0.004840
0.001711 0.264551 0.004840
0.001728 0.272959 0.004814
0.001745 0.281236 0.004814
0.001768 0.289794 0.004808
0.001825 0.298679 0.004808
0.002339 0.308102 0.004805
0.003482 0.319235 0.004803
0.005718 0.333826 0.004803
0.019085 0.353129 0.004803
0.061050 0.377255 0.004803
0.131470 0.404417 0.004803
0.247130 0.437076 0.004803
0.367462 0.462769 0.004803
0.495446 0.482247 0.004803
0.613950 0.492415 0.004803
0.700698 0.495226 0.004829
0.763835 0.492925 0.004845
0.801206 0.486744 0.004848
0.822985 0.480542 0.004847
0.837739 0.475239 0.004844
0.847409 0.470440 0.004840
0.854449 0.466426 0.004837
0.858916 0.462830 0.004833
0.861931 0.459846 0.004830
0.863674 0.457203 0.004827
0.865032 0.454941 0.004824
0.865910 0.453254 0.004822
0.866465 0.452052 0.004821
0.866595 0.451746 0.004820
0.866595 0.451746 0.004820
0.866595 0.451746 0.004820
0.001700 0.259285 0.005116
0.001727 0.272055 0.005017
0.001746 0.281625 0.004981
0.001763 0.290308 0.004907
0.001782 0.298747 0.004915
0.001810 0.307434 0.004896
0.002003 0.316546 0.004890
0.002741 0.325922 0.004843
0.004077 0.336518 0.004828
0.006365 0.349891 0.004805
0.021720 0.367237 0.004803
0.055203 0.387858 0.004803
0.116957 0.412538 0.004803
0.217163 0.443326 0.004803
0.336299 0.474094 0.004803
0.459006 0.498411 0.004803
0.581856 0.514210 0.004814
0.683219 0.522991 0.004859
0.753723 0.525421 0.004884
0.800926 0.523324 0.004895
0.828100 0.518957 0.004897
0.845717 0.514823 0.004897
0.856978 0.511178 0.004896
0.865389 0.508203 0.004894
0.871124 0.505587 0.004892
0.875113 0.503467 0.004891
0.877632 0.501632 0.004889
0.879575 0.500147 0.004888
0.880938 0.498944 0.004887
0.881719 0.497950 0.004886
0.881916 0.497718 0.004885
0.881916 0.497718 0.004885
0.881916 0.497718 0.004885
0.001728 0.271574 0.005977
0.001756 0.286060 0.005729
0.001776 0.296049 0.005552
0.001793 0.304935 0.005476
0.001832 0.313619 0.005441
0.001878 0.322390 0.005329
0.002359 0.331129 0.005359
0.003166 0.340573 0.005526
0.004573 0.351115 0.005552
0.007048 0.363431 0.005145
0.022340 0.378996 0.004829
0.053635 0.397256 0.004957
0.105062 0.419743 0.004974
0.193134 0.447779 0.004803
0.304401 0.478193 0.004803
0.422199 0.505286 0.004803
0.550185 0.529029 0.004822
0.660598 0.541734 0.004875
0.738086 0.547750 0.004906
0.794493 0.549781 0.004926
0.827555 0.547726 0.004933
0.848077 0.544750 0.004935
0.861634 0.541759 0.004935
0.870955 0.539601 0.004935
0.877379 0.537641 0.004934
0.882087 0.536071 0.004934
0.885256 0.534866 0.004933
0.887527 0.533950 0.004933
0.889247 0.533084 0.004932
0.890257 0.532387 0.004931
0.890517 0.532218 0.004931
0.890517 0.532218 0.004931
0.890517 0.532218 0.004931
0.001754 0.283326 0.007493
0.001785 0.298954 0.007314
0.001805 0.309488 0.007191
0.001824 0.318625 0.007207
0.001879 0.327313 0.007197
0.002070 0.335999 0.007187
0.002729 0.344662 0.007384
0.003682 0.353914 0.007780
0.005246 0.364428 0.008174
0.008019 0.376026 0.008042
0.023128 0.389830 0.007616
0.053534 0.406278 0.007501
0.097738 0.427092 0.007257
0.175787 0.452835 0.005297
0.279472 0.482730 0.004915
0.390168 0.509033 0.004840
0.515386 0.534866 0.004816
0.633392 0.554075 0.004881
0.718322 0.563320 0.004919
0.783202 0.568149 0.004945
0.822075 0.568575 0.004957
0.846581 0.567177 0.004962
0.862622 0.565457 0.004964
0.873320 0.563792 0.004965
0.880871 0.562625 0.004966
0.886197 0.561781 0.004970
0.889825 0.560863 0.004966
0.892391 0.559948 0.004966
0.894279 0.559181 0.004966
0.895617 0.558588 0.004965
0.895910 0.558439 0.004965
0.895910 0.558439 0.004965
0.895910 0.558439 0.004965
0.001781 0.295028 0.009698
0.001812 0.311439 0.009665
0.001833 0.322480 0.009765
0.001864 0.331877 0.009817
0.001919 0.340661 0.009824
0.002401 0.349095 0.010003
0.003148 0.357688 0.010356
0.004271 0.366913 0.010732
0.006072 0.377175 0.011206
0.010805 0.388443 0.011425
0.026645 0.400660 0.010920
0.056437 0.415892 0.010609
0.096120 0.434762 0.010870
0.164852 0.458863 0.009612
0.262867 0.487597 0.007926
0.365143 0.513547 0.006488
0.485021 0.538898 0.005100
0.603300 0.560344 0.005311
0.698002 0.574334 0.005568
0.768616 0.581874 0.005789
0.813945 0.584206 0.006009
0.841619 0.584105 0.005841
0.860169 0.583191 0.005384
0.872542 0.582254 0.005057
0.881373 0.581165 0.005294
0.887172 0.580356 0.006050
0.891502 0.579902 0.006767
0.894364 0.579472 0.006423
0.896576 0.579221 0.006287
0.898234 0.578943 0.006632
0.898624 0.578842 0.006722
0.898624 0.578842 0.006722
0.898624 0.578842 0.006722
0.001807 0.306533 0.012426
0.001839 0.323531 0.012753
0.001873 0.334840 0.012906
0.001913 0.344442 0.012922
0.002219 0.353129 0.013077
0.002839 0.361557 0.013347
0.003665 0.370132 0.013606
0.005023 0.379268 0.013870
0.006936 0.389135 0.014301
0.013761 0.399836 0.014801
0.032202 0.411246 0.014585
0.060446 0.425353 0.014350
0.097268 0.442826 0.015166
0.158593 0.465414 0.014762
0.250617 0.492657 0.013207
0.346909 0.518484 0.012418
0.459621 0.542657 0.010131
0.576267 0.564861 0.010045
0.678131 0.580787 0.010314
0.750844 0.590415 0.011261
0.803690 0.595636 0.011380
0.835391 0.596790 0.010516
0.855563 0.596688 0.009929
0.869677 0.596046 0.009967
0.879544 0.595456 0.010333
0.886372 0.594944 0.010912
0.891193 0.594429 0.011276
0.894598 0.593995 0.011558
0.896937 0.593765 0.011855
0.898724 0.593585 0.012177
0.899146 0.593533 0.012265
0.899146 0.593533 0.012265
0.899146 0.593533 0.012265
0.001830 0.317225 0.014911
0.001863 0.334694 0.015351
0.001894 0.346264 0.015470
0.001975 0.356039 0.015564
0.002446 0.364596 0.015984
0.003153 0.372950 0.016382
0.004365 0.381542 0.016788
0.006091 0.390586 0.017065
0.008197 0.400025 0.017714
0.016719 0.409992 0.018453
0.038407 0.421128 0.018592
0.064352 0.434246 0.018806
0.099684 0.450647 0.019729
0.156853 0.471904 0.020214
0.243205 0.497888 0.018892
0.334709 0.523115 0.018117
0.440086 0.546797 0.016172
0.554818 0.568699 0.015253
0.660624 0.586058 0.015315
0.735175 0.596560 0.015957
0.792045 0.603595 0.016654
0.828106 0.606288 0.016748
0.850394 0.607143 0.016943
0.865885 0.607143 0.017007
0.876853 0.606675 0.017012
0.884192 0.606081 0.016906
0.889460 0.605639 0.016859
0.893643 0.605328 0.016825
0.896240 0.605069 0.016949
0.898190 0.604914 0.017384
0.898710 0.604862 0.017503
0.898710 0.604862 0.017503
0.898710 0.604862 0.017503
0.001850 0.326789 0.017399
0.001883 0.344465 0.017907
0.001912 0.356212 0.018076
0.002237 0.365836 0.018460
0.002766 0.374413 0.019012
0.003652 0.382728 0.019550
0.005215 0.391320 0.020085
0.006937 0.400141 0.020554
0.010143 0.408937 0.021322
0.021122 0.418727 0.022174
0.044758 0.429737 0.022522
0.069143 0.442330 0.023107
0.103529 0.457782 0.023823
0.158007 0.477994 0.024687
0.238640 0.502854 0.023784
0.326251 0.527229 0.022800
0.425609 0.550760 0.020979
0.537971 0.572428 0.019268
0.644154 0.590134 0.019084
0.720894 0.601219 0.019881
0.781433 0.609039 0.020663
0.820595 0.612920 0.020874
0.845518 0.614799 0.020968
0.862190 0.615558 0.021043
0.873736 0.615532 0.021080
0.881892 0.615165 0.021066
0.887444 0.614643 0.021123
0.891717 0.614251 0.021213
0.894768 0.614016 0.021288
0.896946 0.613833 0.021337
0.897498 0.613754 0.021355
0.897498 0.613754 0.021355
0.897498 0.613754 0.021355
0.001868 0.335082 0.019700
0.001900 0.352902 0.020306
0.001926 0.364813 0.020558
0.002457 0.374270 0.021215
0.003026 0.382844 0.021885
0.004091 0.391155 0.022552
0.006038 0.399748 0.023277
0.007684 0.408081 0.023937
0.011898 0.416730 0.024763
0.026180 0.426282 0.025656
0.049448 0.437050 0.026249
0.073822 0.449375 0.027020
0.107850 0.464242 0.027619
0.160727 0.483675 0.028775
0.236115 0.507312 0.028287
0.320592 0.530906 0.027117
0.415184 0.554198 0.025830
0.525468 0.575792 0.023662
0.629076 0.592944 0.022738
0.709085 0.604758 0.023120
0.771996 0.613050 0.023945
0.813607 0.617600 0.024313
0.840032 0.619724 0.024407
0.858411 0.621012 0.024515
0.870431 0.621485 0.024557
0.879208 0.621669 0.024576
0.885554 0.621669 0.024560
0.890046 0.621379 0.024523
0.893321 0.621248 0.024589
0.895564 0.620959 0.024565
0.896115 0.620907 0.024558
0.896115 0.620907 0.024558
0.896115 0.620907 0.024558
0.001882 0.341853 0.021710
0.001914 0.359821 0.022404
0.002105 0.371486 0.022830
0.002691 0.380946 0.023545
0.003392 0.389496 0.024269
0.004680 0.397857 0.025009
0.006647 0.406170 0.025832
0.008944 0.414242 0.026596
0.015396 0.422805 0.027461
0.031807 0.432329 0.028396
0.053321 0.442818 0.029180
0.078093 0.455006 0.030062
0.112475 0.469659 0.030736
0.163752 0.488320 0.032031
0.235049 0.510937 0.031989
0.316791 0.533858 0.030937
0.407193 0.556711 0.030108
0.515305 0.578488 0.027699
0.617081 0.595431 0.026365
0.699282 0.607585 0.025979
0.764027 0.616239 0.026705
0.807464 0.621195 0.027126
0.835610 0.623617 0.027262
0.854753 0.624936 0.027323
0.867666 0.625728 0.027412
0.876650 0.626019 0.027450
