film-luts/Generated/SUPRA.cube
TITLE "Frontier SUPRA - Daylight Film Emulation"
LUT_3D_SIZE 9
DOMAIN_MIN 0.0 0.0 0.0
DOMAIN_MAX 1.0 1.0 1.0
0.097461 0.096837 0.096216
0.148630 0.097073 0.096216
0.167624 0.097148 0.096216
0.206244 0.097287 0.096216
0.276131 0.097504 0.096216
0.392855 0.097805 0.096216
0.563152 0.098162 0.096216
0.759681 0.098503 0.096216
0.922470 0.098749 0.096216
0.098043 0.114147 0.096216
0.112331 0.111311 0.096216
0.141196 0.107927 0.096216
0.186989 0.105774 0.096216
0.261199 0.104713 0.096216
0.381017 0.104301 0.096216
0.554707 0.104245 0.096216
0.760355 0.104425 0.096216
0.923224 0.104679 0.096216
0.098520 0.129533 0.096216
0.106641 0.128477 0.096216
0.127905 0.126448 0.096216
0.169086 0.124210 0.096216
0.241378 0.122411 0.096216
0.361497 0.121225 0.096216
0.538753 0.120547 0.096216
0.762124 0.120933 0.096216
0.925205 0.121210 0.096216
0.099414 0.161323 0.096216
0.105910 0.160759 0.096216
0.123695 0.159507 0.096216
0.160201 0.157782 0.096216
0.227628 0.155996 0.096216
0.346294 0.154892 0.096216
0.540109 0.155448 0.096216
0.762335 0.155346 0.096216
0.921819 0.155026 0.096216
0.100859 0.221066 0.096216
0.106818 0.221114 0.096216
0.123415 0.221242 0.096216
0.158571 0.221483 0.096216
0.226436 0.221873 0.096216
0.347771 0.221692 0.096216
0.537416 0.221007 0.096216
0.756961 0.220375 0.096216
0.915814 0.219982 0.096216
0.100998 0.341472 0.096216
0.106834 0.341409 0.096216
0.123069 0.341244 0.096216
0.157378 0.340934 0.096216
0.223399 0.340433 0.096216
0.342888 0.339714 0.096216
0.531117 0.338835 0.096216
0.749265 0.338024 0.096216
0.907212 0.337520 0.096216
0.098106 0.527736 0.096216
0.103845 0.527655 0.096216
0.119822 0.527443 0.096216
0.153628 0.527043 0.096216
0.218794 0.526397 0.096216
0.336969 0.525470 0.096216
0.525203 0.525203 0.096646
0.744602 0.525203 0.097167
0.903784 0.525203 0.097492
0.096216 0.744602 0.096711
0.101953 0.744602 0.096751
0.117941 0.744602 0.096856
0.151839 0.744602 0.097055
0.217364 0.744602 0.097376
0.336557 0.744602 0.097839
0.525203 0.744602 0.098407
0.744602 0.744602 0.098935
0.903784 0.744602 0.099263
0.096216 0.903784 0.097804
0.101953 0.903784 0.097844
0.117941 0.903784 0.097950
0.151839 0.903784 0.098150
0.217354 0.903761 0.098473
0.336285 0.903479 0.098936
0.523558 0.902681 0.099499
0.740262 0.901080 0.100014
0.898342 0.898342 0.100325
0.097933 0.097072 0.280237
0.135674 0.097079 0.133579
0.162582 0.097155 0.111471
0.203507 0.097294 0.105812
0.274290 0.097512 0.103711
0.391502 0.097813 0.102738
0.562227 0.098171 0.102218
0.759749 0.098514 0.101953
0.922546 0.098759 0.101953
0.098061 0.113003 0.111998
0.111660 0.110635 0.109615
0.139998 0.107662 0.106581
0.185718 0.105683 0.104468
0.260021 0.104682 0.103248
0.379992 0.104293 0.102548
0.553935 0.104246 0.102130
0.760423 0.104435 0.101953
0.923300 0.104689 0.101953
0.098538 0.129153 0.104338
0.106580 0.128157 0.104096
0.127695 0.126230 0.103620
0.168713 0.124084 0.103069
0.240873 0.122346 0.102589
0.360926 0.121194 0.102224
0.538242 0.120534 0.101961
0.762192 0.120945 0.101953
0.925281 0.121221 0.101953
0.099432 0.161126 0.102571
0.105911 0.160577 0.102522
0.123657 0.159357 0.102410
0.160101 0.157672 0.102252
0.227447 0.155923 0.102077
0.346337 0.154905 0.101953
0.540165 0.155462 0.101953
0.762267 0.155332 0.101953
0.921743 0.155012 0.101953
0.100880 0.221082 0.101953
0.106840 0.221131 0.101953
0.123439 0.221259 0.101953
0.158598 0.221500 0.101953
0.226469 0.221889 0.101953
0.347728 0.221675 0.101953
0.537360 0.220990 0.101953
0.756893 0.220358 0.101953
0.915738 0.219966 0.101953
0.100977 0.341450 0.101953
0.106812 0.341387 0.101953
0.123045 0.341223 0.101953
0.157351 0.340913 0.101953
0.223366 0.340412 0.101953
0.342846 0.339693 0.101953
0.531062 0.338814 0.101953
0.749198 0.338003 0.101953
0.907137 0.337499 0.101953
0.098085 0.527708 0.101953
0.103824 0.527627 0.101953
0.119799 0.527415 0.101953
0.153601 0.527015 0.101953
0.218761 0.526370 0.101953
0.336927 0.525442 0.101953
0.525203 0.525203 0.102412
0.744602 0.525203 0.102951
0.903784 0.525203 0.103287
0.096216 0.744602 0.102479
0.101953 0.744602 0.102521
0.117941 0.744602 0.102630
0.151839 0.744602 0.102835
0.217364 0.744602 0.103167
0.336557 0.744602 0.103646
0.525203 0.744602 0.104234
0.744602 0.744602 0.104779
0.903784 0.744602 0.105119
0.096216 0.903784 0.103609
0.101953 0.903784 0.103651
0.117941 0.903784 0.103761
0.151839 0.903784 0.103968
0.217352 0.903756 0.104301
0.336270 0.903463 0.104776
0.523515 0.902652 0.105345
0.740193 0.901037 0.105853
0.898284 0.898284 0.106133
0.097989 0.097100 0.309712
0.121969 0.097109 0.203506
0.153368 0.097178 0.150862
0.197555 0.097316 0.132205
0.269996 0.097534 0.124578
0.388236 0.097836 0.120909
0.559956 0.098195 0.118915
0.759928 0.098541 0.117941
0.922745 0.098786 0.117941
0.098113 0.110896 0.152469
0.110350 0.109304 0.145031
0.137446 0.107096 0.134901
0.182826 0.105477 0.127375
0.257232 0.104612 0.122843
0.377504 0.104275 0.120185
0.552036 0.104249 0.118574
0.760601 0.104463 0.117941
0.923500 0.104717 0.117941
0.098584 0.128284 0.126898
0.106446 0.127418 0.126008
0.127208 0.125720 0.124241
0.167826 0.123787 0.122170
0.239652 0.122191 0.120343
0.359528 0.121120 0.118937
0.537585 0.120530 0.117941
0.762371 0.120975 0.117941
0.925275 0.121221 0.117941
0.099478 0.160650 0.120272
0.105919 0.160136 0.120083
0.123570 0.158992 0.119656
0.159860 0.157402 0.119044
0.227005 0.155743 0.118369
0.346449 0.154940 0.117941
0.540311 0.155497 0.117941
0.762088 0.155297 0.117941
0.921543 0.154977 0.117941
0.100935 0.221126 0.117941
0.106897 0.221174 0.117941
0.123501 0.221302 0.117941
0.158670 0.221543 0.117941
0.226557 0.221933 0.117941
0.347615 0.221632 0.117941
0.537215 0.220947 0.117941
0.756715 0.220315 0.117941
0.915539 0.219922 0.117941
0.100922 0.341394 0.117941
0.106755 0.341332 0.117941
0.122984 0.341167 0.117941
0.157280 0.340857 0.117941
0.223279 0.340356 0.117941
0.342733 0.339637 0.117941
0.530917 0.338759 0.117941
0.749021 0.337947 0.117941
0.906939 0.337443 0.117941
0.098031 0.527636 0.117941
0.103768 0.527555 0.117941
0.119738 0.527343 0.117941
0.153531 0.526943 0.117941
0.218675 0.526298 0.117941
0.336816 0.525371 0.117941
0.525203 0.525203 0.118481
0.744602 0.525203 0.119068
0.903784 0.525203 0.119434
0.096216 0.744602 0.118554
0.101953 0.744602 0.118600
0.117941 0.744602 0.118718
0.151839 0.744602 0.118942
0.217364 0.744602 0.119303
0.336557 0.744602 0.119824
0.525203 0.744602 0.120464
0.744602 0.744602 0.121057
0.903784 0.744602 0.121426
0.096216 0.903784 0.119784
0.101953 0.903784 0.119830
0.117941 0.903784 0.119949
0.151839 0.903784 0.120174
0.217346 0.903742 0.120535
0.336233 0.903421 0.121036
0.523404 0.902577 0.121616
0.740015 0.900925 0.122094
0.898132 0.898132 0.122276
0.098088 0.097149 0.366201
0.113949 0.097165 0.293205
0.143785 0.097227 0.223058
0.189564 0.097360 0.186193
0.263500 0.097577 0.168454
0.382983 0.097879 0.159293
0.556176 0.098239 0.154135
0.760264 0.098592 0.151839
0.923122 0.098837 0.151839
0.098219 0.108684 0.225857
0.108868 0.107776 0.212437
0.134129 0.106358 0.192066
0.178642 0.105184 0.175158
0.252897 0.104509 0.164174
0.373461 0.104251 0.157433
0.548866 0.104261 0.153239
0.760938 0.104516 0.151839
0.923877 0.104770 0.151839
0.098677 0.127011 0.174031
0.106265 0.126323 0.171911
0.126480 0.124944 0.167630
0.166442 0.123324 0.162489
0.237683 0.121945 0.157840
0.357217 0.121002 0.154193
0.537860 0.120588 0.151839
0.762708 0.121033 0.151839
0.924898 0.121163 0.151839
0.099567 0.159880 0.157658
0.105944 0.159422 0.157171
0.123440 0.158397 0.156065
0.159472 0.156961 0.154472
0.226277 0.155447 0.152698
0.346662 0.155007 0.151839
0.540587 0.155564 0.151839
0.761751 0.155230 0.151839
0.921167 0.154910 0.151839
0.101039 0.221207 0.151839
0.107004 0.221256 0.151839
0.123617 0.221384 0.151839
0.158805 0.221625 0.151839
0.226724 0.222015 0.151839
0.347402 0.221550 0.151839
0.536940 0.220865 0.151839
0.756379 0.220233 0.151839
0.915164 0.219841 0.151839
0.100818 0.341289 0.151839
0.106648 0.341226 0.151839
0.122867 0.341061 0.151839
0.157146 0.340751 0.151839
0.223114 0.340251 0.151839
0.342522 0.339532 0.151839
0.530645 0.338654 0.151839
0.748687 0.337842 0.151839
0.906566 0.337339 0.151839
0.097930 0.527500 0.151839
0.103663 0.527419 0.151839
0.119623 0.527207 0.151839
0.153398 0.526807 0.151839
0.218512 0.526162 0.151839
0.336607 0.525235 0.151839
0.525203 0.525203 0.152552
0.744602 0.525203 0.153233
0.903784 0.525203 0.153657
0.096216 0.744602 0.152638
0.101953 0.744602 0.152690
0.117941 0.744602 0.152828
0.151839 0.744602 0.153087
0.217364 0.744602 0.153506
0.336557 0.744602 0.154109
0.525203 0.744602 0.154850
0.744602 0.744602 0.155536
0.903784 0.744602 0.155964
0.096216 0.903784 0.154063
0.101953 0.903784 0.154116
0.117941 0.903784 0.154254
0.151839 0.903784 0.154514
0.217333 0.903711 0.154921
0.336160 0.903340 0.155459
0.523197 0.902438 0.156034
0.739690 0.900721 0.156407
0.897858 0.897858 0.156329
0.098232 0.097221 0.458110
0.109865 0.097242 0.407925
0.136311 0.097305 0.336504
0.181427 0.097435 0.282739
0.255821 0.097649 0.250801
0.376224 0.097951 0.232405
0.551070 0.098312 0.221423
0.760807 0.098674 0.217364
0.923730 0.098920 0.217364
0.098381 0.106949 0.340019
0.107640 0.106470 0.322503
0.130889 0.105642 0.292350
0.173977 0.104872 0.263415
0.247583 0.104399 0.242380
0.368183 0.104234 0.228499
0.544558 0.104289 0.219469
0.761481 0.104601 0.217364
0.924485 0.104856 0.217364
0.098830 0.125570 0.261342
0.106098 0.125065 0.257392
0.125641 0.124024 0.249203
0.164739 0.122755 0.238981
0.235144 0.121636 0.229358
0.354127 0.120855 0.221549
0.538304 0.120680 0.217364
0.763252 0.121126 0.217364
0.924290 0.121070 0.217364
0.099713 0.158884 0.228975
0.106006 0.158495 0.227943
0.123296 0.157618 0.225587
0.158979 0.156377 0.222156
0.225310 0.155052 0.218282
0.347006 0.155114 0.217364
0.540895 0.155638 0.217364
0.761208 0.155123 0.217364
0.920560 0.154803 0.217364
0.101206 0.221340 0.217364
0.107177 0.221388 0.217364
0.123805 0.221516 0.217364
0.159023 0.221758 0.217364
0.226649 0.221978 0.217364
0.347058 0.221418 0.217364
0.536497 0.220733 0.217364
0.755838 0.220101 0.217364
0.914560 0.219709 0.217364
0.100651 0.341119 0.217364
0.106476 0.341056 0.217364
0.122680 0.340891 0.217364
0.156930 0.340581 0.217364
0.222849 0.340081 0.217364
0.342181 0.339362 0.217364
0.530205 0.338484 0.217364
0.748150 0.337673 0.217364
0.905965 0.337170 0.217364
0.097765 0.527281 0.217364
0.103493 0.527200 0.217364
0.119439 0.526988 0.217364
0.153185 0.526588 0.217364
0.218250 0.525943 0.217364
0.336557 0.525203 0.217512
0.525203 0.525203 0.218418
0.744602 0.525203 0.219257
0.903784 0.525203 0.219779
0.096216 0.744602 0.218523
0.101953 0.744602 0.218588
0.117941 0.744602 0.218757
0.151839 0.744602 0.219076
0.217364 0.744602 0.219592
0.336557 0.744602 0.220336
0.525203 0.744602 0.221248
0.744602 0.744602 0.222094
0.903776 0.744588 0.222616
0.096216 0.903784 0.220279
0.101953 0.903784 0.220344
0.117941 0.903784 0.220514
0.151838 0.903779 0.220832
0.217306 0.903647 0.221293
0.336038 0.903203 0.221845
0.522868 0.902215 0.222327
0.739184 0.900403 0.222393
0.897435 0.897435 0.221681
0.098409 0.097309 0.587623
0.107760 0.097335 0.554768
0.131156 0.097405 0.495267
0.174365 0.097537 0.435325
0.248045 0.097751 0.390557
0.368672 0.098053 0.360719
0.545004 0.098417 0.341264
0.761589 0.098793 0.336557
0.924605 0.099039 0.336557
0.098584 0.105757 0.498655
0.106784 0.105513 0.481191
0.128200 0.105057 0.447306
0.169547 0.104595 0.409219
0.241977 0.104305 0.377304
0.362176 0.104235 0.353949
0.539401 0.104339 0.337664
0.762263 0.104724 0.336557
0.925361 0.104979 0.336557
0.099042 0.124181 0.406246
0.105988 0.123831 0.400480
0.124823 0.123092 0.388092
0.162938 0.122157 0.371765
0.232299 0.121303 0.355451
0.350500 0.120698 0.341495
0.538943 0.120814 0.336557
0.763763 0.121213 0.336557
0.923415 0.120936 0.336557
0.099923 0.157762 0.354782
0.106120 0.157447 0.352971
0.123169 0.156730 0.348795
0.158436 0.155703 0.342603
0.224728 0.154814 0.336557
0.347500 0.155269 0.336557
0.540255 0.155483 0.336557
0.760426 0.154968 0.336557
0.919687 0.154649 0.336557
0.101447 0.221530 0.336557
0.107426 0.221579 0.336557
0.124077 0.221707 0.336557
0.159336 0.221948 0.336557
0.226264 0.221788 0.336557
0.346564 0.221228 0.336557
0.535860 0.220544 0.336557
0.755060 0.219912 0.336557
0.913690 0.219520 0.336557
0.100411 0.340874 0.336557
0.106228 0.340811 0.336557
0.122411 0.340647 0.336557
0.156619 0.340337 0.336557
0.222467 0.339837 0.336557
0.341691 0.339119 0.336557
0.529572 0.338241 0.336557
0.747376 0.337430 0.336557
0.905100 0.336927 0.336557
0.097530 0.526966 0.336557
0.103249 0.526885 0.336557
0.119174 0.526673 0.336557
0.152879 0.526273 0.336557
0.217873 0.525628 0.336557
0.336557 0.525203 0.337073
0.525203 0.525203 0.338241
0.744602 0.525203 0.339324
0.903784 0.525203 0.339998
0.096216 0.744602 0.338378
0.101953 0.744602 0.338461
0.117941 0.744602 0.338679
0.151839 0.744602 0.339091
0.217364 0.744602 0.339757
0.336557 0.744602 0.340717
0.525203 0.744602 0.341892
0.744602 0.744602 0.342982
0.903731 0.744515 0.343610
0.096216 0.903784 0.340643
0.101953 0.903784 0.340727
0.117941 0.903784 0.340946
0.151831 0.903738 0.341317
0.217257 0.903529 0.341793
0.335846 0.902987 0.342255
0.522380 0.901884 0.342420
0.738455 0.899943 0.341757
0.896835 0.896835 0.339711
0.098587 0.097397 0.736872
0.106621 0.097428 0.718479
0.127722 0.097506 0.679887
0.168728 0.097647 0.631620
0.240892 0.097867 0.586928
0.360975 0.098175 0.551682
0.538366 0.098544 0.525823
0.762546 0.098938 0.525203
0.925080 0.099103 0.525203
0.098788 0.104971 0.682302
0.106227 0.104850 0.669530
0.126133 0.104616 0.642201
0.165710 0.104370 0.606631
0.236597 0.104230 0.571882
0.355925 0.104250 0.542962
0.538278 0.104465 0.525203
0.763221 0.104875 0.525203
0.924325 0.104833 0.525203
0.099277 0.122959 0.603601
0.105930 0.122728 0.597609
0.124091 0.122230 0.584200
0.161195 0.121578 0.565312
0.229375 0.120969 0.544922
0.346580 0.120538 0.526145
0.539725 0.120977 0.525203
0.762805 0.121049 0.525203
0.922345 0.120773 0.525203
0.100173 0.156604 0.544051
0.106270 0.156359 0.541678
0.123063 0.155798 0.536127
0.157874 0.154984 0.527683
0.225197 0.155003 0.525203
0.348106 0.155458 0.525203
0.539472 0.155294 0.525203
0.759471 0.154779 0.525203
0.918619 0.154460 0.525203
0.101742 0.221763 0.525203
0.107731 0.221811 0.525203
0.124409 0.221939 0.525203
0.159331 0.221945 0.525203
0.225793 0.221555 0.525203
0.345960 0.220995 0.525203
0.535081 0.220312 0.525203
0.754109 0.219680 0.525203
0.912627 0.219289 0.525203
0.100118 0.340575 0.525203
0.105925 0.340512 0.525203
0.122082 0.340348 0.525203
0.156239 0.340038 0.525203
0.222001 0.339538 0.525203
0.341092 0.338820 0.525203
0.528798 0.337943 0.525203
0.746430 0.337132 0.525203
0.904042 0.336630 0.525203
0.097241 0.526580 0.525203
0.102951 0.526499 0.525203
0.118850 0.526287 0.525203
0.152504 0.525888 0.525203
0.217412 0.525243 0.525203
0.336557 0.525203 0.526385
0.525203 0.525203 0.527900
0.744602 0.525203 0.529304
0.903784 0.525203 0.530177
0.096216 0.744602 0.528077
0.101953 0.744602 0.528185
0.117941 0.744602 0.528468
0.151839 0.744602 0.529002
0.217364 0.744602 0.529865
0.336557 0.744602 0.531108
0.525203 0.744602 0.532631
0.744602 0.744602 0.534042
0.903619 0.744334 0.534663
0.096216 0.903783 0.531010
0.101953 0.903777 0.531110
0.117939 0.903746 0.531346
0.151813 0.903632 0.531707
0.217172 0.903326 0.532103
0.335558 0.902661 0.532330
0.521689 0.901414 0.531952
0.737454 0.899310 0.530203
0.896022 0.896022 0.526272
0.098724 0.097465 0.866422
0.105946 0.097498 0.858459
0.125389 0.097582 0.840302
0.164355 0.097732 0.814166
0.234629 0.097962 0.785565
0.353536 0.098279 0.759175
0.538450 0.098677 0.744602
0.763431 0.099073 0.744602
0.924089 0.098969 0.744602
0.098941 0.104436 0.841503
0.105837 0.104382 0.835046
0.124557 0.104276 0.820272
0.162505 0.104174 0.798773
0.231678 0.104150 0.774763
0.349734 0.104250 0.752025
0.539001 0.104604 0.744602
0.763691 0.104949 0.744602
0.923334 0.104694 0.744602
0.099464 0.121920 0.796806
0.105865 0.121773 0.792850
0.123419 0.121453 0.783654
0.159548 0.121026 0.769835
0.226481 0.120625 0.753656
0.346555 0.120647 0.744602
0.540449 0.121129 0.744602
0.761920 0.120898 0.744602
0.921356 0.120622 0.744602
0.100392 0.155452 0.752933
0.106389 0.155268 0.750950
0.122923 0.154846 0.746232
0.157918 0.154861 0.744602
0.225632 0.155178 0.744602
0.348666 0.155633 0.744602
0.538749 0.155119 0.744602
0.758588 0.154605 0.744602
0.917633 0.154286 0.744602
0.102016 0.221978 0.744602
0.108014 0.222027 0.744602
0.124453 0.221971 0.744602
0.158976 0.221729 0.744602
0.225358 0.221340 0.744602
0.345402 0.220780 0.744602
0.534361 0.220097 0.744602
0.753229 0.219466 0.744602
0.911644 0.219075 0.744602
0.099847 0.340298 0.744602
0.105645 0.340236 0.744602
0.121778 0.340071 0.744602
0.155888 0.339762 0.744602
0.221570 0.339262 0.744602
0.340539 0.338545 0.744602
0.528083 0.337668 0.744602
0.745556 0.336858 0.744602
0.903784 0.336557 0.745030
0.096975 0.526223 0.744602
0.102676 0.526143 0.744602
0.118551 0.525931 0.744602
0.152158 0.525531 0.744602
0.217364 0.525203 0.745118
0.336557 0.525203 0.746634
0.525203 0.525203 0.748492
0.744602 0.525203 0.750212
0.903784 0.525203 0.751282
0.096216 0.744602 0.748708
0.101953 0.744602 0.748840
0.117941 0.744602 0.749187
0.151839 0.744602 0.749842
0.217364 0.744602 0.750900
0.336557 0.744602 0.752423
0.525203 0.744602 0.754289
0.744602 0.744602 0.756017
0.903398 0.743977 0.756443
0.096216 0.903715 0.752191
0.101951 0.903690 0.752283
0.117930 0.903612 0.752502
0.151776 0.903417 0.752836
0.217035 0.902996 0.753199
0.335139 0.902186 0.753379
0.520740 0.900766 0.752897
0.736121 0.898465 0.750861
0.894958 0.894958 0.746308
0.098804 0.097505 0.947033
0.105493 0.097538 0.944452
0.123736 0.097622 0.938311
0.160960 0.097775 0.928751
0.229274 0.098011 0.917124
0.346572 0.098337 0.905093
0.538899 0.098760 0.903784
0.763816 0.099131 0.903784
0.923474 0.098885 0.903784
0.099024 0.104049 0.938729
0.105526 0.104030 0.936461
0.123324 0.103997 0.931069
0.159848 0.103986 0.922660
0.227289 0.104044 0.912363
0.345785 0.104249 0.903784
0.539451 0.104691 0.903784
0.763141 0.104862 0.903784
0.922719 0.104608 0.903784
0.099563 0.121038 0.921854
0.105750 0.120949 0.920215
0.122773 0.120754 0.916297
0.157992 0.120494 0.910118
0.224265 0.120348 0.903784
0.346903 0.120741 0.903784
0.540899 0.121223 0.903784
0.761370 0.120804 0.903784
0.920742 0.120528 0.903784
0.100526 0.154631 0.903784
0.106474 0.154670 0.903784
0.123041 0.154774 0.903784
0.158138 0.154970 0.903784
0.225903 0.155286 0.903784
0.348457 0.155568 0.903784
0.538300 0.155011 0.903784
0.758040 0.154496 0.903784
0.917020 0.154178 0.903784
0.102061 0.222014 0.903784
0.107933 0.221965 0.903784
0.124262 0.221837 0.903784
0.158755 0.221595 0.903784
0.225088 0.221206 0.903784
0.345056 0.220647 0.903784
0.533914 0.219964 0.903784
0.752683 0.219333 0.903784
0.911033 0.218942 0.903784
0.099679 0.340127 0.903784
0.105472 0.340064 0.903784
0.121589 0.339900 0.903784
0.155670 0.339590 0.903784
0.221302 0.339091 0.903784
0.340195 0.338373 0.903784
0.527640 0.337497 0.903784
0.745013 0.336687 0.903784
0.903784 0.336557 0.904669
0.096810 0.526002 0.903784
0.102506 0.525921 0.903784
0.118365 0.525709 0.903784
0.151943 0.525310 0.903784
0.217364 0.525203 0.904767
0.336557 0.525203 0.906465
0.525203 0.525203 0.908545
0.744602 0.525203 0.910472
0.903784 0.525203 0.911670
0.096216 0.744602 0.908788
0.101953 0.744602 0.908936
0.117941 0.744602 0.909325
0.151839 0.744602 0.910058
0.217364 0.744602 0.911242
0.336557 0.744602 0.912947
0.525203 0.744602 0.915036
0.744582 0.744582 0.916957
0.903016 0.743362 0.917356
0.096216 0.903507 0.912530
0.101948 0.903461 0.912631
0.117913 0.903330 0.912884
0.151712 0.903043 0.913321
0.216826 0.902491 0.913930
0.334548 0.901512 0.914609
0.519470 0.899892 0.914990
0.734389 0.897361 0.914273
0.893595 0.893595 0.911572
