film-luts/Generated/SUPRA_v3.cube
TITLE "Frontier SUPRA v3 - 800T + Daylight Scan Characteristics"
LUT_3D_SIZE 5
DOMAIN_MIN 0.0 0.0 0.0
DOMAIN_MAX 1.0 1.0 1.0
0.001886 0.003049 0.007253
0.099383 0.002642 0.006060
0.330865 0.002445 0.005560
0.411901 0.003101 0.005507
0.435029 0.004853 0.005982
0.001398 0.036546 0.006433
0.031451 0.036481 0.005521
0.424888 0.012319 0.005159
0.531043 0.024579 0.004871
0.562792 0.033388 0.004803
0.001627 0.226264 0.004803
0.002932 0.300000 0.004803
0.638988 0.457237 0.004803
0.838380 0.405481 0.004803
0.846336 0.394673 0.004803
0.001850 0.326789 0.017399
0.010143 0.408937 0.021322
0.425609 0.550760 0.020979
0.873736 0.615532 0.021080
0.897498 0.613754 0.021355
0.001912 0.356715 0.026416
0.026017 0.435905 0.033683
0.395841 0.562475 0.039457
0.861170 0.633973 0.033303
0.890948 0.635117 0.033332
0.001398 0.002517 0.065108
0.052624 0.002902 0.042819
0.356249 0.002445 0.013049
0.430153 0.003125 0.015270
0.452708 0.004916 0.017481
0.001398 0.031757 0.048545
0.022268 0.029348 0.033975
0.427062 0.011090 0.014087
0.544872 0.024711 0.016412
0.577614 0.034462 0.019133
0.001733 0.262322 0.026953
0.001859 0.327395 0.025179
0.607851 0.481236 0.010602
0.834932 0.423271 0.020149
0.845255 0.413482 0.023463
0.001978 0.378889 0.075384
0.005149 0.455720 0.088453
0.416747 0.596149 0.095005
0.862340 0.650919 0.062863
0.886697 0.649434 0.062816
0.001994 0.409984 0.101500
0.010796 0.482537 0.118465
0.391136 0.606728 0.133189
0.847819 0.673132 0.101006
0.878552 0.672608 0.093593
0.001398 0.003172 0.185441
0.003155 0.003156 0.218173
0.361652 0.002445 0.254968
0.476725 0.002445 0.211123
0.492581 0.002745 0.202496
0.001398 0.016606 0.244278
0.001398 0.018127 0.275826
0.417801 0.013628 0.289205
0.583769 0.031306 0.255857
0.608506 0.042725 0.247721
0.001910 0.303090 0.333255
0.002004 0.366701 0.364227
0.516966 0.513788 0.415151
0.793910 0.431959 0.332985
0.808631 0.420582 0.312992
0.001909 0.427592 0.319384
0.001783 0.505998 0.348109
0.296521 0.646119 0.385424
0.815776 0.720701 0.373901
0.845342 0.717295 0.365630
0.001871 0.451535 0.315138
0.001776 0.525746 0.344706
0.292689 0.646093 0.378414
0.806379 0.734281 0.379533
0.840914 0.733007 0.372917
0.001398 0.011731 0.263165
0.003886 0.014060 0.299702
0.251428 0.011386 0.376406
0.510545 0.002505 0.382371
0.517538 0.002540 0.380296
0.001398 0.068733 0.336870
0.001398 0.082396 0.375240
0.316611 0.089295 0.451965
0.611557 0.048094 0.443514
0.625148 0.049656 0.440883
0.001862 0.271785 0.418637
0.001978 0.327133 0.471312
0.380877 0.396242 0.550270
0.743598 0.330967 0.535275
0.766402 0.339461 0.533059
0.001898 0.419439 0.460750
0.001763 0.501363 0.507758
0.185833 0.644264 0.569879
0.784541 0.740908 0.596327
0.819206 0.739510 0.591720
0.001852 0.446501 0.474992
0.001723 0.527867 0.518626
0.182948 0.652975 0.570478
0.773243 0.758367 0.597723
0.814905 0.758543 0.593839
0.001398 0.016309 0.284754
0.005422 0.019729 0.321404
0.233643 0.019501 0.390061
0.522064 0.004092 0.397390
0.529388 0.003322 0.395909
0.001398 0.098960 0.362797
0.001469 0.118624 0.402794
0.299228 0.138428 0.475329
0.631831 0.073365 0.468720
0.643096 0.066538 0.464648
0.001916 0.297166 0.437662
0.002008 0.353137 0.487749
0.346480 0.419253 0.558909
0.740122 0.352383 0.555061
0.760763 0.339258 0.550050
0.001886 0.425133 0.472948
0.001758 0.503567 0.520023
0.169505 0.639092 0.581751
0.778657 0.739278 0.614489
0.814648 0.737532 0.612203
0.001861 0.440107 0.480315
0.001733 0.520111 0.525205
0.148097 0.643916 0.579248
0.767795 0.757009 0.614711
0.810812 0.757893 0.612844
