film-luts/Generated/SUPRA.cube
TITLE "Frontier SUPRA - Daylight Film Emulation"
LUT_3D_SIZE 33
DOMAIN_MIN 0.0 0.0 0.0
DOMAIN_MAX 1.0 1.0 1.0
0.097461 0.096837 0.096216
0.142824 0.097049 0.096216
0.144139 0.097054 0.096216
0.146042 0.097062 0.096216
0.148630 0.097073 0.096216
0.151987 0.097087 0.096216
0.156202 0.097103 0.096216
0.161376 0.097124 0.096216
0.167624 0.097148 0.096216
0.175076 0.097176 0.096216
0.183880 0.097209 0.096216
0.194205 0.097245 0.096216
0.206244 0.097287 0.096216
0.220211 0.097334 0.096216
0.236342 0.097385 0.096216
0.254893 0.097442 0.096216
0.276131 0.097504 0.096216
0.300322 0.097572 0.096216
0.327716 0.097645 0.096216
0.358517 0.097723 0.096216
0.392855 0.097805 0.096216
0.430742 0.097891 0.096216
0.472027 0.097980 0.096216
0.516359 0.098071 0.096216
0.563152 0.098162 0.096216
0.611584 0.098252 0.096216
0.660623 0.098339 0.096216
0.709097 0.098421 0.096216
0.759681 0.098503 0.096216
0.809199 0.098581 0.096216
0.853212 0.098648 0.096216
0.891024 0.098704 0.096216
0.922470 0.098749 0.096216
0.097891 0.109477 0.096216
0.107611 0.106720 0.096216
0.115260 0.104849 0.096216
0.123011 0.103233 0.096216
0.130434 0.101971 0.096216
0.137539 0.101037 0.096216
0.144584 0.100360 0.096216
0.151881 0.099870 0.096216
0.159728 0.099516 0.096216
0.168396 0.099259 0.096216
0.178136 0.099074 0.096216
0.189192 0.098942 0.096216
0.201808 0.098851 0.096216
0.216237 0.098791 0.096216
0.232745 0.098757 0.096216
0.251607 0.098745 0.096216
0.273106 0.098749 0.096216
0.297524 0.098769 0.096216
0.325118 0.098802 0.096216
0.356104 0.098846 0.096216
0.390617 0.098900 0.096216
0.428675 0.098961 0.096216
0.470133 0.099029 0.096216
0.514642 0.099102 0.096216
0.561617 0.099177 0.096216
0.610236 0.099253 0.096216
0.659464 0.099327 0.096216
0.708125 0.099398 0.096216
0.759794 0.099480 0.096216
0.809316 0.099558 0.096216
0.853332 0.099625 0.096216
0.891148 0.099681 0.096216
0.922596 0.099727 0.096216
0.097926 0.110533 0.096216
0.103423 0.109042 0.096216
0.108678 0.107758 0.096216
0.114968 0.106398 0.096216
0.121896 0.105120 0.096216
0.129189 0.104014 0.096216
0.136786 0.103105 0.096216
0.144772 0.102378 0.096216
0.153316 0.101805 0.096216
0.162628 0.101358 0.096216
0.172937 0.101011 0.096216
0.184484 0.100743 0.096216
0.197519 0.100539 0.096216
0.212305 0.100385 0.096216
0.229116 0.100272 0.096216
0.248240 0.100192 0.096216
0.269968 0.100141 0.096216
0.294589 0.100113 0.096216
0.322369 0.100105 0.096216
0.353530 0.100114 0.096216
0.388213 0.100138 0.096216
0.426443 0.100173 0.096216
0.468077 0.100219 0.096216
0.512770 0.100272 0.096216
0.559938 0.100330 0.096216
0.608756 0.100391 0.096216
0.658189 0.100452 0.096216
0.707054 0.100511 0.096216
0.759922 0.100595 0.096216
0.809449 0.100674 0.096216
0.853469 0.100742 0.096216
0.891288 0.100798 0.096216
0.922739 0.100844 0.096216
0.097976 0.112063 0.096216
0.101585 0.111158 0.096216
0.105336 0.110289 0.096216
0.110225 0.109262 0.096216
0.116096 0.108178 0.096216
0.122764 0.107128 0.096216
0.130118 0.106173 0.096216
0.138141 0.105340 0.096216
0.146897 0.104632 0.096216
0.156514 0.104042 0.096216
0.167164 0.103556 0.096216
0.179054 0.103161 0.096216
0.192416 0.102842 0.096216
0.207504 0.102586 0.096216
0.224591 0.102384 0.096216
0.243966 0.102227 0.096216
0.265923 0.102109 0.096216
0.290758 0.102022 0.096216
0.318741 0.101964 0.096216
0.350101 0.101928 0.096216
0.384986 0.101913 0.096216
0.423425 0.101915 0.096216
0.465281 0.101931 0.096216
0.510210 0.101958 0.096216
0.557630 0.101993 0.096216
0.606716 0.102033 0.096216
0.656424 0.102076 0.096216
0.706272 0.102125 0.096216
0.760106 0.102214 0.096216
0.809640 0.102294 0.096216
0.853666 0.102362 0.096216
0.891490 0.102419 0.096216
0.922945 0.102465 0.096216
0.098043 0.114147 0.096216
0.100676 0.113550 0.096216
0.103528 0.112943 0.096216
0.107417 0.112179 0.096216
0.112331 0.111311 0.096216
0.118201 0.110405 0.096216
0.124971 0.109515 0.096216
0.132625 0.108682 0.096216
0.141196 0.107927 0.096216
0.150768 0.107261 0.096216
0.161471 0.106684 0.096216
0.173476 0.106191 0.096216
0.186989 0.105774 0.096216
0.202247 0.105426 0.096216
0.219511 0.105138 0.096216
0.239063 0.104903 0.096216
0.261199 0.104713 0.096216
0.286211 0.104563 0.096216
0.314377 0.104447 0.096216
0.345928 0.104362 0.096216
0.381017 0.104301 0.096216
0.419679 0.104263 0.096216
0.461782 0.104243 0.096216
0.506985 0.104238 0.096216
0.554707 0.104245 0.096216
0.604116 0.104260 0.096216
0.654166 0.104280 0.096216
0.706511 0.104334 0.096216
0.760355 0.104425 0.096216
0.809898 0.104505 0.096216
0.853932 0.104574 0.096216
0.891763 0.104632 0.096216
0.923224 0.104679 0.096216
0.098130 0.116854 0.096216
0.100207 0.116434 0.096216
0.102506 0.115992 0.096216
0.105721 0.115415 0.096216
0.109907 0.114728 0.096216
0.115068 0.113973 0.096216
0.121208 0.113190 0.096216
0.128343 0.112416 0.096216
0.136518 0.111678 0.096216
0.145809 0.110994 0.096216
0.156331 0.110374 0.096216
0.168236 0.109821 0.096216
0.181709 0.109336 0.096216
0.196973 0.108916 0.096216
0.214276 0.108555 0.096216
0.233892 0.108249 0.096216
0.256111 0.107992 0.096216
0.281227 0.107780 0.096216
0.309517 0.107606 0.096216
0.341215 0.107468 0.096216
0.376480 0.107359 0.096216
0.415352 0.107277 0.096216
0.457702 0.107218 0.096216
0.503193 0.107177 0.096216
0.551242 0.107151 0.096216
0.601016 0.107136 0.096216
0.651458 0.107130 0.096216
0.706817 0.107213 0.096216
0.760675 0.107305 0.096216
0.810230 0.107387 0.096216
0.854274 0.107457 0.096216
0.892114 0.107516 0.096216
0.923582 0.107563 0.096216
0.098237 0.120261 0.096216
0.099973 0.119950 0.096216
0.101918 0.119616 0.096216
0.104677 0.119169 0.096216
0.108333 0.118621 0.096216
0.112932 0.117997 0.096216
0.118514 0.117324 0.096216
0.125131 0.116631 0.096216
0.132846 0.115943 0.096216
0.141747 0.115279 0.096216
0.151951 0.114654 0.096216
0.163603 0.114077 0.096216
0.176885 0.113554 0.096216
0.192007 0.113085 0.096216
0.209212 0.112669 0.096216
0.228769 0.112306 0.096216
0.250963 0.111992 0.096216
0.276086 0.111723 0.096216
0.304417 0.111495 0.096216
0.336194 0.111305 0.096216
0.371581 0.111149 0.096216
0.410621 0.111022 0.096216
0.453193 0.110921 0.096216
0.498961 0.110842 0.096216
0.547343 0.110782 0.096216
0.597502 0.110735 0.096216
0.650622 0.110748 0.096216
0.707197 0.110851 0.096216
0.761072 0.110945 0.096216
0.810642 0.111028 0.096216
0.854699 0.111100 0.096216
0.892550 0.111160 0.096216
0.924026 0.111208 0.096216
0.098367 0.124454 0.096216
0.099880 0.124214 0.096216
0.101589 0.123953 0.096216
0.104033 0.123599 0.096216
0.107306 0.123154 0.096216
0.111474 0.122635 0.096216
0.116601 0.122060 0.096216
0.122759 0.121449 0.096216
0.130032 0.120824 0.096216
0.138521 0.120201 0.096216
0.148350 0.119596 0.096216
0.159672 0.119021 0.096216
0.172665 0.118482 0.096216
0.187542 0.117987 0.096216
0.204541 0.117536 0.096216
0.223931 0.117131 0.096216
0.245996 0.116772 0.096216
0.271029 0.116456 0.096216
0.299312 0.116181 0.096216
0.331087 0.115944 0.096216
0.366524 0.115742 0.096216
0.405675 0.115572 0.096216
0.448422 0.115430 0.096216
0.494437 0.115313 0.096216
0.543137 0.115216 0.096216
0.593678 0.115136 0.096216
0.651061 0.115246 0.096216
0.707658 0.115351 0.096216
0.761552 0.115448 0.096216
0.811140 0.115533 0.096216
0.855214 0.115606 0.096216
0.893077 0.115667 0.096216
0.924565 0.115717 0.096216
0.098520 0.129533 0.096216
0.099883 0.129342 0.096216
0.101427 0.129132 0.096216
0.103648 0.128843 0.096216
0.106641 0.128477 0.096216
0.110482 0.128040 0.096216
0.115248 0.127547 0.096216
0.121023 0.127011 0.096216
0.127905 0.126448 0.096216
0.136006 0.125874 0.096216
0.145460 0.125302 0.096216
0.156425 0.124744 0.096216
0.169086 0.124210 0.096216
0.183657 0.123705 0.096216
0.200380 0.123235 0.096216
0.219524 0.122803 0.096216
0.241378 0.122411 0.096216
0.266238 0.122058 0.096216
0.294389 0.121744 0.096216
0.326083 0.121467 0.096216
0.361497 0.121225 0.096216
0.400690 0.121015 0.096216
0.443556 0.120834 0.096216
0.489770 0.120679 0.096216
0.538753 0.120547 0.096216
0.594054 0.120609 0.096216
0.651582 0.120725 0.096216
0.708206 0.120834 0.096216
0.762124 0.120933 0.096216
0.811733 0.121021 0.096216
0.855825 0.121096 0.096216
0.893705 0.121159 0.096216
0.925205 0.121210 0.096216
0.098700 0.135614 0.096216
0.099956 0.135457 0.096216
0.101383 0.135284 0.096216
0.103441 0.135044 0.096216
0.106226 0.134735 0.096216
0.109818 0.134364 0.096216
0.114300 0.133937 0.096216
0.119763 0.133466 0.096216
0.126313 0.132961 0.096216
0.134071 0.132436 0.096216
0.143176 0.131902 0.096216
0.153794 0.131370 0.096216
0.166115 0.130850 0.096216
0.180358 0.130349 0.096216
0.196769 0.129872 0.096216
0.215622 0.129426 0.096216
0.237208 0.129012 0.096216
0.261832 0.128632 0.096216
0.289785 0.128287 0.096216
0.321329 0.127977 0.096216
0.356649 0.127700 0.096216
0.395818 0.127455 0.096216
0.438740 0.127239 0.096216
0.485099 0.127049 0.096216
0.537930 0.127085 0.096216
0.594633 0.127210 0.096216
0.652193 0.127329 0.096216
0.708847 0.127442 0.096216
0.762793 0.127544 0.096216
0.812428 0.127634 0.096216
0.856541 0.127711 0.096216
0.893966 0.127700 0.096216
0.924803 0.127648 0.096216
0.098908 0.142830 0.096216
0.100086 0.142699 0.096216
0.101427 0.142553 0.096216
0.103364 0.142349 0.096216
0.105993 0.142086 0.096216
0.109394 0.141765 0.096216
0.113652 0.141392 0.096216
0.118864 0.140974 0.096216
0.125138 0.140521 0.096216
0.132600 0.140041 0.096216
0.141396 0.139546 0.096216
0.151695 0.139044 0.096216
0.163691 0.138544 0.096216
0.177609 0.138054 0.096216
0.193699 0.137580 0.096216
0.212239 0.137128 0.096216
0.233528 0.136702 0.096216
0.257876 0.136304 0.096216
0.285585 0.135937 0.096216
0.316924 0.135601 0.096216
0.352093 0.135295 0.096216
0.391178 0.135019 0.096216
0.434096 0.134772 0.096216
0.484208 0.134841 0.096216
0.538562 0.134972 0.096216
0.595303 0.135102 0.096216
0.652900 0.135226 0.096216
0.709589 0.135342 0.096216
0.763568 0.135448 0.096216
0.812854 0.135475 0.096216
0.856039 0.135394 0.096216
0.893117 0.135327 0.096216
0.923936 0.135273 0.096216
0.099145 0.151340 0.096216
0.100265 0.151227 0.096216
0.101541 0.151101 0.096216
0.103388 0.150926 0.096216
0.105897 0.150696 0.096216
0.109149 0.150415 0.096216
0.113231 0.150086 0.096216
0.118240 0.149713 0.096216
0.124287 0.149304 0.096216
0.131500 0.148865 0.096216
0.140028 0.148406 0.096216
0.150043 0.147934 0.096216
0.161743 0.147457 0.096216
0.175354 0.146983 0.096216
0.191132 0.146518 0.096216
0.209360 0.146067 0.096216
0.230341 0.145636 0.096216
0.254394 0.145227 0.096216
0.281830 0.144844 0.096216
0.312928 0.144488 0.096216
0.347904 0.144159 0.096216
0.387510 0.143944 0.096216
0.434045 0.144076 0.096216
0.484889 0.144212 0.096216
0.539286 0.144349 0.096216
0.596070 0.144484 0.096216
0.653711 0.144613 0.096216
0.710440 0.144733 0.096216
0.763342 0.144632 0.096216
0.811934 0.144535 0.096216
0.855091 0.144452 0.096216
0.892145 0.144382 0.096216
0.922945 0.144326 0.096216
0.099414 0.161323 0.096216
0.100490 0.161225 0.096216
0.101717 0.161115 0.096216
0.103493 0.160961 0.096216
0.105910 0.160759 0.096216
0.109046 0.160509 0.096216
0.112988 0.160215 0.096216
0.117834 0.159879 0.096216
0.123695 0.159507 0.096216
0.130700 0.159105 0.096216
0.138999 0.158678 0.096216
0.148766 0.158235 0.096216
0.160201 0.157782 0.096216
0.173532 0.157326 0.096216
0.189019 0.156872 0.096216
0.206948 0.156428 0.096216
0.227628 0.155996 0.096216
0.251383 0.155582 0.096216
0.278533 0.155189 0.096216
0.309371 0.154818 0.096216
0.346294 0.154892 0.096216
0.388189 0.155025 0.096216
0.434770 0.155164 0.096216
0.485663 0.155306 0.096216
0.540109 0.155448 0.096216
0.596943 0.155589 0.096216
0.653997 0.155586 0.096216
0.709518 0.155460 0.096216
0.762335 0.155346 0.096216
0.810890 0.155244 0.096216
0.854014 0.155157 0.096216
0.891041 0.155085 0.096216
0.921819 0.155026 0.096216
0.099717 0.172989 0.096216
0.100760 0.172902 0.096216
0.101948 0.172805 0.096216
0.103670 0.172667 0.096216
0.106014 0.172487 0.096216
0.109058 0.172263 0.096216
0.112888 0.171997 0.096216
0.117602 0.171692 0.096216
0.123310 0.171352 0.096216
0.130142 0.170980 0.096216
0.138248 0.170584 0.096216
0.147802 0.170167 0.096216
0.159005 0.169737 0.096216
0.172088 0.169299 0.096216
0.187309 0.168859 0.096216
0.204960 0.168423 0.096216
0.225353 0.167995 0.096216
0.248836 0.167587 0.096216
0.277193 0.167702 0.096216
0.309813 0.167826 0.096216
0.347011 0.167958 0.096216
0.388956 0.168098 0.096216
0.435589 0.168243 0.096216
0.486536 0.168392 0.096216
0.540888 0.168503 0.096216
0.596538 0.168356 0.096216
0.652959 0.168215 0.096216
0.708430 0.168083 0.096216
0.761200 0.167964 0.096216
0.809713 0.167858 0.096216
0.852801 0.167767 0.096216
0.889798 0.167691 0.096216
0.920551 0.167629 0.096216
0.100056 0.186577 0.096216
0.101072 0.186498 0.096216
0.102231 0.186411 0.096216
0.103909 0.186287 0.096216
0.106196 0.186124 0.096216
0.109167 0.185921 0.096216
0.112908 0.185679 0.096216
0.117515 0.185399 0.096216
0.123098 0.185086 0.096216
0.129787 0.184741 0.096216
0.137731 0.184370 0.096216
0.147103 0.183978 0.096216
0.158106 0.183569 0.096216
0.170969 0.183149 0.096216
0.185953 0.182724 0.096216
0.203897 0.182725 0.096216
0.224972 0.182826 0.096216
0.249498 0.182937 0.096216
0.277899 0.183058 0.096216
0.310566 0.183188 0.096216
0.347815 0.183328 0.096216
0.389815 0.183475 0.096216
0.436507 0.183628 0.096216
0.486527 0.183505 0.096216
0.539848 0.183348 0.096216
0.595436 0.183193 0.096216
0.651798 0.183045 0.096216
0.707212 0.182906 0.096216
0.759930 0.182780 0.096216
0.808396 0.182669 0.096216
0.851444 0.182573 0.096216
0.888407 0.182494 0.096216
0.919132 0.182429 0.096216
0.100433 0.202353 0.096216
0.101428 0.202282 0.096216
0.102563 0.202203 0.096216
0.104207 0.202090 0.096216
0.106448 0.201941 0.096216
0.109361 0.201755 0.096216
0.113030 0.201533 0.096216
0.117550 0.201275 0.096216
0.123031 0.200984 0.096216
0.129602 0.200663 0.096216
0.137415 0.200330 0.096216
0.146820 0.200390 0.096216
0.157946 0.200459 0.096216
0.171064 0.200536 0.096216
0.186482 0.200623 0.096216
0.204554 0.200719 0.096216
0.225667 0.200826 0.096216
0.250236 0.200943 0.096216
0.278684 0.201071 0.096216
0.311404 0.201208 0.096216
0.348711 0.201356 0.096216
0.389913 0.201219 0.096216
0.435597 0.201057 0.096216
0.485439 0.200892 0.096216
0.538692 0.200726 0.096216
0.594212 0.200563 0.096216
0.650507 0.200407 0.096216
0.705859 0.200261 0.096216
0.758518 0.200128 0.096216
0.806933 0.200011 0.096216
0.849936 0.199910 0.096216
0.886861 0.199826 0.096216
0.917555 0.199758 0.096216
0.100859 0.221066 0.096216
0.101842 0.221074 0.096216
0.102965 0.221083 0.096216
0.104594 0.221096 0.096216
0.106818 0.221114 0.096216
0.109716 0.221137 0.096216
0.113376 0.221166 0.096216
0.117903 0.221201 0.096216
0.123415 0.221242 0.096216
0.130055 0.221291 0.096216
0.137991 0.221347 0.096216
0.147419 0.221411 0.096216
0.158571 0.221483 0.096216
0.171718 0.221565 0.096216
0.187170 0.221657 0.096216
0.205280 0.221760 0.096216
0.226436 0.221873 0.096216
0.251053 0.221997 0.096216
0.279237 0.221993 0.096216
0.311283 0.221848 0.096216
0.347771 0.221692 0.096216
0.388856 0.221528 0.096216
0.434470 0.221357 0.096216
0.484238 0.221182 0.096216
0.537416 0.221007 0.096216
0.592861 0.220835 0.096216
0.649083 0.220669 0.096216
0.704365 0.220515 0.096216
0.756961 0.220375 0.096216
0.805318 0.220250 0.096216
0.848271 0.220144 0.096216
0.885154 0.220055 0.096216
0.915814 0.219982 0.096216
0.101387 0.245528 0.096216
0.102373 0.245537 0.096216
0.103499 0.245546 0.096216
0.105133 0.245561 0.096216
0.107364 0.245580 0.096216
0.110270 0.245604 0.096216
0.113942 0.245635 0.096216
0.118481 0.245672 0.096216
0.124009 0.245716 0.096216
0.130668 0.245767 0.096216
0.138625 0.245827 0.096216
0.148077 0.245895 0.096216
0.159258 0.245972 0.096216
0.172438 0.246059 0.096216
0.187884 0.246131 0.096216
0.205641 0.246023 0.096216
0.226360 0.245902 0.096216
0.250440 0.245771 0.096216
0.278284 0.245627 0.096216
0.310267 0.245473 0.096216
0.346687 0.245308 0.096216
0.387699 0.245133 0.096216
0.433235 0.244952 0.096216
0.482923 0.244767 0.096216
0.536018 0.244581 0.096216
0.591381 0.244398 0.096216
0.647523 0.244223 0.096216
0.702728 0.244059 0.096216
0.755253 0.243910 0.096216
0.803548 0.243778 0.096216
0.846447 0.243665 0.096216
0.883284 0.243570 0.096216
0.913906 0.243494 0.096216
0.101964 0.273878 0.096216
0.102953 0.273887 0.096216
0.104083 0.273898 0.096216
0.105722 0.273913 0.096216
0.107960 0.273933 0.096216
0.110876 0.273959 0.096216
0.114559 0.273992 0.096216
0.119086 0.274009 0.096216
0.124512 0.273963 0.096216
0.131044 0.273908 0.096216
0.138843 0.273844 0.096216
0.148102 0.273772 0.096216
0.159044 0.273690 0.096216
0.171930 0.273597 0.096216
0.187060 0.273493 0.096216
0.204772 0.273377 0.096216
0.225441 0.273249 0.096216
0.249465 0.273109 0.096216
0.277247 0.272957 0.096216
0.309163 0.272792 0.096216
0.345509 0.272617 0.096216
0.386442 0.272431 0.096216
0.431894 0.272239 0.096216
0.481493 0.272042 0.096216
0.534499 0.271844 0.096216
0.589772 0.271650 0.096216
0.645826 0.271463 0.096216
0.700948 0.271289 0.096216
0.753397 0.271130 0.096216
0.801624 0.270990 0.096216
0.844463 0.270870 0.096216
0.881250 0.270769 0.096216
0.911832 0.270687 0.096216
0.101661 0.305635 0.096216
0.102627 0.305625 0.096216
0.103732 0.305614 0.096216
0.105333 0.305598 0.096216
0.107519 0.305576 0.096216
0.110366 0.305548 0.096216
0.113961 0.305514 0.096216
0.118405 0.305472 0.096216
0.123813 0.305422 0.096216
0.130323 0.305364 0.096216
0.138098 0.305296 0.096216
0.147328 0.305219 0.096216
0.158237 0.305131 0.096216
0.171086 0.305032 0.096216
0.186173 0.304922 0.096216
0.203837 0.304798 0.096216
0.224452 0.304662 0.096216
0.248416 0.304513 0.096216
0.276132 0.304350 0.096216
0.307974 0.304175 0.096216
0.344240 0.303988 0.096216
0.385087 0.303791 0.096216
0.430448 0.303585 0.096216
0.479954 0.303375 0.096216
0.532862 0.303164 0.096216
0.588039 0.302957 0.096216
0.643998 0.302759 0.096216
0.699031 0.302573 0.096216
0.751398 0.302404 0.096216
0.799550 0.302254 0.096216
0.842325 0.302126 0.096216
0.879059 0.302019 0.096216
0.909596 0.301932 0.096216
0.100998 0.341472 0.096216
0.101961 0.341461 0.096216
0.103060 0.341449 0.096216
0.104656 0.341432 0.096216
0.106834 0.341409 0.096216
0.109670 0.341379 0.096216
0.113252 0.341342 0.096216
0.117680 0.341297 0.096216
0.123069 0.341244 0.096216
0.129557 0.341182 0.096216
0.137305 0.341110 0.096216
0.146504 0.341027 0.096216
0.157378 0.340934 0.096216
0.170187 0.340828 0.096216
0.185229 0.340710 0.096216
0.202842 0.340579 0.096216
0.223399 0.340433 0.096216
0.247299 0.340274 0.096216
0.274943 0.340101 0.096216
0.306707 0.339914 0.096216
0.342888 0.339714 0.096216
0.383644 0.339504 0.096216
0.428908 0.339284 0.096216
0.478312 0.339060 0.096216
0.531117 0.338835 0.096216
0.586191 0.338614 0.096216
0.642049 0.338402 0.096216
0.696987 0.338204 0.096216
0.749265 0.338024 0.096216
0.797339 0.337864 0.096216
0.840046 0.337727 0.096216
0.876722 0.337613 0.096216
0.907212 0.337520 0.096216
0.100300 0.381823 0.096216
0.101260 0.381812 0.096216
0.102355 0.381799 0.096216
0.103944 0.381781 0.096216
0.106113 0.381756 0.096216
0.108939 0.381725 0.096216
0.112507 0.381685 0.096216
0.116917 0.381637 0.096216
0.122286 0.381581 0.096216
0.128750 0.381514 0.096216
0.136471 0.381437 0.096216
0.145638 0.381349 0.096216
0.156475 0.381249 0.096216
0.169241 0.381137 0.096216
0.184235 0.381011 0.096216
0.201794 0.380870 0.096216
0.222291 0.380715 0.096216
0.246123 0.380545 0.096216
0.273692 0.380360 0.096216
0.305373 0.380161 0.096216
0.341465 0.379948 0.096216
0.382124 0.379723 0.096216
0.427286 0.379489 0.096216
0.476584 0.379250 0.096216
0.529280 0.379009 0.096216
0.584244 0.378773 0.096216
0.639997 0.378547 0.096216
0.694833 0.378335 0.096216
0.747019 0.378143 0.096216
0.795010 0.377973 0.096216
0.837645 0.377827 0.096216
0.874260 0.377705 0.096216
0.904701 0.377605 0.096216
0.099578 0.426624 0.096216
0.100533 0.426612 0.096216
0.101624 0.426598 0.096216
0.103207 0.426578 0.096216
0.105367 0.426552 0.096216
0.108181 0.426518 0.096216
0.111735 0.426476 0.096216
0.116128 0.426425 0.096216
0.121475 0.426365 0.096216
0.127915 0.426294 0.096216
0.135606 0.426212 0.096216
0.144740 0.426118 0.096216
0.155539 0.426011 0.096216
0.168261 0.425891 0.096216
0.183205 0.425756 0.096216
0.200708 0.425607 0.096216
0.221141 0.425441 0.096216
0.244903 0.425260 0.096216
0.272394 0.425063 0.096216
0.303989 0.424850 0.096216
0.339988 0.424622 0.096216
0.380547 0.424382 0.096216
0.425602 0.424133 0.096216
0.474789 0.423878 0.096216
0.527372 0.423621 0.096216
0.582223 0.423369 0.096216
0.637865 0.423128 0.096216
0.692597 0.422902 0.096216
0.744686 0.422697 0.096216
0.793027 0.422666 0.096301
0.836065 0.422666 0.096388
0.873038 0.422666 0.096462
0.903784 0.422666 0.096521
0.098842 0.475505 0.096216
0.099793 0.475492 0.096216
0.100879 0.475478 0.096216
0.102455 0.475457 0.096216
0.104606 0.475429 0.096216
0.107408 0.475393 0.096216
0.110947 0.475348 0.096216
0.115322 0.475294 0.096216
0.120649 0.475229 0.096216
0.127063 0.475154 0.096216
0.134725 0.475066 0.096216
0.143824 0.474966 0.096216
0.154583 0.474853 0.096216
0.167261 0.474725 0.096216
0.182154 0.474581 0.096216
0.199599 0.474422 0.096216
0.219968 0.474246 0.096216
0.243657 0.474052 0.096216
0.271069 0.473842 0.096216
0.302577 0.473615 0.096216
0.338480 0.473373 0.096216
0.378936 0.473117 0.096216
0.423883 0.472851 0.096216
0.472956 0.472580 0.096216
0.525423 0.472306 0.096216
0.580530 0.472203 0.096302
0.636692 0.472203 0.096438
0.691968 0.472203 0.096565
0.744602 0.472203 0.096681
0.793027 0.472203 0.096784
0.836065 0.472203 0.096872
0.873038 0.472203 0.096945
0.903784 0.472203 0.097005
0.098106 0.527736 0.096216
0.099053 0.527722 0.096216
0.100134 0.527707 0.096216
0.101704 0.527685 0.096216
0.103845 0.527655 0.096216
0.106636 0.527617 0.096216
0.110160 0.527569 0.096216
0.114517 0.527511 0.096216
0.119822 0.527443 0.096216
0.126210 0.527362 0.096216
0.133843 0.527270 0.096216
0.142908 0.527163 0.096216
0.153628 0.527043 0.096216
0.166260 0.526907 0.096216
0.181102 0.526754 0.096216
0.198490 0.526585 0.096216
0.218794 0.526397 0.096216
0.242411 0.526192 0.096216
0.269742 0.525969 0.096216
0.301162 0.525727 0.096216
0.336969 0.525470 0.096216
0.377330 0.525203 0.096218
0.422666 0.525203 0.096358
0.472203 0.525203 0.096501
0.525203 0.525203 0.096646
0.580530 0.525203 0.096787
0.636692 0.525203 0.096924
0.691968 0.525203 0.097051
0.744602 0.525203 0.097167
0.793027 0.525203 0.097270
0.836065 0.525203 0.097358
0.873038 0.525203 0.097432
0.903784 0.525203 0.097492
0.097386 0.582195 0.096216
0.098329 0.582181 0.096216
0.099405 0.582164 0.096216
0.100968 0.582141 0.096216
0.103101 0.582109 0.096216
0.105879 0.582069 0.096216
0.109389 0.582018 0.096216
0.113728 0.581957 0.096216
0.119012 0.581884 0.096216
0.125376 0.581799 0.096216
0.132979 0.581701 0.096216
0.142011 0.581589 0.096216
0.152692 0.581461 0.096216
0.165280 0.581317 0.096216
0.180072 0.581155 0.096216
0.197402 0.580976 0.096216
0.217643 0.580778 0.096216
0.241189 0.580560 0.096216
0.268705 0.580530 0.096312
0.300404 0.580530 0.096432
0.336557 0.580530 0.096559
0.377330 0.580530 0.096694
0.422666 0.580530 0.096835
0.472203 0.580530 0.096979
0.525203 0.580530 0.097123
0.580530 0.580530 0.097266
0.636692 0.580530 0.097402
0.691968 0.580530 0.097530
0.744602 0.580530 0.097647
0.793027 0.580530 0.097750
0.836065 0.580530 0.097838
0.873038 0.580530 0.097912
0.903784 0.580530 0.097972
0.096697 0.637417 0.096216
0.097636 0.637402 0.096216
0.098709 0.637385 0.096216
0.100265 0.637360 0.096216
0.102389 0.637327 0.096216
0.105156 0.637284 0.096216
0.108652 0.637231 0.096216
0.112975 0.637166 0.096216
0.118238 0.637090 0.096216
0.124578 0.637000 0.096216
0.132153 0.636896 0.096216
0.141152 0.636778 0.096216
0.151839 0.636692 0.096237
0.164525 0.636692 0.096305
0.179441 0.636692 0.096380
0.196928 0.636692 0.096464
0.217364 0.636692 0.096557
0.241153 0.636692 0.096659
0.268705 0.636692 0.096770
0.300404 0.636692 0.096890
0.336557 0.636692 0.097018
0.377330 0.636692 0.097153
0.422666 0.636692 0.097294
0.472203 0.636692 0.097438
0.525203 0.636692 0.097583
0.580530 0.636692 0.097726
